Gianni-gaetano/Franka_Autonomous_Capture/IRAS/RobotData/RealData11082024_1.csv
Timestamp,Theta (J1),Theta (J2),Theta (J3),Theta (J4),Theta (J5),Theta (J6),Theta (J7),Theta_dot (J1),Theta_dot (J2),Theta_dot (J3),Theta_dot (J4),Theta_dot (J5),Theta_dot (J6),Theta_dot (J7),Joint Efforts (J1),Joint Efforts (J2),Joint Efforts (J3),Joint Efforts (J4),Joint Efforts (J5),Joint Efforts (J6),Joint Efforts (J7),Cartesian Position (x),Cartesian Position (y),Cartesian Position (z),Orientation (w),Orientation (p),Orientation (r)
2024-11-08 11:25:34.837220,-0.014267062029942108,-0.7748536792585156,0.012137966262027613,-2.3592973117689766,-0.021270365544302255,1.568285549808212,0.8018349100560993,-0.0009132727695276715,-0.0005218426047129144,-0.0007176998640946314,-0.00021930744604829072,-9.518911407206362e-05,-0.0003333729849067421,-0.0012004057079967527,0.12820065021514893,-4.431209087371826,-0.8681718707084656,22.49638557434082,0.8810684084892273,2.367300033569336,0.0341663584113121,0.30759346028467827,-0.004933758178852697,0.4821740287092687,-178.29981464545335,0.9372465343690034,-1.2454919850388457
2024-11-08 11:25:56.433155,-0.002138501599686627,-0.784083548298535,0.00016887380321097174,-2.3561201222090884,-0.00011538571166762855,1.570850810207835,0.7870238060220995,-0.16180461679813812,-0.0034274820007062297,0.01081296650108984,-0.00044796582677841465,0.0010840995595518006,0.006508944166365178,-0.002165443345281812,-4.092990875244141,-3.951167583465576,-4.625190734863281,22.59953498840332,0.6686660647392273,2.320608139038086,-0.018934227526187897,0.3071717502098593,-0.0006261119643089052,0.4866597072893321,-179.98669328148875,0.06796666755913403,-0.2088106750107515
2024-11-08 11:25:56.445779,-0.005740632621821465,-0.7840407507096092,0.00017049016772979238,-2.3560919083322447,-0.00027557709855935165,1.5708248502066653,0.7870285410916742,-0.09912875091931095,0.0010332712362026242,-0.019846563220185034,-0.002990657766577703,-0.039807590574026996,0.006825547976034656,4.0080612589733235e-05,-1.561862826347351,-4.685115337371826,-1.2768023014068604,22.34562873840332,2.156398057937622,2.545827865600586,-0.0775279775261879,0.30717205211618687,-0.0017657811527049137,0.4866576119969744,-179.97770791372304,0.07038904345581688,-0.41539153816622343
2024-11-08 11:25:56.492697,-0.009657055918139984,-0.7841093216870959,-6.486232764942828e-05,-2.3561412714556482,-0.000100024965215825,1.5708182497427494,0.7870194160796689,-0.11085333754226182,-0.0037058890681495402,0.00853684624484077,0.0006217973654104223,0.003175048553031422,-0.012248349591954047,0.0007871022140180087,0.23135006427764893,-3.800410747528076,-0.38019582629203796,22.98039436340332,0.9140273928642273,2.897390365600586,-0.0317516103386879,0.30714412408111197,-0.0030083913024742106,0.4866547819915984,-179.9975683265852,0.0695668178466966,-0.6488240426860785
2024-11-08 11:25:56.536692,-0.013171536797835212,-0.7840564707814263,5.623878295285211e-05,-2.3560582590017183,-9.283861514219633e-05,1.5708775061393274,0.787022944529476,-0.10009170397095134,0.008085113318901872,0.0017919256942023171,-0.00018424305038176468,-0.0001324724796938572,-0.0027652206723312914,0.0007494357640285209,-0.8437842130661011,-4.605769634246826,-1.0189287662506104,22.16710090637207,0.8938857913017273,2.433218002319336,-0.0647105947136879,0.3071634533056549,-0.004047245766403231,0.48668293563428616,-179.9932518558852,0.0645108375075595,-0.8454791016868266
2024-11-08 11:25:56.580693,-0.016906548610153158,-0.7840994222320823,4.1754390180503474e-05,-2.356100063781779,-0.00011188484943253779,1.5708679949309228,0.7870212555324085,-0.11484934783777091,-0.0043200823280830575,-0.0005677152117904976,0.003956955863409229,0.0007577493808041791,-0.000848015260387177,0.001342566004296355,-0.12967288494110107,-3.951167583465576,-0.6102983355522156,22.47258186340332,1.0266371965408325,2.473501205444336,-0.0775279775261879,0.3071320756235439,-0.005202967004310902,0.4866755609266821,-179.9929963666299,0.06502335025379413,-1.0599692606570859
2024-11-08 11:25:56.624743,-0.020709081035853068,-0.7840963755227665,2.6870799853019242e-05,-2.3560920520737203,-0.00011131654633380528,1.570870418141552,0.787018538860234,-0.10883217594547512,0.002062431500994517,-7.19360818762318e-05,-0.00015119125616284217,-0.001124404403282579,0.0007683164816974159,0.0001790022059063929,-0.12967288494110107,-4.050349712371826,-0.5864946246147156,22.49638557434082,1.0138198137283325,2.479909896850586,-0.0518932119011879,0.3071119796961693,-0.0063755793373080774,0.48667861958576986,-179.9938702401153,0.06461321293545344,-1.2782866444631582
2024-11-08 11:25:56.624784,-0.024335629943335005,-0.7840988289971614,5.551370011758094e-05,-2.356099010653153,-0.0001059138603943239,1.5708693053563887,0.7870188906793516,-0.1076313532413886,0.000636262445532595,-0.0009537439475252595,-0.0007201741739928844,-0.0012818258589074062,-0.0005139669687551206,-0.0013843211270471915,-0.4113501310348511,-4.050349712371826,-0.8404008746147156,22.59953498840332,0.9671279788017273,2.486318588256836,-0.0317516103386879,0.3070855891466248,-0.007478783518931371,0.48667599073368084,-179.99326197568234,0.06497735349673535,-1.4849312802604975
2024-11-08 11:25:56.668685,-0.028000578855198476,-0.78407436480679,6.409951477877519e-05,-2.3560984065922246,-0.00010516026520281788,1.5708720397366391,0.7870214421093404,-0.10767275494411713,-0.0004911853163852315,0.0013097087922581158,-0.00016888445742142735,-0.00010928223567965942,-0.001938711186889433,0.0009332223458851615,-0.7406347990036011,-4.304255962371826,-0.9197465777397156,22.54796028137207,0.9671279788017273,2.466176986694336,-0.0518932119011879,0.3070606112370881,-0.008601350753375498,0.48666900096626253,-179.99322956215616,0.06622003166727201,-1.6947152878136271
2024-11-08 11:25:56.683353,-0.0318052013523832,-0.7841002745966554,4.241992941698799e-05,-2.356094509243171,-0.00010723088379449038,1.5708717377645618,0.7870182253846381,-0.11096844187352112,-0.0011446869588459105,-0.0013874644924726119,0.00125641651399296,-0.00017745892839064677,0.00045625671185129985,0.0003501969735158113,-0.12967288494110107,-3.974971294403076,-0.6618730425834656,22.52415657043457,0.9872695803642273,2.459768295288086,-0.0518932119011879,0.30702188263021063,-0.009776922298599526,0.486678773186452,-179.99418696437647,0.06453161313640277,-1.9133994565731542
2024-11-08 11:25:56.724639,-0.03548986636307949,-0.7840982376041118,9.327265938093989e-06,-2.356103102387653,-0.00010883548911206508,1.5708696580413801,0.7870175860595184,-0.10982926537724719,-0.0009531128315368995,-0.0009241477638533785,-0.0005066345282377393,0.0006937842075177491,-0.00015604053287645737,-0.0007930811080820987,-0.2804297208786011,-4.026546001434326,-0.43177053332328796,22.65110969543457,1.0202285051345825,2.486318588256836,-0.0317516103386879,0.3069821508736177,-0.010919201912855737,0.4866739081644241,-179.99569838790208,0.06523622317046765,-2.1258210325111397
2024-11-08 11:25:56.768675,-0.03916746531886852,-0.7840935682307619,3.956981589751074e-05,-2.3560905005961073,-0.00010327256759122452,1.5708743920064436,0.7870211268469401,-0.10631748541580649,0.0006714703775261288,0.0012480140307109264,0.0014437568159764678,0.002502611309904677,-0.0005392300249896899,0.0008255422257718594,-0.3835791349411011,-4.078120708465576,-0.7650224566459656,22.47258186340332,0.9808608889579773,2.473501205444336,-0.0583019033074379,0.30694368115639603,-0.012037191640934366,0.4866788382830973,-179.99500430813717,0.06456177034810963,-2.335508483088732
2024-11-08 11:25:56.812633,-0.042844434694867234,-0.7840898453332026,5.712990663437891e-05,-2.3560982607558842,-0.00010429965898286911,1.5708720528233178,0.7870225885368252,-0.11185225167405231,0.00012997154310508949,0.0007928455882305415,-0.000460669669489025,0.0014498640316554243,-0.00017323122717193045,0.0019809142653111397,-0.4351538419723511,-4.129695415496826,-0.8681718707084656,22.57573127746582,0.9808608889579773,2.466176986694336,-0.0647105947136879,0.3068966656150442,-0.013160187451264412,0.48667382622650596,-179.99450618008328,0.0654038195952869,-2.545554717421453
2024-11-08 11:25:56.857669,-0.046652286798520036,-0.7840918403490128,3.74418295280232e-05,-2.356096172509551,-0.0001055118052257169,1.570872802731719,0.7870193829679839,-0.11146927970040228,-0.0015479012597039335,-0.0006049796899305763,-0.0006195329216300812,0.0001623408612804973,0.00012291669660388822,0.000983949098583468,-0.10190188884735107,-4.101924419403076,-0.6380693316459656,22.54796028137207,1.0000869035720825,2.459768295288086,-0.0647105947136879,0.3068441368303631,-0.014335378205052601,0.4866754905881659,-179.9954696302402,0.06511380055111803,-2.7643436701324124
2024-11-08 11:25:56.857818,-0.050340683767598295,-0.7840898453703606,3.41638269240403e-05,-2.356094856476435,-0.00010422515862076791,1.5708739499292361,0.787022822041397,-0.10687206834901795,0.0011803419010293016,0.0003251593242059997,0.00018403496144863302,-0.0003201859255730263,0.00039696907708212313,0.0007204272540763092,-0.3835791349411011,-4.129695415496826,-0.6380693316459656,22.54796028137207,0.9808608889579773,2.479909896850586,-0.0647105947136879,0.3067898512266684,-0.015467874122532909,0.4866755996415699,-179.9959147210205,0.0650929004538496,-2.9760034905892727
2024-11-08 11:25:56.900696,-0.05399347037613091,-0.7840942846291569,5.464331154029226e-05,-2.3560920091333326,-0.00010197817673361053,1.5708720397428426,0.7870164746466539,-0.10929882128005249,0.0002902454144834754,-6.574204198643554e-05,0.00039169410453678086,-0.0002702536234345616,0.0004970878740570376,-0.0017839971637030275,-0.5621069669723511,-4.078120708465576,-0.8681718707084656,22.49638557434082,0.9671279788017273,2.466176986694336,-0.018934227526187897,0.30673097222797896,-0.01658122853827758,0.48667813980897034,-179.99543609010416,0.06483750557688643,-3.184098592785125
2024-11-08 11:25:56.921749,-0.0577493796265587,-0.784089848332566,4.130425834675523e-05,-2.356094398335833,-0.00010463007865689483,1.570870822086131,0.78701432882262,-0.1129467072056687,3.450055618439159e-05,-0.0020581425490824607,0.00048686250533118696,0.0006098335556031047,0.0010166233689210165,-0.002320942549651132,-0.20505130290985107,-4.129695415496826,-0.6896440386772156,22.52415657043457,0.9936782717704773,2.473501205444336,-0.018934227526187897,0.306666366359998,-0.017738067985189027,0.48667554237699095,-179.99609397713525,0.06529191340322212,-3.399714458566078
2024-11-08 11:25:56.964687,-0.06150083730092979,-0.7840900911648824,1.826761431407901e-05,-2.3560982608026912,-0.00010899614559030604,1.5708728017633473,0.787018225363594,-0.10919835236928963,-0.0007362122344594346,0.00036729008290260426,-0.0007015733114576809,-0.0009484303021132465,0.0009301198692781704,0.0001348284528626483,-0.20505130290985107,-4.129695415496826,-0.5111162066459656,22.57573127746582,1.0000869035720825,2.459768295288086,-0.0518932119011879,0.3065970301721273,-0.018896792125641326,0.4866739672995679,-179.9970264257762,0.06535802813674237,-3.6158147620095256
2024-11-08 11:25:57.008655,-0.06512446944356429,-0.7840935572382881,4.342635787586493e-05,-2.3560902522515925,-0.00010790381593627869,1.5708720397964562,0.7870210870020211,-0.10544073911956806,0.0011965466229484428,0.0005544602649578996,0.0010002408696933743,-0.0014142922128871469,0.0008539123223938763,0.0008767750389602092,-0.3835791349411011,-4.078120708465576,-0.7927934527397156,22.49638557434082,0.9808608889579773,2.466176986694336,-0.0583019033074379,0.3065274263907632,-0.019999268172435816,0.4866787458573408,-179.99626883981077,0.06481800232649505,-3.8225771686235057
2024-11-08 11:25:57.056645,-0.06881804096374854,-0.7840942932941042,5.179776336241159e-05,-2.3560982579682683,-0.00010733204409857631,1.5708739875642435,0.7870194117997728,-0.11082781206953807,-0.0003263166441187114,-0.0005270360172728268,-0.00032283944119007157,-0.0015099077243957552,0.0011314156101173416,0.0007454733856746958,-0.4113501310348511,-4.078120708465576,-0.8165971636772156,22.57573127746582,1.0074111223220825,2.479909896850586,-0.0711192861199379,0.30645093310220095,-0.021128417212814214,0.4866753637315542,-179.99622361138265,0.0651565609230827,-4.033767796185606
2024-11-08 11:25:57.100677,-0.07260387075688265,-0.78409575018542,3.225370635503701e-05,-2.356094369987645,-0.00010815101215955909,1.5708704674199936,0.7870218467696644,-0.11034736519864344,-0.0014421148264651185,-0.00019252964214537261,0.0006189817337454231,0.0004903354079667586,-0.0010002085434834673,0.0002758641202985375,-0.18124759197235107,-4.078120708465576,-0.6102983355522156,22.52415657043457,0.9872695803642273,2.473501205444336,-0.0647105947136879,0.30636780958962845,-0.02229492703996319,0.48667733758648546,-179.9972055237015,0.0650121998497301,-4.251612336112814
2024-11-08 11:25:57.100720,-0.07630885149188948,-0.7840935557947812,3.105409665304419e-05,-2.356096180903969,-0.00010829116143488698,1.570869671607184,0.7870166359636334,-0.10837880155057487,-0.0006745175438623474,-0.0008721464919459786,0.0002667633662048037,-0.0013586119039976736,-0.000595229467117352,-0.0007381953597768874,-0.3320044279098511,-4.078120708465576,-0.6380693316459656,22.54796028137207,0.9872695803642273,2.486318588256836,-0.0518932119011879,0.3062830099503919,-0.02343027284768739,0.48667573880599313,-179.99750782435754,0.06529330458066869,-4.463642325928669
2024-11-08 11:25:57.148707,-0.0799476240815744,-0.7840918433850852,5.645227993254776e-05,-2.3560982608152523,-0.00010575841047726685,1.5708759544659054,0.7870157897680975,-0.10523411899468998,-0.00022082250352219637,0.0012226228569279874,-0.00017103196905459946,-0.00023671630005188545,0.0016372725653505237,-0.0008930987625010167,-0.5105322599411011,-4.101924419403076,-0.8919755816459656,22.57573127746582,0.9671279788017273,2.459768295288086,-0.0317516103386879,0.3061977432687609,-0.024535929830064838,0.4866747824147016,-179.99685315705796,0.0652301354412401,-4.6710500914076345
2024-11-08 11:25:57.159660,-0.0837124971964409,-0.7840935917697047,5.5763690172214424e-05,-2.356098260696399,-0.00010481913225488977,1.5708693052587115,0.7870236714469324,-0.11339108975618815,0.0009147680475205361,-0.0004482449033959226,-0.0010228756569913536,-0.0009187188560297391,-0.0003792502807692551,-0.00015689133251367776,-0.23282229900360107,-4.078120708465576,-0.8404008746147156,22.57573127746582,0.9872695803642273,2.486318588256836,-0.0711192861199379,0.30610153401365703,-0.025688436289441563,0.4866747359613366,-179.997203649131,0.06551450225239581,-4.887241198554699
2024-11-08 11:25:57.200643,-0.08744076497753486,-0.7840918433128895,1.4863692303970373e-05,-2.3560982608026912,-0.00010351123004165867,1.5708701807819505,0.787018086581854,-0.10697310499842881,-3.0144990517217037e-05,-0.0012101718336711385,-0.0007769228781133784,0.002446331672720429,-0.0007406823457176267,0.00015246905781980338,-0.18124759197235107,-4.101924419403076,-0.43177053332328796,22.57573127746582,0.9808608889579773,2.479909896850586,-0.0518932119011879,0.3060029439928444,-0.026842531988738497,0.4866742753248662,-179.99917738560342,0.0654232906841875,-5.102194639592631
2024-11-08 11:25:57.244668,-0.09111332205793625,-0.7840899262777763,3.565897877135032e-05,-2.3560922930361543,-0.00010463644757179119,1.5708721967260475,0.7870178672996662,-0.10683475059763828,0.001338130999560778,-0.000300412426179621,0.0006741533661237369,0.0006584219695443737,0.0010440847138523694,-0.00039822934685827094,-0.23282229900360107,-4.129695415496826,-0.7134477496147156,22.49638557434082,0.9936782717704773,2.466176986694336,-0.0518932119011879,0.3059043748157291,-0.027959781123405233,0.486676680753476,-179.9984829656894,0.06516212308792306,-5.311760533986379
2024-11-08 11:25:57.288785,-0.09477554140778768,-0.7840918442733659,5.256367147914298e-05,-2.3560982343480767,-0.00010595932144553689,1.5708721947281679,0.7870198928165528,-0.10781519770458192,0.00013092181592451723,0.0006782521811070346,-0.00038738563083672684,-0.0010477046294472658,0.000475407670215672,0.0003778794648318484,-0.4113501310348511,-4.101924419403076,-0.8404008746147156,22.57573127746582,0.9735366702079773,2.473501205444336,-0.0518932119011879,0.3057993704568077,-0.02907457062775124,0.4866744652144534,-179.99798627639095,0.06546872002183604,-5.521020570126294
2024-11-08 11:25:57.332752,-0.09858741428737383,-0.7840935559058182,3.813876174970368e-05,-2.3560961809078567,-0.00010343284376004462,1.5708711743239214,0.7870153904748791,-0.11231958054012989,9.611543506370449e-05,-0.0006978948998056123,-0.00035595429852757377,0.0007358087573966022,-0.0003108456189328917,-0.0016027708033606873,-0.12967288494110107,-4.078120708465576,-0.6896440386772156,22.54796028137207,0.9735366702079773,2.473501205444336,-0.0381603017449379,0.3056856968252916,-0.030244154717954285,0.4866758706411051,-179.99894591066627,0.06524774944089747,-5.739752337181369
2024-11-08 11:25:57.332805,-0.1022834295686132,-0.7840898424442659,3.602828508475918e-05,-2.356093706736418,-0.00010144055341947112,1.570874904696163,0.7870154453837691,-0.10862940980021271,0.0007069016480837374,-0.00033021541702486583,0.001439440760997755,5.0581923792260416e-05,0.0008048596085397633,0.00014696307748051946,-0.3320044279098511,-4.129695415496826,-0.6618730425834656,22.52415657043457,0.9543105959892273,2.466176986694336,-0.0317516103386879,0.3055734638438954,-0.03137420284976992,0.4866762252219107,-179.9993711073288,0.06508884596577423,-5.951607421797627
2024-11-08 11:25:57.376746,-0.10594099760289633,-0.7840898453331988,5.571721964500838e-05,-2.3560961725221286,-0.00010357357758898366,1.5708736712927402,0.787018623852317,-0.10729397441924192,0.00027099201841081927,0.00038800317995774786,0.00033283610691508587,0.000292349159304862,-5.346580207880511e-05,0.0008218630196723269,-0.4629248380661011,-4.129695415496826,-0.8919755816459656,22.54796028137207,0.9808608889579773,2.453359603881836,-0.0381603017449379,0.3054567246620523,-0.03248564866402369,0.4866749540134089,-179.99871695606188,0.06539845296851968,-6.160554017819197
2024-11-08 11:25:57.398437,-0.10967363339750164,-0.7840918513049321,4.7198798218831654e-05,-2.35610004347971,-0.00010311961136802215,1.5708672870519567,0.7870206899926753,-0.11195802114940799,0.0011276481891560103,0.0004710512786660141,-0.0006022289961410833,0.00035839387213659193,-0.0016727284321955216,0.0013539183208139906,-0.23282229900360107,-4.101924419403076,-0.7650224566459656,22.59953498840332,0.9808608889579773,2.473501205444336,-0.0848521962761879,0.3053309098664077,-0.03362800885662361,0.4866731825494706,-179.9993816298225,0.0658320289933334,-6.374882468585994
2024-11-08 11:25:57.440663,-0.11354006017354433,-0.7840955537397469,7.4390526152561676e-06,-2.3560961772292637,-0.00010427332341972775,1.570872802247875,0.7870239846476065,-0.10793034435190393,-0.00036224940764283706,-0.0005809151793382194,-0.0010784280505840103,0.0016600528073584145,0.001583166224559416,0.0002909300971101384,-0.15347659587860107,-4.050349712371826,-0.40796682238578796,22.54796028137207,0.9872695803642273,2.459768295288086,-0.0775279775261879,0.305198192951604,-0.03482153725409874,0.4866766286475944,179.9989142160023,0.06491431658705235,-6.59821412850479
2024-11-08 11:25:57.484700,-0.11718339913823807,-0.7840881328124715,3.736022764009514e-05,-2.3560943689378626,-0.00010507117481028196,1.5708703761663838,0.7870130911241507,-0.10576897577708358,0.0019369731148182127,0.00025969902881412357,0.0004868418641237242,-0.0004580125888481178,-0.00043261256716101745,-0.0011675277044329744,-0.2566260099411011,-4.153499126434326,-0.7650224566459656,22.52415657043457,0.9872695803642273,2.453359603881836,-0.018934227526187897,0.30507127826312364,-0.0359238238544746,0.4866749901349655,179.99987299766016,0.0655142585137968,-6.805124206282835
2024-11-08 11:25:57.528630,-0.12085218349746313,-0.7840940292218331,6.0666993206279934e-05,-2.3560961778634613,-0.00010852785251374337,1.570872079005757,0.7870194033205068,-0.10715530475050576,-0.0006693641569323566,0.0004775406094520628,0.0005914875439902445,-0.0026983607665026273,-0.00020466737470729033,-0.0017228422417995012,-0.4351538419723511,-4.101924419403076,-0.9197465777397156,22.54796028137207,0.9872695803642273,2.466176986694336,-0.0381603017449379,0.30493748279004174,-0.03703590531569136,0.48667609711686194,-179.99919353045598,0.06532156575319892,-7.0147461271494125
2024-11-08 11:25:57.572699,-0.12464991237060234,-0.7840935588297403,4.130393762787842e-05,-2.356096181012836,-0.00010743166892812866,1.5708720411961712,0.7870199998421864,-0.11301816436713191,-0.0001822413723151991,-0.0006577573921654031,-9.595536363944774e-06,-0.0010521492041993214,4.7553858863046136e-05,0.00070730844596885,-0.12967288494110107,-4.078120708465576,-0.6896440386772156,22.54796028137207,0.9808608889579773,2.466176986694336,-0.0518932119011879,0.304793938963222,-0.03819974809203719,0.4866759477010757,179.99971415654989,0.06524801896542536,-7.233159861602082
2024-11-08 11:25:57.572736,-0.128347397759369,-0.7840919272166281,3.388861203230107e-05,-2.356096152633613,-0.00010581779683915696,1.5708704161850886,0.7870178238846516,-0.10627322640068158,0.0003069054671788001,-0.00041923567487385977,0.0007659305263710804,-0.0006710874106609706,-0.00026262971240917376,-0.00017801574148596454,-0.3597754240036011,-4.101924419403076,-0.6618730425834656,22.54796028137207,0.9735366702079773,2.479909896850586,-0.025342918932437897,0.30465025980536886,-0.03932850519849227,0.48667531718928686,179.9990596164065,0.06537971999355728,-7.445186577407221
2024-11-08 11:25:57.616699,-0.13199956414407352,-0.784091843286491,5.996404191809811e-05,-2.356096181012836,-0.00010667000526290897,1.570872041208135,0.7870252832217421,-0.10666450438925364,0.0004517247684010062,0.0033178999486500214,-0.0004347478356425271,-0.0014018617165130443,0.0006559159125345162,0.0021073841414285988,-0.5105322599411011,-4.101924419403076,-0.9435502886772156,22.54796028137207,0.9808608889579773,2.466176986694336,-0.0848521962761879,0.3045060377920865,-0.04043267082835133,0.4866754207804611,179.99992772794866,0.06543522895398088,-7.653809944948567
2024-11-08 11:25:57.636761,-0.1357418511142673,-0.7840935561690294,4.695786960859412e-05,-2.3560902521466307,-0.00010560228446741284,1.57087076939802,0.7870161112333216,-0.11211043966881874,-0.0003042398532778478,-0.0010038310763595228,0.0017791929805679202,-0.0005226044914232286,-0.0007394960927470547,-0.0013686610073313506,-0.18124759197235107,-4.078120708465576,-0.7650224566459656,22.49638557434082,0.9735366702079773,2.479909896850586,-0.0381603017449379,0.30435228034905015,-0.04157594376217752,0.4866786340363494,179.9991496113293,0.0649933893421954,-7.868229507403129
2024-11-08 11:25:57.680686,-0.13948970322662008,-0.7840881327051972,1.8622696139654492e-05,-2.3560959254948535,-0.00010712259707624734,1.5708721574801918,0.7870210847635692,-0.10892653621523235,0.0010548279660427655,-6.322097100818256e-05,0.0003275067919742783,0.001460626352300597,0.0007088456746584443,0.0008321024435406853,-0.10190188884735107,-4.153499126434326,-0.5111162066459656,22.54796028137207,0.9872695803642273,2.466176986694336,-0.0518932119011879,0.30419338658562756,-0.04272583637672523,0.486674411522369,179.99777830874842,0.065393285256829,-8.08440009833881
2024-11-08 11:25:57.724684,-0.1431466588111559,-0.7840955807212738,4.020239738551493e-05,-2.356092318545961,-0.00010467082576957971,1.570871169538574,0.7870210838822072,-0.10799789309947194,-1.7142850318602266e-05,0.0023671823958276075,0.000330451549098707,0.0009406320612229892,-0.000850733137568903,0.001103450351521632,-0.20505130290985107,-4.050349712371826,-0.7650224566459656,22.49638557434082,0.9936782717704773,2.473501205444336,-0.0775279775261879,0.30403530373951165,-0.04383036913796443,0.48667831552047386,179.99834763296462,0.06491837969599866,-8.293053033545974
2024-11-08 11:25:57.768716,-0.14681516417629817,-0.78409211321289,4.9674250040265666e-05,-2.3560961041671837,-0.0001063118199348018,1.570871173360798,0.7870143955562048,-0.1098976423479236,-0.0003718275229882419,-0.0012748889431966571,-0.00020319230387666622,-0.000648194817903221,0.00026710590261462504,-0.0019282966116508176,-0.3835791349411011,-4.101924419403076,-0.8404008746147156,22.54796028137207,0.9808608889579773,2.473501205444336,-0.0317516103386879,0.30387291445511966,-0.04494272064930126,0.4866754637642992,179.99852130539833,0.06539259527422212,-8.502475492519837
2024-11-08 11:25:57.816732,-0.15061871093888726,-0.784091843279534,3.8118353422921425e-05,-2.356096180999875,-0.00011055395422435411,1.5708715270401532,0.787019964021001,-0.11551434825243428,0.00031818286966693495,-9.267311471286544e-05,0.00016536979946286793,-0.0019310577863745331,0.0006278521892159754,0.0004843832029716644,-0.07809817790985107,-4.101924419403076,-0.6896440386772156,22.54796028137207,1.0074111223220825,2.473501205444336,-0.0711192861199379,0.3036991806721835,-0.04610281066212254,0.48667537567138575,179.99805015000663,0.0653523960811323,-8.721190352945342
2024-11-08 11:25:57.816782,-0.1543278473872645,-0.7840940287900294,3.5895289072639504e-05,-2.3560961151328312,-0.0001044217633206484,1.5708697362438262,0.7870134954663096,-0.10884336880268648,-0.0002211165798837011,0.0008443526937544897,-0.00038899362416567733,-0.0006913574566026369,-0.0002076765414779539,-0.0016319746525101883,-0.2566260099411011,-4.101924419403076,-0.6896440386772156,22.57573127746582,0.9607192873954773,2.459768295288086,-0.025342918932437897,0.3035254812222753,-0.047228285694018456,0.486675920753625,179.99737566552542,0.06525080991867505,-8.933428351270633
2024-11-08 11:25:57.860663,-0.15798201133700937,-0.7840918432746594,6.0200767772356454e-05,-2.3560961810089536,-0.00010311462419153098,1.5708722378499287,0.7870222806696768,-0.108691312650942,0.0005426234106702762,0.0024520998640285524,-0.00011203952633915534,-0.001174779345126365,0.0001759092492206964,0.0009916981879276648,-0.4351538419723511,-4.101924419403076,-0.9435502886772156,22.54796028137207,0.9808608889579773,2.473501205444336,-0.0711192861199379,0.3033530085925889,-0.04832913725739281,0.48667543792649715,179.9980378444254,0.06536960650348314,-9.142314087089046
2024-11-08 11:25:57.874592,-0.16170193160252275,-0.7840958249203315,5.014193812630091e-05,-2.35609618101282,-0.00010367048736563175,1.5708715270580984,0.7870180942132138,-0.11031376215772906,-0.0009978242390169673,-0.001859387943662966,0.00044660296302815423,-0.00018982981829957136,0.0005991949907475975,-0.0010383935377730436,-0.2804297208786011,-4.050349712371826,-0.7650224566459656,22.54796028137207,0.9735366702079773,2.473501205444336,-0.0647105947136879,0.3031698312129781,-0.0494604786539844,0.4866765986092097,179.99745414651954,0.06511647844608257,-9.355618105162282
2024-11-08 11:25:57.916697,-0.16536538791086583,-0.7840881331496835,1.969920609299084e-05,-2.356092310031028,-0.0001129073109955585,1.5708704161853102,0.7870198013374867,-0.11050392021388437,0.0007707237225467113,0.0005721947958433636,0.0010293478641010554,5.764528246103806e-05,8.368553628204547e-05,0.000551563561690247,0.0012475252151489258,-4.153499126434326,-0.48334524035453796,22.49638557434082,1.0266371965408325,2.479909896850586,-0.0381603017449379,0.3029860728345459,-0.050582737829275394,0.48667596572243604,179.99647475535346,0.06526969816985909,-9.566850984857219
2024-11-08 11:25:57.960609,-0.16912826758759525,-0.7840973511956159,3.1636625740867575e-05,-2.356096104483415,-0.00010632351817734315,1.5708711740068941,0.7870188840627784,-0.10681388955969337,-0.001244302625197149,0.0008778409999118401,0.0007199095756638431,0.0003152813561278419,0.0006752336522636655,-0.0017770214895244133,-0.18124759197235107,-4.026546001434326,-0.6896440386772156,22.54796028137207,0.9808608889579773,2.473501205444336,-0.0317516103386879,0.3027927601982735,-0.051716981896904636,0.48667707254923037,179.99639361630932,0.06492469908791267,-9.78191185761454
2024-11-08 11:25:58.004687,-0.17279421928504174,-0.7840918442733659,5.2827633672960615e-05,-2.356095457278377,-0.00010549837425214461,1.5708720397466822,0.7870200166500098,-0.10762765100773497,-0.0002541817580355671,0.00010465779547606037,-0.00015583882740450133,-0.002830366201151027,0.00071734497741285,0.00027443135138425085,-0.4113501310348511,-4.101924419403076,-0.8404008746147156,22.54796028137207,0.9735366702079773,2.466176986694336,-0.0711192861199379,0.3026034469346084,-0.05281986993830787,0.4866757625464675,179.9969153343997,0.06527581716555968,-9.991160859359253
2024-11-08 11:25:58.048680,-0.17656232588674606,-0.7840898454485027,3.6143446256791214e-05,-2.356096181008948,-0.00010570846976836432,1.570872801763353,0.7870166162834208,-0.11051363290919884,0.000663437786148292,-0.0012362849799577092,-0.0007466838383620545,0.00022623241533846524,0.0004883358957654914,-0.001312451378820462,-0.20505130290985107,-4.129695415496826,-0.6618730425834656,22.54796028137207,0.9936782717704773,2.459768295288086,-0.0518932119011879,0.30240167376358396,-0.05396519832713688,0.4866748736955269,179.99599617176366,0.06525781296612684,-10.207539588495877
2024-11-08 11:25:58.048718,-0.1802841709712576,-0.7840898723148757,4.1957887037108945e-05,-2.3561039049305954,-0.00010739365197044236,1.5708696628865464,0.7870180907796422,-0.10902464678150489,0.00023421031691361828,0.0006786683626542503,-0.0027071225995910805,-0.00032323751489462345,3.102213792045036e-05,0.00043894669223822785,-0.23282229900360107,-4.129695415496826,-0.7412187457084656,22.65110969543457,0.9808608889579773,2.486318588256836,-0.0518932119011879,0.3021973757343998,-0.05508850114200302,0.48667096041108515,179.99596871847646,0.06591276487231582,-10.420634315763161
2024-11-08 11:25:58.092672,-0.18392529483625647,-0.7840918472714656,5.151327250380612e-05,-2.3560961800680285,-0.0001027142758010177,1.5708709889713484,0.7870229184503399,-0.10578760199582653,-7.525055626623854e-05,0.0012832130516220097,0.0007981015394049999,-0.0011648307411659116,-0.00045787634541780386,0.001465622880125588,-0.4867285490036011,-4.101924419403076,-0.8681718707084656,22.54796028137207,0.9671279788017273,2.466176986694336,-0.0775279775261879,0.3019964904269506,-0.05618461794344745,0.48667532996169016,179.99596122810271,0.06529827587266755,-10.629144710004262
2024-11-08 11:25:58.112800,-0.18765951728721877,-0.7840963671775415,5.2981517525239324e-05,-2.356094159929201,-0.00010315403036220325,1.5708705468612718,0.7870160656038647,-0.11024139677084431,-0.0005421129417549668,0.00021556642134789366,-6.334103707698717e-06,-0.0008414557513185879,-0.0006850856399705902,-0.0017313615629365058,-0.3320044279098511,-4.050349712371826,-0.8165971636772156,22.52415657043457,0.9808608889579773,2.479909896850586,-0.0381603017449379,0.3017841326442723,-0.05731146773170878,0.48667763322462726,179.99586578246004,0.06495527342981436,-10.842647777859385
2024-11-08 11:25:58.156634,-0.19141101609492273,-0.784088861314289,1.654287728784277e-05,-2.3560943982269498,-0.00010742463960867949,1.5708755716896035,0.7870216254367518,-0.10682862162134593,0.0010934311874002968,-0.00011842838468098605,0.0005586622973270022,-0.000830558177289258,0.0012787687177078836,0.000679658636665048,-0.026523470878601074,-4.153499126434326,-0.48334524035453796,22.52415657043457,1.0138198137283325,2.466176986694336,-0.0848521962761879,0.3015667152006168,-0.05845616401668847,0.48667565591952405,179.99438360203916,0.06485819431531756,-11.059389390459462
2024-11-08 11:25:58.200642,-0.19509184950714947,-0.7840935647927357,3.628918856432013e-05,-2.356094407084102,-0.00010419300443106968,1.5708720397446065,0.7870199801914464,-0.10980105520588956,0.0013016990496874164,0.0017491202878127782,0.0007073244454350771,-1.7975157944098653e-06,0.0005354182892850878,0.0005049752582178566,-0.18124759197235107,-4.078120708465576,-0.7412187457084656,22.52415657043457,0.9808608889579773,2.466176986694336,-0.0711192861199379,0.3013494457516013,-0.0595585154700033,0.4866767866838954,179.99476088961953,0.06489080040969789,-11.26939068025547
2024-11-08 11:25:58.244734,-0.19874439753479956,-0.7840898543640696,5.4724578349984386e-05,-2.3560980312142648,-0.00010073773737783438,1.5708711740071886,0.787015390414315,-0.1090340615107666,0.0004535264166203078,-0.0004186644792789309,-0.0006693832061666567,0.001681246244116473,0.0006009235732769953,-0.001601391045311895,-0.4351538419723511,-4.129695415496826,-0.8404008746147156,22.57573127746582,0.9607192873954773,2.473501205444336,-0.0381603017449379,0.30113114987693756,-0.06065218928393233,0.48667386012043967,179.99496916120415,0.06544008748977752,-11.477655858474028
2024-11-08 11:25:58.288677,-0.20252095400606898,-0.784093480791591,4.308659858843897e-05,-2.3560941147184677,-0.0001062931372872795,1.570872810532727,0.7870196619820926,-0.11311178011756744,-0.00022293521864566725,-0.0013107582685467883,0.00014177422591676539,-0.000993503386675871,0.0014418647572435237,5.749280475638298e-05,-0.18124759197235107,-4.078120708465576,-0.7134477496147156,22.54796028137207,1.0074111223220825,2.459768295288086,-0.0775279775261879,0.30089923273859415,-0.061793912675053735,0.48667696664452226,179.99467783426888,0.06487467902477775,-11.694753152424095
2024-11-08 11:25:58.288714,-0.20625418470119916,-0.7840935741095652,3.5315081769798584e-05,-2.356096180105706,-0.00010819397956826332,1.5708707679644085,0.7870142736779765,-0.10929512208667841,0.00067608819463918,-0.0005473447559758183,-0.0002690845492694466,-0.0011349156507957938,-0.0006726530710646748,-0.00044220460222735216,-0.2566260099411011,-4.078120708465576,-0.6618730425834656,22.54796028137207,0.9936782717704773,2.479909896850586,-0.0317516103386879,0.30066515010982486,-0.06291953181782091,0.48667584106016065,179.99418704265324,0.0650373789698358,-11.908658097956918
2024-11-08 11:25:58.332639,-0.20990478244721045,-0.7840937986285192,4.9371965243934015e-05,-2.356100043479662,-9.948409874156477e-05,1.5708730993807503,0.7870257239507368,-0.10840872491175471,-0.0009723125205393676,0.0009941971004629778,-0.0013738986653669717,-0.00039172913415551586,0.0007319498067646026,0.002143564124233073,-0.4867285490036011,-4.078120708465576,-0.8404008746147156,22.59953498840332,0.9469863772392273,2.466176986694336,-0.0976695790886879,0.3004347508350327,-0.06401043489939122,0.4866742907228202,179.99400288498072,0.06510359404091644,-12.117908481614782
2024-11-08 11:25:58.350940,-0.21350574349622387,-0.7840960920623792,5.683473014465645e-05,-2.356098005586535,-0.00010311900799667457,1.570868980503867,0.7870221084171348,-0.10923367043662265,-0.0003390206499617041,0.0012407335385704937,0.000243072371412985,-0.00037458301023486575,-0.0011502803114626632,0.0007755707996368439,-0.3835791349411011,-4.078120708465576,-0.8681718707084656,22.57573127746582,0.9808608889579773,2.466176986694336,-0.0711192861199379,0.3002017219816691,-0.06509003819630732,0.486675595872238,179.99427005215978,0.06517781432939979,-12.323718373789353
2024-11-08 11:25:58.392667,-0.21738634037187712,-0.7840888714548845,1.9488941941340614e-05,-2.3560959485534307,-0.00010948869607213861,1.57087204459377,0.787015391398576,-0.10636307119565508,0.0014527070280297317,-0.0010707593672223967,0.0003210243611372615,0.0005221208158710707,3.0663025819062004e-06,-0.00097065164930243,-0.050327181816101074,-4.153499126434326,-0.48334524035453796,22.54796028137207,1.0074111223220825,2.466176986694336,-0.0381603017449379,0.2999459302261702,-0.0662681396295712,0.4866746177295905,179.99287036744812,0.06502517435686406,-12.547190011478513
2024-11-08 11:25:58.436644,-0.22105808650315703,-0.7841000315021397,2.9873480848688974e-05,-2.356096180581257,-0.00010742767800917335,1.5708705344074123,0.7870196472507802,-0.10804579618043245,-0.0008126582152012569,0.001178803580662412,-0.000760857736405354,-0.0006776484761123749,-0.0002456655589998276,0.0003386380138294912,-0.2566260099411011,-4.002742290496826,-0.6618730425834656,22.54796028137207,0.9872695803642273,2.479909896850586,-0.0775279775261879,0.2996994140415552,-0.06736483732753255,0.48667780383708537,179.9930451859468,0.06453837735478876,-12.757388370235658
2024-11-08 11:25:58.480631,-0.22470884227313997,-0.7840888613177928,5.642923682916343e-05,-2.3560959512727466,-0.00010343230049881139,1.570873672967835,0.7870174934737563,-0.10899278921969417,0.0008293654024346133,0.00039712272539860996,-0.00027659449009960604,-0.000767968709966139,0.0014009733124933162,-8.581370211332138e-05,-0.5105322599411011,-4.153499126434326,-0.8919755816459656,22.54796028137207,0.9735366702079773,2.453359603881836,-0.0583019033074379,0.29945594757203087,-0.06844979220861072,0.4866747563318934,179.9935355256276,0.06513690237099029,-12.9653610335282
2024-11-08 11:25:58.524672,-0.22846904093349463,-0.784094002888347,4.210462530474295e-05,-2.356096180977843,-0.00010630610095307654,1.5708727969181826,0.7870221092246612,-0.11039514300001046,0.0003458432592774304,-2.8118848595989313e-05,0.00012603662237791076,-0.0005780650747840416,0.0004016208981191678,0.0006218989629803173,-0.20505130290985107,-4.101924419403076,-0.7134477496147156,22.54796028137207,1.0074111223220825,2.459768295288086,-0.0711192861199379,0.2991942737027312,-0.06958022970655355,0.4866761504193905,179.99293820784368,0.06479285564855704,-13.18165002674362
2024-11-08 11:25:58.524710,-0.23219766681593582,-0.7840972702536343,3.578767528843829e-05,-2.3560954909532676,-0.00010593520316665218,1.5708723886008835,0.7870157891113047,-0.10726167308861664,-0.00103390496414953,0.0003655616071900786,0.000380699504209253,2.1722062856540563e-05,0.0007341169945892384,-0.0009333170616428802,-0.2804297208786011,-4.026546001434326,-0.6618730425834656,22.54796028137207,0.9735366702079773,2.466176986694336,-0.0317516103386879,0.29893181384735346,-0.07069714022967735,0.48667744392867995,179.9924737589149,0.06450444579796209,-13.395178825690085
2024-11-08 11:25:58.568686,-0.2358561913030435,-0.7840946110724196,4.3489916187723754e-05,-2.356093709569683,-0.00010233213377632023,1.5708720411901895,0.7870190222110195,-0.1077896876749856,-0.0013042471223926786,0.00031164108143520215,0.0013814637554483034,0.0006106928180419529,-0.00041798986771159877,-0.0006928008887344076,-0.4629248380661011,-4.078120708465576,-0.7650224566459656,22.52415657043457,0.9735366702079773,2.466176986694336,-0.0711192861199379,0.2986724793201124,-0.07178726727604544,0.4866774374681741,179.99232405340615,0.06456936558291651,-13.604670015743405
2024-11-08 11:25:58.588886,-0.23956256959750102,-0.7840955541059205,5.29375702720257e-05,-2.3560943897275477,-0.00010560229070354356,1.5708727944955962,0.7870192190954355,-0.11025913100951296,-0.00042927210427310677,-0.0005496779262395674,0.0007355986752372414,-0.0003657908842119093,0.00015958341506133137,-0.0009397239395946309,-0.3320044279098511,-4.050349712371826,-0.8404008746147156,22.52415657043457,0.9735366702079773,2.459768295288086,-0.0647105947136879,0.29840485371960085,-0.07289142362807441,0.4866774723195233,179.99265240049556,0.06461911771478139,-13.816657780110287
2024-11-08 11:25:58.632673,-0.2433363662362053,-0.7840937986289762,1.662323156032115e-05,-2.3560961806979,-0.00011092270533154983,1.5708728162985572,0.7870169787079786,-0.10988271613447652,-0.00029399190758717475,-0.002070341332141638,-0.0007673438313888194,-0.0005219333532492212,0.0010492981005549226,-0.0012909014688738596,0.0012475252151489258,-4.078120708465576,-0.48334524035453796,22.54796028137207,1.0074111223220825,2.459768295288086,-0.0518932119011879,0.298124572593684,-0.07402960842127049,0.4866760893950142,179.99122809626718,0.06450613512700709,-14.034224959331851
2024-11-08 11:25:58.680737,-0.24700610953442392,-0.7840957506253705,2.5723546785067667e-05,-2.3560961555030286,-0.00010826529312573403,1.5708720402273604,0.7870200949230673,-0.10759579332388011,-0.00033296607794462463,0.000628008628308832,0.000814983301040399,-0.001841699461993987,-0.0003892905119309392,-0.0006581809117591644,-0.2566260099411011,-4.078120708465576,-0.6380693316459656,22.54796028137207,0.9872695803642273,2.466176986694336,-0.0711192861199379,0.2978513121743785,-0.0751196167563966,0.4866766328237679,179.9912180750705,0.06445964046024867,-14.244295452914155
2024-11-08 11:25:58.724683,-0.25066174565945504,-0.7840925757726983,5.5628094165905125e-05,-2.3560901497531486,-0.00010311024070642352,1.570873713345933,0.7870200858232143,-0.10823363373289364,8.567097536928408e-05,-0.00027747180164360095,0.0015197889452072896,0.001943283393291015,8.35488030078306e-05,0.001203088489899461,-0.5105322599411011,-4.101924419403076,-0.8919755816459656,22.49638557434082,0.9808608889579773,2.479909896850586,-0.0775279775261879,0.29757896133796846,-0.07619785269797062,0.48667863954380736,179.99193388635553,0.06440416199618242,-14.452534772460401
2024-11-08 11:25:58.768690,-0.2544261030398156,-0.7840943652448398,4.2139683736340174e-05,-2.356094038189047,-0.00010771478744724065,1.5708693565531624,0.7870154667445917,-0.11291239209297638,-0.0004139969614217281,-0.00015679129923944674,0.0006232805788695174,-0.0012853807213760557,-0.0006924713949923884,-0.0008483788834058345,-0.20505130290985107,-4.078120708465576,-0.7134477496147156,22.54796028137207,1.0074111223220825,2.479909896850586,-0.0317516103386879,0.29728702981804894,-0.07732227158408783,0.48667697136180127,179.9913249468535,0.0646602753435717,-14.668498996658736
2024-11-08 11:25:58.768729,-0.2581698070077306,-0.7840898724259109,3.9882033974605005e-05,-2.3560923288564815,-0.00010655503397490218,1.5708724341399263,0.7870213502483371,-0.10813503614323158,0.0014517603509001625,0.0009905774785133052,5.1301658190988815e-05,-0.00035711335667703106,0.0014111190966979352,0.001029758748841844,-0.2804297208786011,-4.129695415496826,-0.7134477496147156,22.52415657043457,0.9735366702079773,2.466176986694336,-0.0647105947136879,0.2969968561242387,-0.07843555513872985,0.48667666822077416,179.99093456304132,0.06457075144544838,-14.883426298424993
2024-11-08 11:25:58.812811,-0.2618184309474745,-0.7840937987396132,4.7638790891004916e-05,-2.3560940922181346,-0.00010364064483672336,1.570872837278117,0.7870181329079401,-0.10686471407181278,0.0001465384843044367,0.0018358160987757772,0.0008079927275621102,-0.00017595646862091606,-0.0007967477645448462,-0.0011151284262687995,-0.5383032560348511,-4.078120708465576,-0.8165971636772156,22.52415657043457,0.9808608889579773,2.486318588256836,-0.0647105947136879,0.296708791662584,-0.07951543275549872,0.486677077227209,179.99087930135667,0.06443330037083926,-15.091978356142524
2024-11-08 11:25:58.826423,-0.26552837784606603,-0.7840975211970433,5.259420935672368e-05,-2.3560958874443934,-0.0001046921653619311,1.5708721967260473,0.7870166344830563,-0.11018725185368447,-0.001591053441755575,-7.177382702742546e-05,-0.0005576464803020108,0.0002776539792259574,0.0005447873104658908,-0.001317351702523258,-0.3320044279098511,-4.026546001434326,-0.8404008746147156,22.57573127746582,0.9671279788017273,2.466176986694336,-0.0518932119011879,0.2964112136551882,-0.08061406547096601,0.4866773170613579,179.9909115103666,0.06439633973938755,-15.30425584321536
2024-11-08 11:25:58.868659,-0.2692018258626343,-0.7840898453460088,2.178305406500143e-05,-2.356097683440039,-0.00011088232477551136,1.5708711738274546,0.7870181329245556,-0.11032267385235729,0.0010032433676968712,-0.0004050969064250372,0.0009599805121619345,-0.0013006709003518372,-8.778315654112748e-05,-0.0013296567325355368,-0.050327181816101074,-4.129695415496826,-0.5111162066459656,22.54796028137207,1.0074111223220825,2.473501205444336,-0.0647105947136879,0.29611077182055723,-0.08171350394049184,0.48667402156070455,179.98965382569278,0.06470470874750113,-15.516064455122427
2024-11-08 11:25:58.912691,-0.2729740285592253,-0.7840957410144932,2.269382332245997e-05,-2.356095964920078,-0.0001047458234912005,1.570871291642997,0.7870166151589133,-0.10706204904727532,-0.0007213632332849274,-0.00016375966399887466,0.000176447354348736,0.001047092681687553,0.00047571047533211125,-0.0005499467510321565,-0.2804297208786011,-4.078120708465576,-0.6102983355522156,22.57573127746582,0.9671279788017273,2.473501205444336,-0.0518932119011879,0.295800218015721,-0.08282820249228377,0.48667665401819915,179.98922620234836,0.06415377031623906,-15.73207230128109
2024-11-08 11:25:58.956666,-0.27662702193642813,-0.7840918447304583,6.0212468571572804e-05,-2.3560935952488045,-0.0001033139999239702,1.570872044159101,0.7870217082042045,-0.10860286528495328,0.0010349339452978834,0.0011590863797077088,0.0013734319323936313,-0.00018098571689338536,0.00014711685420421458,-0.00016714985056107777,-0.5105322599411011,-4.101924419403076,-0.9435502886772156,22.52415657043457,0.9735366702079773,2.466176986694336,-0.0647105947136879,0.2955001185180347,-0.08389643720365686,0.48667664201835803,179.99036293461188,0.06454912145963315,-15.940143487658267
2024-11-08 11:25:59.000717,-0.28036831773422405,-0.7840956356836419,4.0953144857163874e-05,-2.356096172400535,-0.00010418568001739704,1.5708668955687008,0.7870195750529785,-0.1087725750229713,-0.0006144605109763473,-0.001755781288607692,0.001447535378980379,0.0007664079200561636,-0.0015031214595541862,0.0006418627841246801,-0.3082007169723511,-4.050349712371826,-0.7134477496147156,22.54796028137207,0.9808608889579773,2.473501205444336,-0.0647105947136879,0.29518046206897297,-0.0850070581317251,0.4866761380462544,179.9893574202456,0.06452731296356294,-16.15516314235259
2024-11-08 11:25:59.000752,-0.28412857840485056,-0.7840935827886448,3.8108120526116995e-05,-2.356093701055662,-0.000103160033766407,1.570870153453113,0.7870185661679487,-0.10951942847902904,0.0005227639694303303,0.001179157044931913,0.0009841366401738862,0.0004800862734597048,-0.000644342792684438,-6.788285078609816e-05,-0.2804297208786011,-4.078120708465576,-0.6896440386772156,22.52415657043457,0.9808608889579773,2.473501205444336,-0.0317516103386879,0.294859793623853,-0.08611746278033788,0.48667695993949567,179.98900685654786,0.0642358798955555,-16.37066794507471
2024-11-08 11:25:59.044662,-0.28767827820663106,-0.7840962945672262,4.126041286407774e-05,-2.3560961945066103,-0.00010226330359188531,1.5708720399041347,0.7870229184117523,-0.106346564097727,-0.001357963902087914,0.0007018463983397147,0.00014961781538248297,0.0009697687984826866,-2.414697957407261e-05,0.0012609390669867384,-0.3597754240036011,-4.050349712371826,-0.7412187457084656,22.57573127746582,0.9735366702079773,2.466176986694336,-0.0775279775261879,0.2945522645970518,-0.0871623189623555,0.4866767814306875,179.98888630502174,0.0641024510942855,-16.574172405647964
2024-11-08 11:25:59.064842,-0.2914781424437661,-0.7840936727147294,5.46827668309589e-05,-2.3560982519728215,-0.00010149247677444405,1.5708711869293346,0.7870239387791238,-0.1120027535388323,0.00107076480788311,3.343838089175477e-06,-0.0013433734751160077,0.000648895782536773,-7.968157383439296e-05,0.0002487361217233813,-0.3597754240036011,-4.078120708465576,-0.8681718707084656,22.57573127746582,0.9671279788017273,2.473501205444336,-0.0775279775261879,0.29422019880994943,-0.08827658728496532,0.486674929979388,179.98903020941682,0.06450684846977901,-16.7914028299353
2024-11-08 11:25:59.108640,-0.2952549212635132,-0.7840967126763776,2.8252687120629654e-05,-2.35609618005593,-0.00010468298375559363,1.5708720445884532,0.7870213184215364,-0.1075848856726854,-0.0005357126846684693,0.00031940220837752703,-0.0006632846615773394,-0.0005213192753041083,0.00017848004846802746,0.0016102212535928024,-0.07809817790985107,-4.078120708465576,-0.5864946246147156,22.54796028137207,0.9936782717704773,2.466176986694336,-0.0518932119011879,0.2938819777679532,-0.08939603955874427,0.4866769170665978,179.9880367502815,0.06387952066245134,-17.008718154678423
2024-11-08 11:25:59.152669,-0.2989285135548659,-0.7840898483312967,2.220994450860855e-05,-2.3560975690984893,-0.00010311505921342211,1.5708728374396208,0.787021473728311,-0.10831372162319398,0.00019821554754874025,5.991211493397951e-05,0.0007217628288347703,0.0010756840189583303,0.0010564184365224264,6.316943217482787e-05,-0.3082007169723511,-4.129695415496826,-0.5626909136772156,22.57573127746582,0.9808608889579773,2.486318588256836,-0.0647105947136879,0.29355210488605826,-0.0904769111339494,0.4866742222584786,179.987356499616,0.06414513097910467,-17.21945382113607
2024-11-08 11:25:59.196643,-0.30257877694530405,-0.7840921940339394,4.9398290031967495e-05,-2.356096171551351,-0.0001025564420075033,1.570870824508813,0.7870219446890614,-0.1056224901353594,0.0004926679368878863,-0.0001930503239586447,-0.0005138630962816926,0.000461695160508398,-0.0002799892056329903,0.000858849245697567,-0.5105322599411011,-4.101924419403076,-0.8404008746147156,22.54796028137207,0.9671279788017273,2.473501205444336,-0.0848521962761879,0.29322198462116444,-0.0915390950629825,0.48667542605426456,179.98817276307275,0.06432242013961859,-17.427522762485243
2024-11-08 11:25:59.244682,-0.3063286885169953,-0.7840920049475004,4.516638844400108e-05,-2.3560982522981053,-0.00010418178552490673,1.5708679949848356,0.7870228658953033,-0.1123903472606246,0.0007449650617050804,-0.0002529553317753902,-2.418069241748297e-06,-0.0011195160655882253,-0.0008044877250069569,0.0007904162685983757,-0.2804297208786011,-4.129695415496826,-0.7412187457084656,22.57573127746582,0.9808608889579773,2.473501205444336,-0.0775279775261879,0.29287534604887183,-0.09263939549941583,0.4866741374388765,179.9877688859403,0.06453259786212909,-17.642601424745415
2024-11-08 11:25:59.244722,-0.31009677263432184,-0.7840959851316291,3.392124120667237e-05,-2.356090226426865,-0.00010154416566384594,1.5708719350870033,0.7870181358558572,-0.10799653464761944,-0.000912977584074895,0.0007501027255548672,0.0010069719099013016,-4.940435947442106e-05,-0.00021657179282106188,-0.0013359448931282898,-0.2804297208786011,-4.078120708465576,-0.6380693316459656,22.49638557434082,0.9671279788017273,2.466176986694336,-0.0647105947136879,0.2925244344506188,-0.0937456577551731,0.4866794944163658,179.9872268715786,0.06343092188939416,-17.858681951748398
2024-11-08 11:25:59.284694,-0.3137486830189794,-0.7840958785503527,4.115386979761825e-05,-2.3560883845419007,-0.00010600281423152608,1.5708711738453889,0.7870188892595906,-0.10435015275739286,-0.0013723913751901226,0.0006850778804608338,0.0022644806424394906,0.0010907706597751445,-6.789806869039386e-05,0.0005285785388921992,-0.4113501310348511,-4.050349712371826,-0.7412187457084656,22.47258186340332,0.9872695803642273,2.473501205444336,-0.0711192861199379,0.29218066036350526,-0.09481198133709802,0.486680264523163,179.98753421069932,0.06349998527264228,-18.067670610603415
2024-11-08 11:25:59.302767,-0.317440422014847,-0.7840955808286528,5.7509764661398105e-05,-2.356094296152713,-0.00010388976737964398,1.570872353870988,0.787023771201255,-0.10961324614615325,0.0005094061464189696,0.0007588777086873512,0.0015531623216563093,0.00016797643754536476,0.00012035920254174781,0.001049327014740305,-0.3320044279098511,-4.050349712371826,-0.8919755816459656,22.52415657043457,0.9872695803642273,2.466176986694336,-0.0848521962761879,0.29183001019212623,-0.09588435418474664,0.48667748599198657,179.98772436992599,0.06389622106854792,-18.278808248051927
2024-11-08 11:25:59.344668,-0.3212318850450691,-0.784094311649027,2.2608938449567064e-05,-2.3560951859903927,-0.00010579957378553053,1.5708727969241396,0.7870219800107827,-0.11058537674059389,-0.0008939792436720638,-0.0004936211649917658,0.0004032701235976783,-2.3951830504123943e-05,0.0002105202637463132,0.001348787322503018,-0.10190188884735107,-4.078120708465576,-0.5111162066459656,22.54796028137207,0.9735366702079773,2.459768295288086,-0.0848521962761879,0.2914608170484342,-0.09700135736088342,0.48667671478424157,179.98621350905924,0.06353086711405576,-18.497356196088692
2024-11-08 11:25:59.388649,-0.3249091929697958,-0.7840921132017205,2.221185678786627e-05,-2.3560923318898235,-0.00010325111842648706,1.5708703783810403,0.787020734354961,-0.10936323867786754,0.00023621274767827218,-0.0005712372816540541,0.0012546976832388834,0.0004986735848441924,-0.0010653487032902024,0.0011818164935812074,-0.23282229900360107,-4.101924419403076,-0.5626909136772156,22.52415657043457,0.9808608889579773,2.479909896850586,-0.0775279775261879,0.29110245833210235,-0.09807216719578633,0.48667717445325775,179.9857941156167,0.06352371975313023,-18.70799548174694
2024-11-08 11:25:59.432635,-0.3285440947130756,-0.7840955937581284,5.628751775008365e-05,-2.356093709462164,-0.00010311475114962036,1.5708727969181826,0.7870216283291616,-0.10788624148336227,-1.7303303223106543e-05,0.0015244077477312799,-0.00045861122112466284,0.00022192831807575435,0.0011263935698730826,0.0005510766986929623,-0.5105322599411011,-4.050349712371826,-0.9197465777397156,22.52415657043457,0.9808608889579773,2.459768295288086,-0.0912608876824379,0.2907474554483933,-0.0991190382777595,0.48667780577490155,179.98694603764895,0.06366913990577754,-18.914929044052382
2024-11-08 11:25:59.476675,-0.332292385251884,-0.784095750293636,4.902886868391208e-05,-2.356098030269621,-0.00010581797407531785,1.5708712000128404,0.7870244875147688,-0.11195182531106017,-0.00016023434746457766,7.425239883812829e-05,-0.0005336378346064605,-0.0007622273778266995,0.00021421603988235305,0.0015165291702618692,-0.3082007169723511,-4.078120708465576,-0.7927934527397156,22.57573127746582,0.9936782717704773,2.473501205444336,-0.0912608876824379,0.29037206419029027,-0.10021062152410748,0.48667567407923323,179.98646826763914,0.0638864446257404,-19.130148578120238
2024-11-08 11:25:59.476714,-0.3360398376856303,-0.7840975090955867,3.424565772639727e-05,-2.356093709466048,-0.00010241987780533872,1.570870467276556,0.787014994028221,-0.10730411518043349,-0.001306845571104816,0.0009274861042986122,-0.00010684831442956632,0.0004084360495515101,-0.00029580004997101705,-0.0014847251697440924,-0.3082007169723511,-4.026546001434326,-0.6380693316459656,22.52415657043457,0.9735366702079773,2.473501205444336,-0.0381603017449379,0.28999326127810576,-0.10130198879844017,0.4866781895397284,179.98558079764445,0.0632844823224888,-19.344917783969446
2024-11-08 11:25:59.520674,-0.33971248029271023,-0.7840940291112599,3.989080153692845e-05,-2.356094395465105,-0.00010558036744170852,1.5708711735243714,0.7870232364439067,-0.10538031947623044,0.000985403624250408,0.00022630768799684445,0.0006990312760095053,-0.0011560563969306614,-0.0005973544866792189,0.001407128565544835,-0.3597754240036011,-4.101924419403076,-0.7134477496147156,22.52415657043457,0.9735366702079773,2.473501205444336,-0.0775279775261879,0.2896202134052781,-0.10236543492958722,0.486676858838883,179.985668767166,0.06355450184224797,-19.555587935527132
2024-11-08 11:25:59.540629,-0.3433795172867108,-0.7840957414099322,5.467399921198422e-05,-2.356096155397617,-0.0001053871163028932,1.5708730992372144,0.7870160656036347,-0.10803683727370347,4.864484492354853e-05,0.00048272929140950915,-0.0003557080902750853,-0.0004064827717342978,0.0003553179624372005,-0.0016967854159957298,-0.4351538419723511,-4.078120708465576,-0.8681718707084656,22.54796028137207,1.0000869035720825,2.466176986694336,-0.0381603017449379,0.2892444465157243,-0.1034221876371475,0.4866767230939416,179.98602550399016,0.06359799860469217,-19.76468325720811
2024-11-08 11:25:59.584880,-0.3471798386102382,-0.784098497831016,2.4391507175084645e-05,-2.356096180067863,-0.00010464320401583462,1.570876329529797,0.7870151269984592,-0.11031632783566889,-0.0010755691267616099,-0.0014278228071372583,0.0004951185966211675,0.00046676400659079946,0.001478092241602402,0.0003767925597100302,-0.12967288494110107,-4.050349712371826,-0.5349199175834656,22.54796028137207,0.9936782717704773,2.459768295288086,-0.0381603017449379,0.28884625329289726,-0.10452988236477015,0.48667784144482423,179.98470653167203,0.06279149748999029,-19.983600279904056
2024-11-08 11:25:59.628657,-0.35085128617043065,-0.7840935558455016,2.4070519984513907e-05,-2.35610180061193,-0.00010420667901479391,1.5708723537094778,0.7870196467547994,-0.1075728787093385,-0.0006697982679475585,-0.0004496894176151325,-0.0009105748932960124,0.0013142082207221995,-0.00044951543107123334,0.0015756141637189502,-0.3082007169723511,-4.078120708465576,-0.5864946246147156,22.62333869934082,0.9808608889579773,2.466176986694336,-0.0775279775261879,0.2884597762037114,-0.10558939670112046,0.48667332118884044,179.9841541146944,0.06350410623222608,-20.19423110679547
2024-11-08 11:25:59.672703,-0.3545207355126074,-0.7840972943893673,5.145152460311462e-05,-2.356091633512372,-0.00010637326678254216,1.5708703507755737,0.7870220279717389,-0.11006810648808824,5.0652941631080443e-05,0.001300772904030421,0.0015049240613459539,-0.0013305364556484554,0.00041513003170885905,0.0013585606190466032,-0.3597754240036011,-4.026546001434326,-0.8681718707084656,22.52415657043457,1.0074111223220825,2.479909896850586,-0.0976695790886879,0.2880736115536651,-0.10663933554627933,0.48667909355001676,179.9853145512689,0.06323394026089371,-20.4035006496368
2024-11-08 11:25:59.720716,-0.3582356189590891,-0.7840943652584629,5.0463677851573606e-05,-2.3560963422789825,-0.00010466935049536583,1.5708720261761493,0.787026438879002,-0.11208213624990623,-0.0006954200215856831,0.0004845345080037747,0.0002176703697196241,0.00011582239472643276,6.478271440532319e-05,0.0027300083591360264,-0.3320044279098511,-4.078120708465576,-0.8404008746147156,22.54796028137207,0.9936782717704773,2.466176986694336,-0.0976695790886879,0.28767567009727485,-0.10770879247291465,0.48667611793989307,179.98483106300836,0.0634506381665334,-20.616640900047628
2024-11-08 11:25:59.720755,-0.3620215605335171,-0.7840898453702094,3.216586787599468e-05,-2.356095261711079,-0.00010185200228238005,1.5708714892717819,0.787016749222701,-0.11002902144911145,0.0016523509932019828,0.0007577268607379779,1.6778624072724766e-05,-9.029089273232213e-05,-0.0005629085085215582,-0.0006055800389329247,-0.20505130290985107,-4.129695415496826,-0.6102983355522156,22.54796028137207,0.9671279788017273,2.473501205444336,-0.0518932119011879,0.2872646009947734,-0.10880242068819132,0.48667519231613415,179.9836661177991,0.06328622989149976,-20.833746779976924
2024-11-08 11:25:59.764701,-0.365678101632344,-0.7840964701329115,4.197054145353726e-05,-2.356096180976531,-0.00010737714687046102,1.5708746667266296,0.7870213115377663,-0.10678763583897007,1.191851309484791e-05,0.0014182268113439446,0.0007998608689180092,-0.00010858796539146788,0.0001016925755492482,0.00018771920898663728,-0.3320044279098511,-4.078120708465576,-0.7412187457084656,22.54796028137207,0.9808608889579773,2.473501205444336,-0.0912608876824379,0.2868651319813501,-0.109850019174426,0.48667707243399266,179.98428336739855,0.0630059359608962,-21.043114459547827
2024-11-08 11:25:59.778465,-0.3693608617051599,-0.7840994618646518,5.6834187578662684e-05,-2.3560937095580647,-0.00010706999318298196,1.5708708206309037,0.7870196467547985,-0.10951382690148169,-0.0008072816194044997,0.0009828111276050703,0.00032962926010132634,-0.0016633134015905035,0.0004977819350561206,-0.0007210178985898567,-0.4113501310348511,-4.026546001434326,-0.8681718707084656,22.52415657043457,0.9872695803642273,2.473501205444336,-0.0775279775261879,0.28645952141277425,-0.11090080447488618,0.48667882060352774,179.98462998687035,0.06307215845572896,-21.253422912505506
2024-11-08 11:25:59.820655,-0.3731400853224382,-0.7840978205171133,2.8613665194834445e-05,-2.356094313268113,-0.00010404319858483508,1.5708679949133015,0.7870166573219617,-0.11133489760143687,-0.0007610060909196031,-0.001994161694320138,0.0008350567244938129,-0.00016394195666770298,-0.0006548825714106139,-0.0009207860609365896,-0.2566260099411011,-4.050349712371826,-0.5626909136772156,22.52415657043457,0.9872695803642273,2.473501205444336,-0.0518932119011879,0.286034844634972,-0.1119904255698649,0.4866777831853666,179.9830598068873,0.06280437524584395,-21.470930306826695
2024-11-08 11:25:59.864677,-0.3768292836823766,-0.7840900881712054,2.5774288932272016e-05,-2.3560981841681485,-0.00010238167435389908,1.5708715687743962,0.7870178525921921,-0.1081775661097603,0.00041926660804295096,0.00010569504050412522,-0.0020902192192433907,7.674492847779346e-06,-0.00019380746756582172,8.571666390193674e-05,-0.2804297208786011,-4.129695415496826,-0.6102983355522156,22.57573127746582,0.9735366702079773,2.466176986694336,-0.0583019033074379,0.2856208742042331,-0.11304596711119347,0.48667389425895324,179.98246346827844,0.06309188489406883,-21.68248978937353
2024-11-08 11:25:59.908689,-0.3804790314316048,-0.7840984980549034,4.6790121612208155e-05,-2.3560940122579974,-0.00010678544548052275,1.5708711737377181,0.7870188891189553,-0.10884947551617115,8.293017378664127e-05,0.0004185867135431876,0.0005340523233780916,-0.0008501459321901851,-0.0011421076849698361,-0.0009372841497137372,-0.4867285490036011,-4.050349712371826,-0.8165971636772156,22.54796028137207,0.9808608889579773,2.473501205444336,-0.0711192861199379,0.2852078044552295,-0.11408184299364582,0.4866784125910951,179.98351734852653,0.06278887677915385,-21.89081150801666
2024-11-08 11:25:59.952807,-0.38419922333520085,-0.7840985486852894,4.687015644883905e-05,-2.356099813576465,-0.0001031688715349435,1.5708735570010663,0.7870177357638334,-0.11054414856289571,-0.000686988011600637,-0.0011952410582276932,-0.0013312872793463742,-2.853232210988689e-05,0.0023466251712244346,0.000604434934671911,-0.3597754240036011,-4.050349712371826,-0.7650224566459656,22.59953498840332,0.9808608889579773,2.453359603881836,-0.0583019033074379,0.28478148737929154,-0.11514125509859707,0.4866758986198274,179.98302246032208,0.06282955358866482,-22.10389386419126
2024-11-08 11:25:59.952847,-0.387853418416678,-0.7840957446294927,3.424566168550805e-05,-2.3560920095588633,-0.00010538917315171496,1.570870414498474,0.7870176934186335,-0.10963748095157952,0.00043846008605305666,0.00033384377078033524,0.0012710560894217532,0.0011445588310446107,-0.0004992869137616551,1.093759752585305e-05,-0.23282229900360107,-4.078120708465576,-0.6380693316459656,22.49638557434082,1.0000869035720825,2.479909896850586,-0.0518932119011879,0.2843578196515084,-0.1161856654993197,0.48667844544382677,179.98247756724592,0.06252333855201987,-22.313773431468967
2024-11-08 11:25:59.996657,-0.3916403942683061,-0.7840979947703811,3.8001926940713196e-05,-2.3560980028347576,-0.00010631058815308266,1.570870376886283,0.7870213633363199,-0.10646840268356232,-0.000818114312378572,-0.0009389579913293329,-0.000261143678332316,0.0009170851407437552,-0.00021727555713691972,0.000618444589795507,-0.2804297208786011,-4.026546001434326,-0.6896440386772156,22.57573127746582,0.9808608889579773,2.479909896850586,-0.0647105947136879,0.28391514427566505,-0.11726030451628698,0.48667630419421826,179.98234768115884,0.06273496630461975,-22.530809205870668
2024-11-08 11:26:00.016518,-0.39531179141968725,-0.7840938805724651,5.4673999143613355e-05,-2.356093425953698,-0.00010311897191600537,1.5708712130972269,0.787021720958157,-0.11114558782205014,0.00044355280048044804,-0.0004296640539091374,0.00016425446361009038,-0.001030311744090707,9.787745153002744e-06,0.000993824200644153,-0.4629248380661011,-4.078120708465576,-0.8681718707084656,22.54796028137207,0.9808608889579773,2.473501205444336,-0.0647105947136879,0.28348636299064706,-0.11829677889870137,0.48667727434990254,179.98260065106686,0.06279061877284332,-22.740509280057548
2024-11-08 11:26:00.056661,-0.3990835666058727,-0.784092574822617,3.0421226784813184e-05,-2.356095262519387,-0.00010316766283449528,1.5708727581568427,0.7870127329940186,-0.10929302636163328,0.001575457727387351,-0.0011876746060241097,9.065272982367804e-05,0.0020957662831645133,0.00029024832703803294,-0.0021937636438632987,-0.20505130290985107,-4.101924419403076,-0.5864946246147156,22.54796028137207,0.9808608889579773,2.459768295288086,-0.018934227526187897,0.28303534942360214,-0.11937258923914765,0.48667614174483376,179.98142569259304,0.06242833605495936,-22.95708498553714
2024-11-08 11:26:00.100630,-0.4027805726710956,-0.784088205090252,2.1498759131763398e-05,-2.356093184921472,-0.00010661002888876589,1.5708710556232937,0.7870231938746551,-0.10886382092337749,0.0015645834632915842,5.440036254941282e-05,0.0012926028818472282,-4.887045434200023e-05,-0.0008714851616750924,0.0017466033370936124,-0.2566260099411011,-4.153499126434326,-0.5626909136772156,22.54796028137207,1.0074111223220825,2.473501205444336,-0.0711192861199379,0.28259120445232616,-0.12042172418228062,0.486675630793708,179.9809542395673,0.06250548035248218,-23.169869088141954
2024-11-08 11:26:00.144697,-0.40644130372102033,-0.7840983315270024,4.337374840492354e-05,-2.3560959511096384,-0.00010237158176976183,1.5708722335314453,0.787020077323595,-0.10652675499024357,0.0001942796606566238,0.0008615376411217049,-0.0005098245792836012,0.00025873433872307427,-0.0005301651439133428,0.0004961239834745242,-0.4351538419723511,-4.026546001434326,-0.7927934527397156,22.54796028137207,0.9735366702079773,2.473501205444336,-0.0711192861199379,0.2821501244272602,-0.1214473780858184,0.48667753904587774,179.98150984352498,0.06224019927034982,-23.378547893581004
2024-11-08 11:26:00.188670,-0.4101515972121464,-0.7840926082071121,4.660420558840731e-05,-2.3560940881418984,-0.00010706804482810595,1.5708711738633472,0.7870217050992774,-0.1119294310769266,-0.00047664771667767333,-0.0013896097093610547,0.0009630332070675456,0.0005163857373416221,-9.271668801111344e-06,0.00025032953778508934,-0.4113501310348511,-4.101924419403076,-0.7650224566459656,22.54796028137207,0.9872695803642273,2.473501205444336,-0.0583019033074379,0.2816984254724893,-0.12249369704520559,0.48667656755488514,179.98153341833614,0.06258913538913974,-23.59109419693071
2024-11-08 11:26:00.188708,-0.41382542614071904,-0.784097536084018,3.6028334680752785e-05,-2.356095492248052,-0.00010570846890314466,1.5708711796596717,0.7870213898817813,-0.10930108553919127,-0.0017230628770768491,0.0003616268467838665,-0.0007570844893594827,0.00019569421497869446,-0.001435240030409002,0.00048312373104046136,-0.15347659587860107,-4.026546001434326,-0.6618730425834656,22.54796028137207,0.9936782717704773,2.473501205444336,-0.0647105947136879,0.2812443756428192,-0.12353029827533421,0.4866774188699309,179.98092133906508,0.06213217802213555,-23.802000142421154
2024-11-08 11:26:00.232616,-0.41761098439977196,-0.7840940560923462,4.197059096335554e-05,-2.356098259857884,-0.00010421930924983905,1.5708720382837538,0.7870214027722598,-0.10669354872824152,0.0007815613717344221,0.0016371713937484169,-0.0001844091442128747,0.0003223742029792791,0.00027132008791068104,0.0019827081964506697,-0.3320044279098511,-4.101924419403076,-0.7412187457084656,22.57573127746582,0.9808608889579773,2.466176986694336,-0.0912608876824379,0.28077597229907053,-0.12459216647196322,0.48667511876431213,179.98070308579574,0.062404733729972704,-24.01865666505054
2024-11-08 11:26:00.255655,-0.4213846291877445,-0.7840935828873445,5.2591178352212656e-05,-2.356092215560577,-0.00010225305864771387,1.5708711736826275,0.7870200149602354,-0.1100160367945335,0.0009284277836682986,-0.00017407455892588303,0.0011036479232416458,-0.0012566811653236176,-0.00035187732103095367,0.0006138512992862475,-0.5383032560348511,-4.078120708465576,-0.8404008746147156,22.49638557434082,0.9735366702079773,2.473501205444336,-0.0711192861199379,0.2803060019966684,-0.12564756135295116,0.4866777507966965,179.98086781609084,0.06221522914767324,-24.234360430323882
2024-11-08 11:26:00.296614,-0.4251634949765452,-0.7840918462861625,3.425880908300371e-05,-2.3560943983356175,-0.00010422737256810048,1.5708722727293996,0.7870186127591962,-0.11269232326195683,0.0004019903070112939,-0.0011352486044668823,0.00015059788266561294,0.0013446677677654943,-4.2761645871565424e-05,-0.0007261761570906188,-0.15347659587860107,-4.101924419403076,-0.6380693316459656,22.52415657043457,0.9872695803642273,2.473501205444336,-0.0647105947136879,0.2798267583237993,-0.12671181325878347,0.48667628335823276,179.97999272981497,0.062030144223592446,-24.451536778353027
2024-11-08 11:26:00.340694,-0.4288699472385824,-0.784089846332682,2.793592283804306e-05,-2.356094321758438,-0.00011104495923510555,1.5708704287807544,0.787020711633998,-0.10921968078672559,0.0013515273267551168,0.002626748549682755,-0.00010702137707280148,-0.002623372306076003,-0.000544866408982132,0.0010780133449554339,-0.18124759197235107,-4.129695415496826,-0.6380693316459656,22.52415657043457,1.0074111223220825,2.479909896850586,-0.0583019033074379,0.2793536677620891,-0.12775125468616355,0.48667554346573494,179.97979550353475,0.06220781876272652,-24.664277350615745
2024-11-08 11:26:00.384667,-0.4325176542357516,-0.7840984791028648,4.474435322806054e-05,-2.356094398324147,-0.00010504212018633976,1.5708711733667797,0.787018446676339,-0.10728109763005361,0.0007273074801428692,0.0014580535514429548,8.396292291193438e-05,0.00019298362909093582,-0.0007268301266093111,-0.0014085229273681382,-0.4351538419723511,-4.050349712371826,-0.8165971636772156,22.52415657043457,0.9671279788017273,2.473501205444336,-0.0583019033074379,0.2788875664004699,-0.12876278652548304,0.4866782244283936,179.98009802220182,0.0617910310929353,-24.872464323142214
2024-11-08 11:26:00.428696,-0.4362268139531929,-0.7840918447231481,4.864040508704447e-05,-2.356096181012686,-0.000107270381742495,1.5708735172172268,0.7870185308459433,-0.10544429082276062,0.00032099305506465086,0.0012814679927611074,-0.00024661252989962874,-0.0012450616314589524,0.0015457856407325523,-0.00025658478478380676,0.10042965412139893,-4.101924419403076,-0.38019582629203796,22.54796028137207,1.0669203996658325,2.453359603881836,-0.0317516103386879,0.2784095496226343,-0.1297961531086753,0.48667555073910235,179.97998070439073,0.0621527707168526,-25.084830386079936
2024-11-08 11:26:01.488965,-0.43434812260488886,-0.7840991442930176,-3.13983500795222e-05,-2.356082842486673,-9.577189553967099e-05,1.5708692643755398,0.7870162574410215,0.1693393300347277,0.0019082006744170481,-0.009657769224150415,0.002739992656403193,0.010292324516463445,-0.004797781325724745,0.0005653243733170393,6.368740081787109,-4.177302837371826,4.781242370605469,22.44481086730957,1.2793227434158325,2.533010482788086,-0.0583019033074379,0.2786426659162057,-0.1292942270265552,0.48668371507325103,179.97695370394024,0.05969736680490363,-24.98030579611713
2024-11-08 11:26:01.532693,-0.4220967570874772,-0.7840488493624745,-0.00029800001078823877,-2.356145798856335,-0.00015143741904285937,1.5708901212907973,0.7870100357347793,0.3962694240202502,-0.0030222407802126547,-0.012524933977344346,-0.0051717898363216495,0.010785330202680663,0.008737652976319172,-0.0020299131118989076,-3.2003517150878906,-4.581965923309326,-1.0705034732818604,23.21049690246582,0.6421157717704773,2.353567123413086,-0.005201317369937897,0.280169004411849,-0.1259624667212427,0.4866403617753655,179.9685755261812,0.06168708322657627,-24.288809322749575
2024-11-08 11:26:01.576714,-0.41513140563316464,-0.7841763223723027,0.00035408799422210254,-2.3560271377323736,-7.281999432772249e-05,1.5708754775081515,0.7870119800179703,0.05200091825406412,-0.002352822551785063,0.029013114459466957,0.0013616944533158648,0.004239528850329664,-0.0018282608766710005,-6.797399454736038e-05,-5.191928863525391,-3.193416118621826,-8.509162902832031,22.06395149230957,0.2365371435880661,2.519277572631836,-0.0518932119011879,0.28112519213726983,-0.12379528265417289,0.4867342540139916,179.99440486689582,0.05860067220095629,-23.863386729671465
2024-11-08 11:26:01.620770,-0.4132756695591624,-0.784128382593458,0.00039478471931561073,-2.3560632132146044,-5.3762638403863036e-05,1.570872052208077,0.7870131350350179,0.1777622524482525,0.0023594749254156194,-0.025242787982200685,-0.0055186164548696095,-0.008194470441848786,0.0033996530678794923,-4.7513539209173246e-05,5.242031097412109,-4.304255962371826,4.574943542480469,22.57573127746582,1.5054579973220825,2.506460189819336,-0.0583019033074379,0.28136321819515314,-0.12325836549488822,0.486702192559836,179.99301187430552,0.06342265416527723,-23.75547848882701
2024-11-08 11:26:01.620818,-0.40141401494896395,-0.7840581653694637,-0.0008308199209701375,-2.356192779879298,-0.00026103162388854976,1.5708419388638446,0.7870112984303896,0.4049383334650089,-0.004280975568772858,-0.020290338944553343,-0.0038943962410517715,-0.011166822668284407,0.0012146046526819079,-0.0012787645486534598,-0.7684057950973511,-4.482783794403076,1.7899091243743896,23.54374885559082,1.0998793840408325,2.684988021850586,-0.0381603017449379,0.28262097882875503,-0.12031545055515398,0.48661672886474455,179.9538459981847,0.06086895675815839,-23.125452270627918
2024-11-08 11:26:01.664723,-0.3934348082459548,-0.7842237872248661,0.0003156551679300763,-2.355938239623254,-0.00012876339837878276,1.5708860036536387,0.7870079556191731,0.09806819736238027,0.00441655619620306,0.05864659024233779,0.00182891712852172,0.005837661439597403,-0.00378945443848835,-0.002112407402592278,-5.961582183837891,-3.371943950653076,-9.862007141113281,21.78227424621582,0.1971694678068161,2.479909896850586,-0.018934227526187897,0.28374128977208324,-0.11769202480871194,0.4867917328838028,-179.99957446336526,0.051566470403028274,-22.621586170978052
2024-11-08 11:26:01.683624,-0.38972437223638706,-0.784100928753104,0.0006430794079619077,-2.3560643106684274,-6.1295338667787555e-06,1.570886225428942,0.7870134425066708,0.22577188452124566,0.0011938446068078014,-0.025649975292007486,-0.005005638147968215,-0.008185844286660856,0.00686303425223738,0.0003651700456168143,4.067714691162109,-4.732722759246826,3.7061078548431396,22.90501594543457,1.4715834856033325,2.386526107788086,-0.0381603017449379,0.2842288837277449,-0.11651684555100925,0.4866944527106733,-179.99902610805674,0.06711299411307821,-22.396035954680574
2024-11-08 11:26:01.724672,-0.3786649321396949,-0.7840455890886301,-0.0008477005367166994,-2.3561458574468497,-0.00021831946897346672,1.5708296296101967,0.7870134813084251,0.2758141251423369,-0.002063653016071077,-0.008363910154415809,0.001562521428052725,-0.014271005290324958,-0.00468896554163295,0.001395880046496895,-3.3273048400878906,-4.482783794403076,-1.3006060123443604,23.15892219543457,0.7547256350517273,2.791189193725586,-0.0647105947136879,0.2852909554886791,-0.11385426842937506,0.48663393446372893,179.95280174279384,0.05957126006544616,-21.822838102256956
2024-11-08 11:26:01.772647,-0.3742901091536019,-0.7842935486457855,0.00037472023264635486,-2.3558903316161888,-6.827836913133727e-05,1.5708635587908788,0.7870094284034671,0.13056528868796896,-0.00025825176745438013,0.050837079661734605,0.0001967132586860442,-0.006166574195195694,-0.015108813757686392,-0.00017698159496401766,4.321620941162109,-3.141841411590576,-1.7608110904693604,21.47679328918457,1.6244765520095825,2.645620346069336,-0.0317516103386879,0.28594536055413183,-0.11220546533158741,0.4868338000132512,-179.9975920565294,0.04607807879395475,-21.522366882729926
2024-11-08 11:26:01.816645,-0.3638880779874321,-0.7840410030615688,0.0001595962577290915,-2.3560329332547085,-0.00010479417065687383,1.570886349383119,0.7870056092338905,0.34770101415800975,0.009758089262970646,-0.043636512370553396,-0.0032363805943182397,0.00035773168447705145,0.0010831521754323449,-0.0012454024269662883,-4.989597320556641,-5.490474224090576,-0.43177053332328796,22.72648811340332,0.7547256350517273,2.400259017944336,0.0012073740363121033,0.28709300615339245,-0.10930679953029536,0.4866909149424901,179.9891073011025,0.06363399583110013,-20.93488201517086
2024-11-08 11:26:01.860677,-0.35942817415928874,-0.7841664322092349,-0.00010394373151998645,-2.356053645809825,-6.83541902769246e-05,1.5708775264516628,0.7870140795142411,0.07567862137175055,-0.0035473869030393126,0.03411567527391114,0.014309236744161728,-0.00039179627356472624,-0.00029230272909603917,0.0019893490350550804,6.444118499755859,-3.169612407684326,-0.17786428332328796,21.96080207824707,1.1200209856033325,2.459768295288086,-0.0711192861199379,0.28752784321297703,-0.10809019587725444,0.48671889020729064,179.97937647904334,0.0540507978403476,-20.69052428470012
2024-11-08 11:26:01.860713,-0.3492580473359708,-0.7840966747248437,0.00016373260464630642,-2.3559869265815445,3.591665737805244e-05,1.5709581952573426,0.7869976971368345,0.32040184460448734,0.008000655248086847,-0.020269218467409273,-0.007086130619367633,0.03035475141223409,0.014602684712336932,-0.0014110714869402905,-8.11185073852539,-5.137385845184326,-3.2961504459381104,22.42100715637207,-0.2807357907295227,1.908620834350586,0.0405750498175621,0.2886836986663047,-0.10507025011601258,0.4867360388122506,179.986022611558,0.051743615879166344,-20.09602716785605
2024-11-08 11:26:01.904678,-0.3442445306718272,-0.7841885462983069,-0.00020017610785028525,-2.356099093431818,-0.00019526002550089162,1.5708987287312146,0.7870086157732552,0.19866311120094107,-0.0027406032402402204,0.0023354956614523113,0.0027085022701027524,0.011371453632163119,0.004328335123063844,-3.344051703379122e-05,10.12972640991211,-3.447322368621826,4.420219421386719,22.57573127746582,1.7837783098220825,2.280324935913086,-0.0518932119011879,0.2891117415589438,-0.10376523523592582,0.48670608488873635,179.9833331692165,0.05561182701245484,-19.82414782292953
2024-11-08 11:26:01.921887,-0.3356351571320987,-0.784115455279093,0.00014413534970255323,-2.3559676037944284,9.984723778320645e-05,1.5709138441779886,0.7870050511842668,0.1392244062918706,0.0008041995538228323,-0.015546357395601923,-0.0005797104023628972,0.014742313668712396,-0.0014066867804381619,0.0003376353302916896,1.354091763496399,-4.431209087371826,0.5878217816352844,21.93699836730957,0.4956313967704773,2.273916244506836,-0.0317516103386879,0.29008135475186847,-0.10111804109441426,0.486747036599363,179.9824029221466,0.0507997963893612,-19.31671272263759
2024-11-08 11:26:01.964716,-0.3283343290300551,-0.784165572644266,0.00018020739368042945,-2.35605336485898,-1.2765105235205455e-05,1.570949341227946,0.7870030764490674,0.2402064015029548,-0.007230809735703899,0.01740049159487385,0.006600279968256917,0.015203003534987148,0.019535409336752494,0.0005875470276971023,-0.5621069669723511,-3.875789165496826,-1.4315264225006104,22.19090461730957,0.7153579592704773,1.902212142944336,-0.005201317369937897,0.2907973710625417,-0.09900520302343864,0.4867250622048847,179.99026260753882,0.053485912859504936,-18.896823620331954
2024-11-08 11:26:02.008640,-0.32099734998260326,-0.7840966630806924,-1.561377331174236e-05,-2.3560764164226216,-4.251412523049938e-05,1.5708331389474848,0.7870083347462028,0.224349704215345,3.312900455224163e-05,-0.007692303402394509,-0.005785506770889866,0.005452228587513512,-0.01259585545120702,0.0004897245768891007,0.4098778963088989,-4.633540630340576,-0.05091115087270737,23.18669319152832,0.6421157717704773,2.931264877319336,-0.0317516103386879,0.2914778515931731,-0.09693019968498591,0.4866828156070374,179.9809832654233,0.0629095019395885,-18.484691405910286
2024-11-08 11:26:02.052684,-0.31321190091621715,-0.784149899522403,5.675852425205685e-05,-2.356001635809728,-0.00011168488812833086,1.5708975080211174,0.7870018193848404,0.21709439482782983,0.005429403199830852,0.004968765968740951,0.003407495439774693,-0.0035388558441994994,-0.0023049407395969823,-0.001504723882875274,0.2789574861526489,-4.002742290496826,-0.9435502886772156,21.96080207824707,1.1401625871658325,2.413076400756836,0.0012073740363121033,0.29224068417422,-0.09465400731663805,0.4867401225956425,179.99142915654966,0.05469301523574588,-18.03530182482478
2024-11-08 11:26:02.096720,-0.30611315221911767,-0.7841667050667862,1.870187865351245e-05,-2.35602293328473,-7.455492128527248e-05,1.570893423956045,0.7870007601625274,0.2214604724284183,-0.00223350392404092,-0.003209047881062595,0.0017932203772075758,0.003085112303736637,-0.0006952161823272345,-0.002109220964198216,0.2789574861526489,-3.951167583465576,-0.5111162066459656,22.29405403137207,0.8609268069267273,2.420400619506836,0.0012073740363121033,0.2928979639994571,-0.09257961830541485,0.48673487106155156,179.98817126982374,0.054115638462239525,-17.630058560952236
2024-11-08 11:26:02.096769,-0.29839000407644617,-0.7841272334897372,2.896910937607419e-05,-2.3560629063528995,-8.87335015274045e-05,1.5708887829726994,0.7870057553150879,0.21551548820392785,0.003791152786245662,-0.0006173165351255625,0.001910913316262417,-0.000352737496692529,0.00026855460768403634,0.0005113899665685315,0.23135006427764893,-4.355830669403076,-0.6102983355522156,22.70268440246582,0.9808608889579773,2.473501205444336,-0.0381603017449379,0.2936042944867436,-0.09031442504959034,0.48670346863143804,179.98834725225052,0.05917127916208782,-17.187424461938974
2024-11-08 11:26:02.140696,-0.29111096066450703,-0.7841511043713777,-2.6396265178611016e-05,-2.356055220685904,-9.652803696466583e-05,1.5708857222622385,0.7870070379422227,0.21447536938476328,-0.0021938814151744486,-0.0015956498866388379,-0.0006977840019725431,-0.0010553744833918563,-0.00021551534183146792,0.0014692647749534582,0.8938866853713989,-3.974971294403076,-0.25324270129203796,22.59953498840332,1.0467787981033325,2.473501205444336,-0.0518932119011879,0.29424507432550046,-0.08819280036356955,0.48671416021612324,179.98752639721573,0.05717525819487136,-16.772684263739308
2024-11-08 11:26:02.160966,-0.28352454105529634,-0.7841652194609573,6.747278125148127e-05,-2.3560133210211496,-7.692248235513211e-05,1.570892349966412,0.7870061716936289,0.2181887903640308,0.0026902126791226257,0.0030233748153293436,0.001850542002486055,-0.00029266690405112516,-0.0006507434205203602,0.0004461202784231739,-0.20505130290985107,-3.927363872528076,-1.1736528873443604,22.21867561340332,0.8810684084892273,2.426809310913086,-0.0445689931511879,0.29491980569722615,-0.0859259615648684,0.48673885833987085,179.99153641342966,0.054571381533373,-16.33415750919409
2024-11-08 11:26:02.204716,-0.2761869451668433,-0.784106540450164,7.119888152172384e-05,-2.3560616076249095,-8.47287449415453e-05,1.5708877493923907,0.7870055301351905,0.2228991458529182,0.0009122523345020693,0.002245931892716253,0.00033029741154525595,0.0005050502878192235,0.0005175274166622646,-0.00018903234147439558,0.025051236152648926,-4.530391216278076,-1.0189287662506104,22.67491340637207,0.9469863772392273,2.459768295288086,-0.0381603017449379,0.2955440147027849,-0.08376058303223345,0.48669763441254704,179.99076962954535,0.06094515293151658,-15.913556765348817
2024-11-08 11:26:02.248769,-0.26877023602018174,-0.7841727829060263,-7.63683621122751e-06,-2.356051606586347,-9.298871600647824e-05,1.5708856534035522,0.787002484943885,0.21093728927739536,-0.003929096422296769,-0.0030087434733276873,0.0015759619340798732,8.695434522151509e-05,-0.00024125567908891632,-0.0025319798162035394,0.7431298494338989,-3.673457622528076,-0.20166799426078796,22.54796028137207,0.9808608889579773,2.486318588256836,-0.012525536119937897,0.2961408174303048,-0.0815903110770659,0.4867225197166401,179.98972759342533,0.05619416954926982,-15.491632578095638
2024-11-08 11:26:02.292755,-0.2614368650651176,-0.7841682382524895,-1.8601731452701407e-05,-2.356016270409028,-9.137123899928881e-05,1.5708922367642202,0.7870040799259334,0.22386153418515736,0.0017799029877043201,0.004461558026648964,-0.0024801437346196904,0.0008947964722410304,0.0001874214882248966,-0.0007017291257029156,0.3305321931838989,-3.974971294403076,-0.5349199175834656,22.34562873840332,0.9671279788017273,2.426809310913086,0.0012073740363121033,0.29673674121588434,-0.07942126253646341,0.48673838307221967,179.99017490639568,0.054060627887858634,-15.071997049401553
2024-11-08 11:26:02.336847,-0.2539018025830992,-0.7841226045596352,3.9429245135646216e-05,-2.3560598317860264,-8.519828061199742e-05,1.5708900505336298,0.7870046385486175,0.2129864203209645,-7.583772481214426e-05,-0.0017344274280495396,0.0002089189273186691,-0.0009894891299657474,0.0005002331369779347,-0.0009540294718261115,0.3305321931838989,-4.355830669403076,-0.7927934527397156,22.67491340637207,0.9469863772392273,2.466176986694336,-0.0317516103386879,0.29733276530757907,-0.07716376980013966,0.4867036093664543,179.9912002612749,0.05970238038889678,-14.63794886942442
2024-11-08 11:26:02.336908,-0.24649608527934105,-0.7841590707623046,3.0304363149715516e-05,-2.356032056267437,-8.710994496214218e-05,1.570893306590892,0.7870077793903938,0.2192091620808683,-0.0015739644512101775,-0.00017423369621244326,0.0024420323061661656,-0.0015225530594556941,0.0010197694929734394,0.0012048119128301755,0.15200436115264893,-3.875789165496826,-0.7134477496147156,22.36943244934082,0.9671279788017273,2.439626693725586,-0.0583019033074379,0.2978939232605943,-0.07496265605059349,0.4867282091670542,179.99233403930467,0.05595203793663245,-14.214181692516775
2024-11-08 11:26:02.380771,-0.23919208680037965,-0.7841620665060292,-9.206294945087504e-06,-2.3560462497349897,-9.298582426996688e-05,1.5708897781794853,0.7870086282685977,0.21477728250109232,0.0007573620381472172,-0.00017016479954024856,-0.0005485036743446115,-0.001418633521147315,0.0002904287073417667,0.0018697864294730227,0.9454613924026489,-3.927363872528076,-0.35639211535453796,22.57573127746582,1.0138198137283325,2.466176986694336,-0.0381603017449379,0.29842721459408267,-0.07279785868115701,0.4867221188475026,179.99131528334797,0.05652702360402269,-13.797344305562406
2024-11-08 11:26:02.398989,-0.23159561110729932,-0.7841339460148656,5.166613657450659e-05,-2.356050535191204,-8.038213407230232e-05,1.5708908275355151,0.7870016321198662,0.22207112786830463,-0.0009903258747895522,0.0015445235760567736,-0.0006442647407574118,7.212291818670021e-05,0.0014083117987770627,-0.000996330223006445,-0.3320044279098511,-4.228877544403076,-1.0466997623443604,22.65110969543457,0.9012100100517273,2.439626693725586,-0.005201317369937897,0.2989806569689822,-0.07050780383997697,0.48671155006111977,179.99302954069464,0.0587399459038751,-13.359229049970029
2024-11-08 11:26:02.444761,-0.22428587849116963,-0.7841525569173151,3.349922205980405e-05,-2.3560264603626093,-8.393161056758581e-05,1.5708910730285317,0.7870055168917289,0.2194185663276517,2.6196132689449358e-05,-0.00033011061279392524,0.0026951518974010972,0.0017156412349994383,0.0016784462583970838,0.00024139601636009774,0.3583031892776489,-4.002742290496826,-0.7134477496147156,22.29405403137207,0.9405776858329773,2.439626693725586,-0.0381603017449379,0.2994868498139642,-0.06832703621793206,0.4867286538126747,179.9934869906894,0.05627279984341896,-12.94137097419774
2024-11-08 11:26:02.488743,-0.21685793147685586,-0.7841492856225326,-1.1201290025270676e-06,-2.356045158979963,-9.249803084711034e-05,1.5708881543581374,0.787003524044937,0.21381210152828134,-0.00022713666252180572,-0.0014211865060801462,0.0004070550003289925,-0.0005043505227443428,0.00047931936873588067,-0.0003774876235010468,0.6122094392776489,-4.026546001434326,-0.38019582629203796,22.54796028137207,1.0138198137283325,2.453359603881836,-0.018934227526187897,0.2999808424065147,-0.06611284192966363,0.4867185653104821,179.9927082620509,0.057516270986813854,-12.517070535139151
2024-11-08 11:26:02.537043,-0.20949651745939696,-0.784142489252556,-8.632993796981876e-06,-2.3560395146037636,-8.246897225123136e-05,1.5708895688177829,0.7870094961682644,0.22707376502428528,-0.00032058800401601686,0.0026792503190150663,0.00037348882791319503,0.0015755827620132256,0.00045835520426405253,0.000783692951479523,0.23135006427764893,-4.153499126434326,-0.5349199175834656,22.47258186340332,0.9277603030204773,2.453359603881836,-0.0445689931511879,0.3004613453700831,-0.06390354931426143,0.4867192660737467,179.99227527136105,0.057370915526899796,-12.095939909020036
2024-11-08 11:26:02.537135,-0.20200450667498396,-0.78416505984647,5.487429164482831e-05,-2.356045163215984,-8.461279958385061e-05,1.5708860000194667,0.7870061538707925,0.2110158388691009,-0.0005006580852356601,-0.0010553532996293135,0.00033577222747615783,-0.0004518547419251045,0.0002106878665387143,-0.00034010310185286763,0.4852563142776489,-3.851985454559326,-0.9435502886772156,22.54796028137207,0.9469863772392273,2.473501205444336,-0.0445689931511879,0.30093089325203265,-0.06162988205677037,0.48672321989439915,179.9954992226671,0.05721814059102526,-11.663911319678897
2024-11-08 11:26:02.580757,-0.19455283442817603,-0.7841425276950134,3.842794619297087e-05,-2.3560405140697025,-8.397090468330402e-05,1.5708905241083673,0.7870102796257443,0.2209528790499703,-0.000669523864845609,-0.0005308326615405891,-0.002363209783706901,-0.0002684023073181231,-0.00045643978869900644,0.0019768258283691703,0.07662594318389893,-4.153499126434326,-0.7650224566459656,22.49638557434082,0.9405776858329773,2.433218002319336,-0.0518932119011879,0.3013856875614043,-0.05939185083435759,0.4867188903692282,179.9950880415485,0.05786523874165031,-11.23786531546085
2024-11-08 11:26:02.602652,-0.18728169620047344,-0.7841496703885198,-3.288014402771285e-05,-2.3560462180925255,-9.208489932171407e-05,1.570891933412821,0.7870057935753123,0.21244619948970125,-0.00015726114593218974,-0.0021350517028817994,0.0022811346086980427,0.0003856977423384278,-0.0006327489998407684,-0.0005454664563082023,1.048610806465149,-4.050349712371826,-0.15406057238578796,22.54796028137207,1.0000869035720825,2.446950912475586,-0.0381603017449379,0.3018034086483413,-0.057223117495605255,0.48671851470817673,179.99315823791486,0.057288148317976774,-10.823894569992524
2024-11-08 11:26:02.648748,-0.17968843098783566,-0.7841419933459639,3.3277158485382824e-05,-2.356038069117505,-7.99560042261436e-05,1.5708891981866975,0.787001541042818,0.223154393265655,0.001491666757157315,0.0016334066094253112,-0.0012933147832075937,0.0003937795697657038,0.00027495236312066767,-0.0005548872563640743,-0.3597754240036011,-4.129695415496826,-0.9713212847709656,22.49638557434082,0.9076187014579773,2.453359603881836,-0.005201317369937897,0.3022351503501256,-0.05490637826845762,0.4867197639255987,179.99552306298048,0.05782052433898171,-10.385905808950104
2024-11-08 11:26:02.696731,-0.1723801606208617,-0.7841499132806856,4.6842525817191474e-05,-2.3560356631761254,-8.397106684840456e-05,1.5708885033296116,0.787004718812538,0.21932528169534743,0.0015450628925567354,0.0003794229729800113,0.0022996866510466554,0.002700954846343715,-0.000902944179403297,1.5915007290077748e-05,0.4614526033401489,-4.050349712371826,-0.8919755816459656,22.42100715637207,0.9405776858329773,2.453359603881836,-0.005201317369937897,0.30262792083317436,-0.05269240937504114,0.48672327171019575,179.99680835440415,0.057441699231158716,-9.966804066238668
2024-11-08 11:26:02.744809,-0.164922169799417,-0.7841450553343803,1.2231065954885574e-05,-2.356050804580629,-9.100642068021442e-05,1.5708877339337146,0.7870046783395532,0.2122386160618508,-0.0010084475242758929,-0.0010991523650642513,-0.00016033894469943136,-0.002095479461118081,-0.00019158200934641555,0.0004365656098417849,0.4852563142776489,-4.101924419403076,-0.5111162066459656,22.62333869934082,1.0000869035720825,2.459768295288086,-0.0317516103386879,0.3030090434375203,-0.0504463373096657,0.48671456391668155,179.99605620404148,0.058473882857970956,-9.540893784340527
2024-11-08 11:26:02.744872,-0.15759437896219097,-0.7841555756627266,-9.302541752996969e-06,-2.3560253721039826,-8.090697289503534e-05,1.5708964736680615,0.7870027379336324,0.22459513786525465,-0.0005196358697848499,0.0017905409501034271,0.0018572899478179802,0.0030193498693894946,0.0014455680588277473,-0.001960346657233533,0.3583031892776489,-3.974971294403076,-0.48334524035453796,22.31785774230957,0.9405776858329773,2.420400619506836,-0.012525536119937897,0.3033732413267855,-0.0482299985838906,0.48673056854892616,179.99545378477941,0.055744625244438205,-9.121804799889805
2024-11-08 11:26:02.788781,-0.15007141043963282,-0.7841413158006912,4.6948043796619595e-05,-2.3560567464837154,-8.665988893017521e-05,1.5708908792008387,0.7870040399130651,0.2120456445375672,0.001727767355657502,-0.0010074288522788522,-0.0008795081649611387,-0.001311132132960691,7.426085952490994e-06,-0.0005333925085663933,0.4098778963088989,-4.129695415496826,-0.8919755816459656,22.70268440246582,0.9543105959892273,2.466176986694336,-0.025342918932437897,0.3037270670520066,-0.045929000515558115,0.4867108864017803,179.9980131838549,0.059069146133057686,-8.688562921644376
2024-11-08 11:26:02.806991,-0.14263607610904167,-0.7841461738193044,2.0825526717895253e-05,-2.3560338692909726,-8.50838151920841e-05,1.5708949704843063,0.7870049539356885,0.22368787416334676,-0.0009579331070587643,-0.0018161098706336674,-0.0007908762444146285,0.0002776049142592756,0.0007139544597455004,-0.001596425961790523,0.07662594318389893,-4.101924419403076,-0.5864946246147156,22.39720344543457,0.9469863772392273,2.433218002319336,-0.025342918932437897,0.30406202325326653,-0.0436779752153751,0.48672353752945996,179.99757488502854,0.05711414744354333,-8.263661424173407
2024-11-08 11:26:02.848767,-0.13536717355346586,-0.7841609070716731,-2.6413315195092035e-05,-2.3560454910645405,-9.468529362292486e-05,1.570887009813213,0.7870118729469405,0.21069014603163258,8.871005127104631e-05,-0.0009193457513994051,0.0002810302151317964,-0.002008430407682639,0.0005689066715721857,0.0026001330869888342,1.072414517402649,-3.927363872528076,-0.25324270129203796,22.54796028137207,0.9936782717704773,2.446950912475586,-0.0647105947136879,0.3043637436892842,-0.04148317290449093,0.4867218775306377,179.99660180894855,0.057221755057662825,-7.849495880086043
2024-11-08 11:26:02.892778,-0.12776594577582395,-0.7841309442379438,5.156080537969252e-05,-2.356043901366676,-7.451651378071489e-05,1.5708895688380242,0.78700499357182,0.2263090652319794,0.0008088043105154551,0.004458605565477088,-0.0019229056184862975,0.0008347102368338991,-0.0003724089476433818,0.0002818119679333931,-0.3835791349411011,-4.304255962371826,-1.0982744693756104,22.57573127746582,0.8874770998954773,2.453359603881836,-0.025342918932437897,0.30467935660220474,-0.03913971598360871,0.48671364900528935,179.9988348246536,0.05896781581402474,-7.410421538186295
2024-11-08 11:26:02.936751,-0.12045236448687416,-0.7841502659432613,4.938964473462962e-05,-2.356048173845313,-8.623814356054308e-05,1.5708943698619013,0.7870089300829646,0.21797628093337276,-0.00037194843684882153,-0.0011968370782190203,0.0004502315659943608,0.0014897838837990838,0.001400404570982503,-0.0007810021979494069,0.5090600252151489,-4.002742290496826,-0.8404008746147156,22.54796028137207,0.9607192873954773,2.439626693725586,-0.0317516103386879,0.30495458588975716,-0.0369132415048536,0.48671798908994407,179.99998221216663,0.05791578475290456,-6.991696819276552
2024-11-08 11:26:02.980881,-0.11299217770622559,-0.7841470694474907,9.170831288688346e-06,-2.3560488982793353,-9.157420792164442e-05,1.5708926285652782,0.7870038815608779,0.21211480907140426,-0.0005967066409553,-0.0009606052853033009,-0.002272318756929869,-0.001672974001041683,-0.00017075885535656476,0.00032544404142039867,0.4852563142776489,-4.050349712371826,-0.45954152941703796,22.59953498840332,0.9808608889579773,2.453359603881836,-0.025342918932437897,0.3052199032974576,-0.034651365640846546,0.4867165121960459,179.99906280924043,0.05808762525966273,-6.565601270150862
2024-11-08 11:26:02.980946,-0.10569753281365593,-0.7841516348497672,-2.126221110243903e-05,-2.356030003734819,-8.608339345566915e-05,1.5708949719916656,0.7870053571261638,0.22357114852431548,0.00026571429032877264,0.0007185813370538355,0.002101520355392003,0.0013513675419348204,0.00033118922606247003,-0.0005600097918256681,0.5606347322463989,-4.026546001434326,-0.35639211535453796,22.34562873840332,0.9543105959892273,2.433218002319336,-0.0381603017449379,0.3054658297386545,-0.03243294494139637,0.48672703953550245,179.998103902145,0.05645960827822184,-6.148968047481181
2024-11-08 11:26:03.024821,-0.09814162963983307,-0.7841454870843784,4.811697554059623e-05,-2.3560569714320856,-8.599719594734061e-05,1.570890879171617,0.7870022335559229,0.21381961943890676,-0.0017337801939089112,0.0006540977051775331,-0.0007445398607534611,0.00028775449133511125,0.00027378216551607695,0.0003878201201532421,0.4098778963088989,-4.078120708465576,-0.9197465777397156,22.67491340637207,0.9607192873954773,2.466176986694336,-0.0381603017449379,0.30570102361590273,-0.03010111030539144,0.4867120615256868,-179.99888657892663,0.05886854250494228,-5.713053201406273
2024-11-08 11:26:03.044847,-0.09073465418120859,-0.7841438666572942,3.2384676059493415e-05,-2.3560308625324944,-8.245769576769387e-05,1.570894016146981,0.7870023656228871,0.22321650714247837,0.0014406551987236633,-0.00022100481933279086,7.584819403305438e-05,-0.00026188383854708276,5.2526008869079785e-05,-0.000938326673981588,0.20357906818389893,-4.129695415496826,-0.7412187457084656,22.39720344543457,0.9277603030204773,2.439626693725586,-0.012525536119937897,0.3059194411513738,-0.027840737657418395,0.4867241644747565,-179.99914377841162,0.057206328460709,-5.289310488126068
2024-11-08 11:26:03.088735,-0.08343284972230929,-0.7841530945781616,-1.1662633523418137e-05,-2.3560538243027196,-9.294223941006861e-05,1.5708885075905892,0.7870036186529963,0.21008992264204698,-0.0002595567027316483,7.349169363936748e-05,0.0007711801252960738,0.00019742277681345874,-0.0013655909212963154,-0.000749225563543943,1.048610806465149,-4.002742290496826,-0.35639211535453796,22.62333869934082,1.0074111223220825,2.453359603881836,-0.0317516103386879,0.30610768335240124,-0.02562230042672843,0.4867156754889599,-179.99999724212464,0.058198772379478805,-4.8728056365112264
2024-11-08 11:26:03.132700,-0.07586277861322523,-0.7841403072549475,3.975058569241003e-05,-2.356037960523105,-7.769818880627811e-05,1.57089327081659,0.7870015130808485,0.22596591425768123,-7.238361205515809e-05,0.004658227482866838,-0.0006996601751007868,0.00021976984598255604,-0.00019711630510520963,-0.00045311363010556657,-0.2804297208786011,-4.153499126434326,-0.9713212847709656,22.49638557434082,0.8874770998954773,2.439626693725586,-0.005201317369937897,0.30629937821963243,-0.023284798179615606,0.48671965475416173,-179.99831706725922,0.05784063822905123,-4.436867008674454
2024-11-08 11:26:03.176666,-0.06854468510835394,-0.7841546330737259,3.943856023486973e-05,-2.356046476185654,-9.510762089504548e-05,1.5708934530839938,0.7870072267463953,0.21522845522284606,0.0004893884167475404,-0.00032218532181102575,0.0011117532513530558,-0.0005809079315043353,0.0012592277261167806,0.0009200569508226651,0.6122094392776489,-3.974971294403076,-0.7927934527397156,22.52415657043457,1.0074111223220825,2.446950912475586,-0.0445689931511879,0.3064580678217434,-0.021046199937020314,0.4867200517288903,-179.9968877654,0.05755166704199774,-4.01790987890467
2024-11-08 11:26:03.224678,-0.061270958894167296,-0.784139730046736,1.402391382099948e-06,-2.3560462093670544,-8.366784385062249e-05,1.570890208688754,0.7870070595046764,0.21539250496748985,-0.0004787016723742201,-0.0025355412344225206,-0.001112958575065607,0.0001242983071854026,-0.0001911381422995042,0.0003128676226283072,0.3305321931838989,-4.177302837371826,-0.40796682238578796,22.57573127746582,0.9469863772392273,2.446950912475586,-0.0518932119011879,0.3066040706812636,-0.018826647059749842,0.4867153143705433,-179.9987239377923,0.058415765605028556,-3.602689912078759
2024-11-08 11:26:03.224716,-0.05378556107863386,-0.7841554836580243,-1.8459273527299942e-05,-2.3560287304513055,-8.672636931740418e-05,1.5708923711580913,0.7870043579437267,0.2198225579031356,0.0004794075233293361,-0.000679557296077998,0.002772069157660901,0.0029388350598054604,-0.00022780541185916763,0.000229770998025282,0.6637841463088989,-4.002742290496826,-0.33258840441703796,22.31785774230957,0.9607192873954773,2.446950912475586,-0.025342918932437897,0.30673629915558503,-0.01653821155083163,0.4867285946385051,-179.99880601245096,0.056345763609470696,-3.174458741553685
