Gianni-gaetano/Franka_Autonomous_Capture/IRAS/RobotData/SimData11082024_1.csv
Timestamp,Theta (J1),Theta (J2),Theta (J3),Theta (J4),Theta (J5),Theta (J6),Theta (J7),Theta_dot (J1),Theta_dot (J2),Theta_dot (J3),Theta_dot (J4),Theta_dot (J5),Theta_dot (J6),Theta_dot (J7),Joint Efforts (J1),Joint Efforts (J2),Joint Efforts (J3),Joint Efforts (J4),Joint Efforts (J5),Joint Efforts (J6),Joint Efforts (J7),Cartesian Position (x),Cartesian Position (y),Cartesian Position (z),Orientation (w),Orientation (p),Orientation (r)
2024-11-08 11:21:04.562983,0.00012914750277293052,-0.7843341962199695,-1.0461571219977372e-05,-2.3558965197291224,-5.856427786277152e-06,1.5714961034397286,0.7868773797910791,0.003532123030388923,0.0006429368896450267,-0.00024269764232952968,0.00951801862470882,0.00557917845988565,-0.010236701559356501,-0.0022237227543974595,0.2202138945586054,4.058894954041858,0.41991887702669006,-21.88600092679341,-0.6922533141461212,-2.372620782813484,-0.008237649463241488,0.3072396140320196,3.503598886220609e-05,0.4867575699593423,179.99991261906794,0.003794142730066131,-0.0777772857150562
2024-11-08 11:21:12.808755,-0.0004178832977856928,-0.784339167243921,0.00019082525442826181,-2.3558991129234723,0.00015726090709211604,1.5715116789853436,0.7868172440110932,-0.06635689568198845,0.008074241756857475,0.03437735053367859,0.012190194277596197,0.02963354834845747,-0.0035610080427381473,-0.007298592768953886,1.7507079835581922,3.708667511396595,1.2853019040264697,-22.347464884238352,-0.40128694766093503,-2.1448901932693665,-0.024462313103595142,0.3072418007396911,-3.308689663448026e-05,0.48675923756749395,179.99871178129553,0.0027656347168533457,-0.09751783782898733
2024-11-08 11:21:12.808812,-0.003702648290035526,-0.7843723784552612,0.0009601068522995249,-2.3559101996371092,0.00029267901299689925,1.5715183584569044,0.7867758918601533,-0.11445707702648884,-0.010752142355868098,0.011671172612505012,-0.011454992898381096,-0.0004724282168302356,0.012647430245816084,0.0013303191811774029,0.6937835452593895,4.005081945773764,1.6213220012832115,-21.704982084962293,-0.5202490060794487,-2.3807637009024045,-0.016269354652899658,0.30723580684145874,-0.0007629480610085516,0.4867646627075523,-179.97791471029967,0.0011951044201441077,-0.2521586912471924
2024-11-08 11:21:12.852680,-0.007584686598274715,-0.7843800538134618,0.0010049885602798625,-2.3558964422460082,0.00021136354295947513,1.5715062794534198,0.7867792187454707,-0.11345630920809545,0.0005834816749163846,-0.007715480433595573,0.009894393744077351,0.0021650257622802226,-0.010409498306914412,-0.0014604589632671028,0.3635689443276551,4.023974209007317,0.8644076001265725,-21.8830571588761,-0.6675005705800767,-2.3706586611953897,-0.009698493771644622,0.3072285531753861,-0.001958090239843583,0.4867724479302072,-179.97144012737516,0.0007899866135755541,-0.4729500666353398
2024-11-08 11:21:12.872000,-0.011622670901708432,-0.7843769736539876,0.0006375446399298212,-2.355899482764979,0.00010386318256472293,1.5715170909766645,0.7868032007591177,-0.1149685338517366,0.001727255465290008,-0.019674301570399205,0.004158294142128005,-0.008748584807959868,-0.009657311253037665,-0.0005809473824408828,0.02706348965904171,3.6708770500860286,0.5559842451619289,-22.514955949291117,-0.6779880145266384,-2.2048099335481415,0.005921331829080474,0.30721893625630703,-0.0033411050133065607,0.4867711053601984,-179.98015245063053,0.0005380119902262362,-0.7205809857787816
2024-11-08 11:21:12.912584,-0.015635865556475892,-0.7843608279586389,0.00023640659329604574,-2.3558996192494117,2.619095547817807e-05,1.5715270537403443,0.7868312791002419,-0.11567011993183557,-0.010430446311235317,-0.014257885126432945,-0.017158643434490643,-0.006322609084930872,0.006715220983675245,0.001917814737081927,0.021723758329029785,4.2647747792697475,0.4670478367451123,-21.781612023232835,-0.6423718505239099,-2.3045541196233468,-0.003628653516512147,0.30720536337065174,-0.0047212033101873985,0.4867670052768916,-179.99194411920527,0.0007980157377260808,-0.9683939297780119
2024-11-08 11:21:12.956612,-0.01953870542227243,-0.7843296460571407,-3.5604107361919546e-05,-2.355884604274653,-1.7883150961850447e-05,1.5715189411410133,0.7868526153032356,-0.1085040666807701,0.008437367368538055,-0.0060170409681341575,0.006838387989525838,-0.0005565455592951439,-0.003104196595945288,-0.0004324458579504642,-0.23421116534876188,4.106834645223882,0.3961365760275831,-22.1371268663172,-0.7229712413202888,-2.196304475795076,0.0211343554920411,0.307187702236492,-0.006018188812298231,0.4867638059506836,179.99954340708138,0.0020551057321726643,-1.204262550556698
2024-11-08 11:21:13.000598,-0.023332481515083714,-0.784322132608585,-0.00014585185044246884,-2.3558975549672594,-3.240557293260338e-05,1.571519263698523,0.7868683396648208,-0.11359474073505074,0.0027394423545985852,-0.0031598537914337282,-0.004776203540502301,-0.007701729819318016,0.007704396963558607,0.004255366404408767,-0.2616439846795773,4.291579459906577,0.9631125666615743,-21.629418225119096,-0.5253670357773276,-2.3159998910515567,-0.010734726628501903,0.307161310048398,-0.007222528708307884,0.4867554095963008,179.99587969058015,0.0031222626809691207,-1.4270015947069568
2024-11-08 11:21:13.044659,-0.027039568906856104,-0.7843166934111121,-0.00013991157740012028,-2.35589895403844,-1.9544108929459014e-05,1.5715086912693845,0.786871814219861,-0.11426547723604095,0.008594509413955514,0.016202859633806882,0.01233103737417734,0.011918304147958025,-0.00408445752236713,-0.0022031735075386805,-0.1680228027683838,3.7340913126959436,0.5491562394041702,-22.354446859520856,-0.6268163648533718,-2.151134351437667,0.007648166582380198,0.30713098400000116,-0.008356466924056788,0.4867521481868223,179.995344801871,0.0040906803149679235,-1.6393608071382255
2024-11-08 11:21:13.044695,-0.03070928257807637,-0.7843243140893836,-0.00010005766132614724,-2.35591488957132,-1.8490359029676995e-05,1.5715108731783305,0.7868766433575738,-0.11229052711235785,-0.00994327810813901,0.0007638965152517857,-0.0114590466397271,0.0015285015780815208,0.012403806694330997,0.0014702986271422774,0.12751439676054563,4.05386465503681,0.6086717150060112,-21.71381638551629,-0.5846289015802016,-2.3797694721024367,-0.00959102728183991,0.307095902903593,-0.009470194270500375,0.4867471604389283,179.99687088863092,0.004472568348522589,-1.8482802172585766
2024-11-08 11:21:13.088635,-0.034376485372339616,-0.7843181511376773,-3.9709523275810454e-05,-2.3559037827042992,-8.535151432731425e-06,1.571497867265217,0.7868752885535724,-0.10394132723803648,0.0006165819691220192,0.0005708154822163247,0.00980363715959502,0.00529938232622817,-0.010248505911592142,-0.001931212491399839,0.13971729540224734,4.069040730951938,0.452637845934726,-21.890599562051623,-0.6931517853934913,-2.371738317749829,-0.006992244431706301,0.3070594936478854,-0.010574538906331513,0.48674936676925223,179.99870965622137,0.004987112922421892,-2.055870722202746
2024-11-08 11:21:13.109777,-0.03806422221367178,-0.7843244881521754,1.5023935311830883e-05,-2.3559116023855884,-7.332972091766976e-06,1.5715085505451887,0.7868767168211352,-0.10437196103460837,0.0012842058700766918,-0.006314239971974514,0.004037212646876785,-0.005900900441265915,-0.009582911488196316,-0.0013883978459733048,0.051207659341638616,3.688524649840218,0.5578655931822487,-22.528134620015734,-0.6780818043086545,-2.206534197142244,0.006028005307498314,0.3070193695225342,-0.011688741760400223,0.48674856266463606,-179.99914381872358,0.004537228624880234,-2.265024492082385
2024-11-08 11:21:13.156643,-0.04176523960341427,-0.7843311584339903,2.951240357962348e-05,-2.3559127905237087,5.633247657677032e-06,1.5715190852627492,0.7868777466174803,-0.10782984696663502,-0.011207640031428167,-0.0038968023196032653,-0.017225458107411704,-0.004711154494424056,0.006749891646266338,0.0012361589515814397,0.14429499361915935,4.265630997113961,0.667463881553744,-21.779313899540405,-0.6275288734946894,-2.3051754351072726,-0.005080446101422389,0.30697535548433474,-0.012817541192533668,0.4867509779778505,-179.99927867962515,0.003616934948335731,-2.4765491439933194
2024-11-08 11:21:13.200631,-0.045475107576544715,-0.7843236321095111,3.1307261495250316e-05,-2.3558930245709853,7.4643889469427904e-06,1.5715132963015357,0.7868767143526805,-0.10479812572547992,0.0079408334286122,-0.0002097332230468485,0.007346588956657178,0.0003600671525100592,-0.00301988358066263,-0.000974253352503382,-0.10507088711677752,4.088194722172039,0.6046332610302305,-22.14412773001932,-0.7089466872939708,-2.1963566428128773,0.020015296368507927,0.30692820654695097,-0.013955431186642955,0.4867574867341733,-179.99930755812773,0.003248905430060013,-2.6889770491851945
2024-11-08 11:21:13.248652,-0.04919338915539839,-0.7843332178734723,2.5781881885400537e-05,-2.3558988848112765,6.90858332674793e-06,1.5715169631308896,0.7868782608564899,-0.11281886507608972,0.0022484524550921113,-0.002138470191966224,-0.004787903115286587,-0.007763780136199627,0.007771622978145794,0.004035959823933344,-0.18383163533567484,4.2722007515614635,1.1151142656363469,-21.621948116240297,-0.5114040892856075,-2.3157107011076397,-0.012046125524280943,0.3068726485067352,-0.015098422531249198,0.4867579882514951,-179.9994903646703,0.0028189911388847534,-2.9023315790028725
2024-11-08 11:21:13.248687,-0.052903942600110554,-0.7843354188003646,1.647775834356935e-05,-2.355893686463437,1.2646322050891001e-05,1.5715094487881371,0.7868748506397187,-0.11547110668907945,0.008462107923407366,0.01540131744730669,0.012525319058931622,0.012011375667161331,-0.0040418571866794135,-0.00238350514755023,-0.12720443061567302,3.715655265983255,0.5893982268525632,-22.351935757652733,-0.6233408176872188,-2.150891333823225,0.007088524823009351,0.30681316472405085,-0.016238741662410214,0.4867604572335079,179.9997944968725,0.0027901568708209035,-3.1151128400595387
2024-11-08 11:21:13.292601,-0.05661099401723391,-0.7843428180850838,-1.4550652142730769e-05,-2.355906590348054,-5.9823238984790805e-06,1.57151344353945,0.786877837285421,-0.11341740245386439,-0.009949243527130213,-0.0013901986058377225,-0.011579268981956234,0.0011899898552410885,0.012375057943390933,0.0014293755460357133,0.129430046699213,4.0476501724453895,0.6035005174837356,-21.70215836764541,-0.5845769684297452,-2.3787737352218903,-0.009875908760083539,0.3067481163827838,-0.01738990314947959,0.4867569907984972,179.99959108275212,0.002865076873510248,-3.3289399713794996
2024-11-08 11:21:13.313530,-0.060316750685180054,-0.7843315013686025,-1.2368282113150997e-05,-2.3558958124436664,-6.093288582142975e-06,1.5715008443962137,0.786876785031227,-0.10482736500504568,0.0008950481127920808,-0.001053618061260586,0.009916742662201782,0.005061874835382991,-0.010215363282665773,-0.0019630493639498647,0.1296509731707326,4.068709406118514,0.41428117937801,-21.887794832393375,-0.6966022445807584,-2.3704452668816396,-0.006957262407150088,0.3066820790251282,-0.018525856378554778,0.48675749299865756,179.99962960526838,0.003620630369604872,-3.5411153917834524
2024-11-08 11:21:13.360654,-0.06402957671861209,-0.7843312267543787,-1.6037121986833824e-05,-2.3559065679375895,-9.65516309747727e-06,1.5715107751306912,0.7868789394089637,-0.10475011514236192,0.0015737501262461577,-0.0073148020263637675,0.0039269975966336156,-0.006075840588973785,-0.00952044234883907,-0.0013960848647526225,0.037541272289406374,3.6893282466720123,0.5227268733098559,-22.530220690597016,-0.684960799545179,-2.20704125363698,0.006541142063281934,0.3066118088559028,-0.0196663729855416,0.48675320524536125,179.9996676093629,0.00368564921755457,-3.7541167270648446
2024-11-08 11:21:13.404594,-0.06774196257540055,-0.7843320621931644,1.3544380763619301e-05,-2.3559110836817245,-5.651521135519033e-06,1.5715200530098166,0.7868804270218925,-0.10776376097307316,-0.011086740449505673,-0.004340614928976083,-0.017398220902643702,-0.0050494640222498366,0.006664059636946346,0.0013029317376403449,0.12788645844118182,4.2711361061010145,0.6593759485371993,-21.77440085944699,-0.6272466411876269,-2.304644202754399,-0.00491066147272286,0.3065386388942299,-0.020794116206077646,0.48675214663394684,-179.99935870515077,0.0034299154628383986,-3.9657064294658113
2024-11-08 11:21:13.452648,-0.07145146108505784,-0.7843206858398766,1.3699802773103897e-05,-2.3558939432539425,6.476455005177684e-06,1.5715132546330643,0.7868791576245888,-0.10479229411282331,0.008076978302569066,0.00029312008090501274,0.007506197942221209,0.0004791191955264404,-0.0029750506436066818,-0.000985398020957623,-0.11149147552439288,4.089246570458763,0.6004328768053568,-22.152545212257923,-0.7101112423842444,-2.197285264761537,0.020543094418448152,0.30646208981053835,-0.02192865970894328,0.4867561442854483,179.9999374960797,0.003442227907024191,-4.1781665398565675
2024-11-08 11:21:13.452686,-0.07516421877421031,-0.784328840061411,1.8655344727669387e-05,-2.3559014758701684,6.659288859012236e-06,1.571516181626209,0.7868801592233146,-0.1126823081654024,0.0021547585771443177,-0.0018453914938257598,-0.005008577749221433,-0.007851652635090904,0.007696756686631154,0.004110384146157248,-0.1970472646791482,4.274922213510362,1.1367357225037036,-21.623094912732796,-0.5069792056499506,-2.3161347306809916,-0.012338731568430657,0.30637708710242506,-0.023064555304969342,0.48675535135958636,-179.9998704588161,0.0032535004032901464,-4.390748300526166
2024-11-08 11:21:13.500614,-0.07886890001537594,-0.7843312647063314,1.6413272203585905e-05,-2.3558963130761006,1.2824790378118678e-05,1.5715085220537306,0.7868760340699641,-0.11565090507085865,0.00841124537106647,0.016129660509988653,0.012569616550749518,0.012411211841322564,-0.004059989100440541,-0.0024591076927762134,-0.1188608786301922,3.7144135134145957,0.5876153102180623,-22.357768263936766,-0.623011393316267,-2.1517421912458614,0.006971148372940963,0.3062882641546184,-0.02419875571121395,0.4867578594790727,179.99967454207604,0.003223101247948457,-4.602865749710652
2024-11-08 11:21:13.520813,-0.08257117739498021,-0.7843399993555158,-1.3432869622853616e-05,-2.3559086739393615,-5.9344608072109395e-06,1.5715126366611,0.78687848008415,-0.11319651230855693,-0.010095897105825508,-0.0015676465744877133,-0.011697590587098468,0.001219385274772002,0.012307858089444667,0.0013992580848488645,0.13487852053167554,4.05107286149873,0.6054863082985731,-21.697509986101206,-0.5836784174413268,-2.378418448507764,-0.010141603493832472,0.3061933916867581,-0.025346013027776462,0.48675507021468234,179.9995322233817,0.0031830008081748565,-4.816340415321904
2024-11-08 11:21:13.564593,-0.08627600867140295,-0.7843301587584008,-1.0550742931769719e-05,-2.3558967645444877,-5.7004762146206645e-06,1.571500407087779,0.7868771062229492,-0.10474685122978825,0.0009481227111098547,-0.0010897382791196647,0.01011418223019915,0.005128505524929559,-0.010164134142656716,-0.0020160922826557154,0.13565922857889073,4.071140019000872,0.40992484906097015,-21.88769780950901,-0.6974805123833857,-2.3694259951214103,-0.007091953415852991,0.30609793801296786,-0.02647928622359441,0.48675659258409115,179.99957312875387,0.0037701467270017525,-5.028416022836999
2024-11-08 11:21:13.612606,-0.0899893115152075,-0.7843312791381969,-1.5796567849335474e-05,-2.355906762046673,-8.965266981242337e-06,1.5715106231268274,0.7868791458419437,-0.10462386906717988,0.001641200251135619,-0.007513906272615473,0.003948607870522472,-0.006191715875884056,-0.009411590070405255,-0.0014228867752278385,0.0424394295844627,3.687370845297175,0.5148717381396395,-22.53221827140138,-0.6881454906290216,-2.2074944265917416,0.006868225400163743,0.30599797955487734,-0.027618185484117846,0.4867531163377886,179.99954086953244,0.0036898631400896185,-5.241502073467539
2024-11-08 11:21:13.656626,-0.09370264703006725,-0.7843330093613154,1.564578121104887e-05,-2.35591066815405,-5.5814800798970055e-06,1.571520049162829,0.7868805930905882,-0.10763610804352707,-0.011132186667784205,-0.004671969762466199,-0.017471694913093354,-0.00537269346670138,0.006618907525074592,0.001367206342051508,0.12361108874850353,4.2720257797919015,0.6693738619690053,-21.767084524282595,-0.6258562535368588,-2.3038087743156295,-0.004981668918467229,0.30589555162055904,-0.02874346282505031,0.48675263345148945,-179.9993599873752,0.0033754725594743744,-5.453068375939372
2024-11-08 11:21:13.700703,-0.09741295817262241,-0.7843218819136979,1.5859003339002697e-05,-2.355893196985498,7.0068199367057105e-06,1.571513429943268,0.7868792320050222,-0.10494927714140981,0.008139927007309339,0.0005621886703468804,0.007728277601038327,0.0006050669920464341,-0.0028938569590387037,-0.0010005737370209211,-0.11252651057410334,4.084933758249065,0.5978962114153472,-22.157857811211297,-0.7116700223338086,-2.1980100573592445,0.020982415828779435,0.30578960932287375,-0.029875774316595032,0.4867568794662112,179.99991669328236,0.0033242319619566016,-5.665567467529076
2024-11-08 11:21:13.700741,-0.10112597824210035,-0.7843299800152126,1.9742341526907126e-05,-2.3559009832733615,6.961515423675735e-06,1.571516312451143,0.78688023169817,-0.11274869683890992,0.0020505286873374437,-0.0019280705004934146,-0.005205212026977736,-0.007988432842632221,0.007618551262893823,0.004197089203120424,-0.20793842089187126,4.274085958508973,1.1512928612001385,-21.621803312024635,-0.5028331559646398,-2.3161951755731547,-0.012689993969589195,0.30567507069726285,-0.031009553142776605,0.48675594563965685,-179.99991821869395,0.003157942068871318,-5.878207628890766
2024-11-08 11:21:13.748609,-0.10483106776914575,-0.784331974300069,1.671723725138463e-05,-2.355895820414905,1.3160869507089501e-05,1.5715086754103984,0.7868760249198239,-0.11602236148678284,0.00841057678067317,0.016636962760666868,0.012594865122978425,0.012790042844533592,-0.004072702038668739,-0.002516933127778398,-0.11434566982447131,3.7113177560484254,0.5782930651768277,-22.361781175162108,-0.6230941779793129,-2.1525589421469298,0.006907945026138403,0.3055568681587326,-0.032141444477020345,0.48675832354995674,179.99959219413296,0.0031355945858078343,-6.09037555294171
2024-11-08 11:21:13.757304,-0.10853309171552716,-0.7843403381753147,-1.4079040583148128e-05,-2.3559084525531757,-6.059098347499514e-06,1.5715127240128188,0.7868785392110684,-0.11302813915876779,-0.010188634287188587,-0.0018504376386959398,-0.011840416131403343,0.001214990584249795,0.012221264611654653,0.0013849335968927484,0.13744976225820343,4.054147990676907,0.603693713327926,-21.692774555331855,-0.5829868778108456,-2.377948749328501,-0.010374434845162327,0.30543221902603124,-0.03328618021276536,0.486755286502862,179.99943487280703,0.0031308417802265306,-6.3038781249734015
2024-11-08 11:21:13.800641,-0.11223786342056563,-0.7843301108586571,-1.113132035701625e-05,-2.3558966166539044,-5.840265403733724e-06,1.5715005033106122,0.786877153264963,-0.104660818113339,0.0010528079632432152,-0.0011346705063416812,0.01026527594242244,0.005202614854029931,-0.010118879865649789,-0.0020631042080364176,0.14023068845917722,4.074446813461107,0.4046197436495128,-21.887577717405502,-0.6985839025074444,-2.3683931932311633,-0.007211540153940397,0.3053074336800829,-0.034416563046080643,0.4867566561432669,179.9994612715715,0.003744888875284013,-6.515946967307958
2024-11-08 11:21:13.848633,-0.11595109834160944,-0.7843311640140955,-1.674243846139234e-05,-2.355906893558301,-9.207969119628956e-06,1.571510620229268,0.7868792221634173,-0.10446821945890107,0.0017494524216805528,-0.007673942189438718,0.003957379290503989,-0.006293740058194725,-0.009307099653528536,-0.0014481098183093816,0.04656965869998943,3.6864156514490256,0.5071355330421071,-22.53502444359914,-0.691419414263303,-2.208112082020793,0.00722010829320698,0.3051778835625944,-0.03555259749863912,0.48675301862683185,179.99941937209752,0.003688082238722311,-6.729045614430171
2024-11-08 11:21:13.892646,-0.11966452305673236,-0.7843329484448578,1.6529656105213064e-05,-2.355910852405252,-5.702753015590645e-06,1.5715199158266389,0.7868806819705663,-0.10749766761628278,-0.011167779941880914,-0.004948734208539363,-0.0175604100299741,-0.005698936169705512,0.006558538562637659,0.0014371384449378133,0.119221321296731,4.274055301036498,0.6796341341014916,-21.760799177448078,-0.6242959566704296,-2.3029660022795184,-0.005074025996827784,0.30504630666303684,-0.036674240949143476,0.4867525160250867,-179.99940799912486,0.0034175801432031615,-6.940543542385765
2024-11-08 11:21:13.936733,-0.12337495882138505,-0.7843217972022405,1.659546159160641e-05,-2.355893269617476,7.2337380085940595e-06,1.5715133649461803,0.7868792396824844,-0.10511670750064112,0.00820768129507217,0.000925453569161433,0.007939989668196564,0.0007685451894955018,-0.002812697062988395,-0.0010142071620017207,-0.11438861768640055,4.081433179850338,0.5969355452234041,-22.163608239260686,-0.7130821650267385,-2.1989039406141186,0.02144067306160798,0.3049110379121739,-0.03780343767147045,0.4867568134302581,179.99984553717655,0.0033356596082241585,-7.153051115846153
2024-11-08 11:21:13.936848,-0.12708793066886948,-0.78433005898024,2.071852943785757e-05,-2.355901218108446,7.081061759173224e-06,1.571516150572327,0.7868802677932933,-0.11275760793821042,0.0019239182549537948,-0.0020327350491549934,-0.005383181069957523,-0.008198191571358222,0.0075293514289141265,0.004292756053319441,-0.21908325029268977,4.273687702327729,1.1677902081209086,-21.620993262873235,-0.4991967245081768,-2.316285443683886,-0.012934073853110009,0.30476705020098266,-0.03893378295704008,0.48675584479753004,-179.99997013402088,0.0031811990433605547,-7.365680415055094
2024-11-08 11:21:13.980604,-0.1307930151917276,-0.7843320095184305,1.7347674282852665e-05,-2.3558958220569846,1.3436777730468918e-05,1.5715086209253455,0.7868759608855971,-0.11639070743772008,0.008397388593828464,0.017174172508201496,0.012622124437764944,0.013148307403068101,-0.004079595246285382,-0.0025654232652770476,-0.11127975680005071,3.708085396084365,0.5722127317081364,-22.365604881107405,-0.6230269072780684,-2.1534539143626943,0.006854213607735732,0.3046195544860354,-0.04006230968350215,0.4867583287976971,179.99952040288275,0.0031264056988386385,-7.577856344739098
2024-11-08 11:21:13.996666,-0.13449446335915738,-0.7843404271387664,-1.5033675446751715e-05,-2.3559084398703583,-6.179461463418079e-06,1.5715127013838455,0.7868785227370818,-0.1128607746051525,-0.010294269942961419,-0.0021504059002394743,-0.01196784363796295,0.0012007829862383493,0.012126904921204076,0.001373927640433606,0.1401019523154382,4.057109863351836,0.601603691866649,-21.688318994833676,-0.5821538950807752,-2.3774145071113018,-0.01061537716107705,0.3044651756176893,-0.04120384348558365,0.48675531782773696,179.99932294393508,0.003106374206778608,-7.791392920529641
2024-11-08 11:21:14.040626,-0.13819946685163131,-0.7843301275547203,-1.200092059594482e-05,-2.3558964428773876,-5.973919703805564e-06,1.5715005978441159,0.7868771575249731,-0.10448283677941728,0.001151135939844114,-0.0012757749727894813,0.01040949299172218,0.0052860312403199446,-0.010053416304292826,-0.002108023298498962,0.14495810212048804,4.077660551746004,0.42124624023779267,-21.886850282615555,-0.6995675580702975,-2.3672714700343276,-0.0073438823839004855,0.3043111376034745,-0.04233065955456106,0.4867567516186083,179.99933921493468,0.003709674634922348,-8.003472783234113
2024-11-08 11:21:14.088640,-0.14191284985267671,-0.7843312901468078,-1.7944581008677574e-05,-2.355906854991166,-9.438046337351125e-06,1.5715106538099528,0.7868792663196382,-0.10431395133578218,0.001862077241450699,-0.007825631524413984,0.003982807049494186,-0.006389254465736361,-0.009194683904824244,-0.0014746513136157102,0.0504185248685437,3.6850795094517097,0.4996231700707878,-22.537725807522182,-0.6948217092990131,-2.2087813745357883,0.007589225908557533,0.3041520688551499,-0.04346311403097664,0.48675307853374095,179.99929032028908,0.003655503431849307,-8.216595683109258
2024-11-08 11:21:14.132719,-0.14562638028377428,-0.7843331799250697,1.7671881964886893e-05,-2.355910847473665,-5.825102804557503e-06,1.571519833536275,0.7868807471246679,-0.10737102987887744,-0.01121013662316731,-0.005222355620159491,-0.017651142344067165,-0.006039447796208732,0.006490276605114833,0.0015116477544006163,0.11472820422823073,4.275899239586788,0.6903145551717965,-21.75466322291866,-0.6225870868711179,-2.3020520146118564,-0.005183388960582776,0.30399148322205877,-0.04458021048180445,0.48675258223010603,-179.99944295741955,0.003430783994779133,-8.428005794404104
2024-11-08 11:21:14.132808,-0.14933694977466594,-0.7843219721172652,1.753951118921293e-05,-2.3558931852202827,7.460914402734886e-06,1.5715133501837872,0.7868792333096595,-0.10525513720963063,0.008273810574189544,0.0012578507794610283,0.008140387905969293,0.000938120779221703,-0.0027181016794844953,-0.0010378815454837875,-0.11529275237901453,4.077502634779418,0.5947718095619914,-22.1689545509361,-0.7149814941210716,-2.199904728516954,0.021923793122397936,0.30382697653975427,-0.045705551989855125,0.4867569057080777,179.99978599508384,0.0033204182117662307,-8.640524984002287
2024-11-08 11:21:14.176610,-0.15304976746381094,-0.7843302840091839,2.1816687191034134e-05,-2.355901346263142,7.215415839922912e-06,1.5715160341559633,0.7868802843609313,-0.11278478347161972,0.001796672285670787,-0.0021319712926119727,-0.00555693497378705,-0.008397125695178712,0.007429101889820133,0.004390039831858941,-0.22998952930957128,4.273573306532549,1.184057439413763,-21.620302737743483,-0.49515171299585253,-2.316266507514217,-0.013255678214144142,0.3036536521673134,-0.04683169293096443,0.48675584319051424,179.99998342341948,0.003187611036218327,-8.853140510981033
2024-11-08 11:21:14.198813,-0.15675477483871703,-0.7843320926829076,1.8095465999401483e-05,-2.3558957899417567,1.3724960295391497e-05,1.5715086025666372,0.7868758782518723,-0.11674907860970246,0.008396891885361827,0.017696329958828375,0.012643396613747776,0.013549980844986863,-0.004077409966846095,-0.002629883522652393,-0.10591216215607335,3.7048774290668818,0.5623670777307153,-22.369286277003514,-0.6233061694537698,-2.1544827992953453,0.006811809299630452,0.3034769654142631,-0.047956077780992375,0.4867583678895673,179.99945385879144,0.003109564684615789,-9.06532055294911
2024-11-08 11:21:14.240589,-0.16045603948777298,-0.7843404985892661,-1.619785214845848e-05,-2.3559084248293125,-6.310917009422212e-06,1.5715126749196395,0.7868785137344334,-0.11269631252418309,-0.010402284025318568,-0.0024372120880244014,-0.01208920283071312,0.0011674063994887942,0.012024221661482041,0.001367411768874477,0.14213302126763894,4.060033256870733,0.6002733715473001,-21.684348761890078,-0.5813185280632487,-2.3768333805546575,-0.010849844784998992,0.30329290002247017,-0.04909386613777401,0.48675534454644476,179.9992040062194,0.0030780319839448056,-9.278928358096854
2024-11-08 11:21:14.288651,-0.1642738107260655,-0.7843405140501654,-1.6430390515687066e-05,-2.355908426205973,-6.324249161693274e-06,1.571512669961609,0.7868785041024458,-0.11267386395380184,-0.010418282517568479,-0.002485782351734217,-0.012106292807006043,0.0011617345692483071,0.012008241324919091,0.001366666305153308,0.142428082812219,4.060458329560153,0.5998848202777891,-21.68380897954694,-0.5811825746671075,-2.376744842304994,-0.010884938608343001,0.30310324461737437,-0.05025148544025829,0.4867553482094499,179.9991838149737,0.003073040518753684,-9.497679416072913
2024-11-08 11:21:14.332592,-0.1679789942721932,-0.7843300885030775,-1.3364139456406576e-05,-2.3558962929594047,-6.1194409584075515e-06,1.5715006896990884,0.7868771482569592,-0.10439399680718003,0.0012645198283764971,-0.0013194411284233598,0.010554442871122605,0.005393681752458226,-0.009985233575755665,-0.002162746144094063,0.15053891329743432,4.081702781869802,0.4169277302801324,-21.88547787095208,-0.7006222018038926,-2.3659071802423046,-0.007506103955059173,0.30291577668818404,-0.05137326949683361,0.4867568184657312,179.99918481656107,0.0036690726152560694,-9.709768774862336
2024-11-08 11:21:14.376707,-0.17169242896217085,-0.784331367449635,-1.9619712224638874e-05,-2.355906848045003,-9.690165876818924e-06,1.5715106769405915,0.7868793084772374,-0.10413039436787525,0.0019996435374217006,-0.008003958487773716,0.004031350900942014,-0.006487534824857495,-0.009057482748382254,-0.0015077028841449097,0.054712854262199136,3.683391133627084,0.4909122062687201,-22.540909746392586,-0.6988268371562214,-2.209637547988309,0.008027093085403095,0.3027229838656801,-0.05250061473268593,0.4867531075886974,179.99913027406203,0.003617574414636349,-9.922910228064657
2024-11-08 11:21:14.376748,-0.17540617094458,-0.7843333806987776,1.9301516753778003e-05,-2.355910884298452,-5.971079475308727e-06,1.5715197266702674,0.7868808287367646,-0.10723814831339183,-0.011262647990719958,-0.0055223514978874205,-0.017758385860088953,-0.006439306773739069,0.006399672790076987,0.0016042629259744173,0.10934744866986772,4.2781495032436245,0.7034815586279821,-21.748086523100277,-0.6202846653463301,-2.3009217163973434,-0.005321452459978211,0.3025293349661381,-0.05361140585747682,0.4867526171253434,-179.9994716059112,0.003455596816006342,-10.134200692936316
2024-11-08 11:21:14.420703,-0.1791169504023955,-0.7843221573383579,1.8878667044752717e-05,-2.355893116618269,7.703802618941324e-06,1.5715133110981556,0.7868792272286287,-0.10539099668781425,0.00834303711427249,0.0016171040428498845,0.008357141279495557,0.0011358581108210173,-0.0025940680358420743,-0.0010750889896415233,-0.11554180106384342,4.072655837209545,0.5912869275618533,-22.174563665858226,-0.7177581044775695,-2.2011942433726253,0.022516354192427705,0.302331411498015,-0.05473143183776409,0.4867569915536703,179.99972905319353,0.0033076438924793546,-10.346738685783171
2024-11-08 11:21:14.439091,-0.18282941698478083,-0.7843305190532961,2.3336695775810767e-05,-2.3559014908286855,7.367233494370851e-06,1.5715159039842383,0.7868802968299207,-0.11283686692924749,0.0016476953495222029,-0.0022332600419396054,-0.005748096198161796,-0.008606485303467871,0.007303009386199525,0.004502377967000107,-0.24207534124880084,4.273818236898608,1.2025105146773813,-21.61959950901465,-0.49001085137238737,-2.3161077924057683,-0.013724225252486854,0.302124607849876,-0.055851757771106195,0.4867558357004325,179.9999400464121,0.003197543677156802,-10.559327820219282
2024-11-08 11:21:14.480680,-0.18653458028276582,-0.7843321874786122,1.922174510848862e-05,-2.3558957437858536,1.4038184340314785e-05,1.5715085811820604,0.7868757871922938,-0.11717075112766881,0.008402726266135207,0.018317821469632248,0.012664536274561874,0.014012567210177844,-0.004066030939117006,-0.0027055919588374194,-0.09999120874300643,3.7010556555220466,0.55117379752354,-22.373220233404894,-0.6238566949516796,-2.1557497880892926,0.00678924256372115,0.30191456388928384,-0.05697053591335796,0.48675841691410765,179.9993899411533,0.003090318342329575,-10.771526839456216
2024-11-08 11:21:14.524635,-0.19023537963509085,-0.7843406003187932,-1.7851580441430315e-05,-2.355908402119728,-6.46062714171336e-06,1.571512644554761,0.786878499020264,-0.1124969430447191,-0.010526579049384158,-0.002786073521393387,-0.012220078677120567,0.0011191827672868701,0.0118961254179971,0.0013625644825222688,0.14440912800919997,4.063373814342802,0.5984824665340962,-21.68044723358228,-0.5802233051550897,-2.376113143960037,-0.011124277666494532,0.3016965349379055,-0.058103183710334266,0.48675538384200034,179.9990564283257,0.003036639245343495,-10.985225087905615
2024-11-08 11:21:14.568710,-0.1939405964898988,-0.7843300745392163,-1.4851833999962594e-05,-2.355896169716985,-6.2239227913707396e-06,1.571500759193377,0.7868771230238707,-0.10444478466892328,0.0013589667612388845,-0.0012347252660301067,0.010659507757085868,0.005491611731011382,-0.00993688297408831,-0.002212718157124677,0.15548741724306617,4.085495924247265,0.3871172831595768,-21.88373075557287,-0.701491715814385,-2.36465273010814,-0.007653988160406904,0.3014800507308668,-0.05921975693766885,0.4867568784602545,179.9990386118231,0.00362617324849746,-11.197317900737188
2024-11-08 11:21:14.612717,-0.19765420268506873,-0.7843314410639408,-2.130046137605035e-05,-2.3559068185384033,-9.936115813680146e-06,1.5715107011271172,0.7868793516235577,-0.10396131436302841,0.0021276382516004244,-0.0081559371752946,0.004091342560407583,-0.006563790213959454,-0.008931258065329687,-0.0015385378960094537,0.05830122682824468,3.6818008522852503,0.48360401326849267,-22.543699289452036,-0.7023967188280534,-2.2104511625378183,0.008420836956117833,0.3012579937131913,-0.0603418530707982,0.48675314625216853,179.99898520746473,0.0035760349550747355,-11.410480921529615
2024-11-08 11:21:14.612802,-0.2013679813050171,-0.7843336102318705,2.0927158707273463e-05,-2.355910924491252,-6.106347632872655e-06,1.571519617465202,0.7868808917169563,-0.10709980516252039,-0.011309030378630583,-0.0058333861800764775,-0.01784866594400868,-0.006788271359554028,0.006326199285289358,0.0016755594252431671,0.10625605259715822,4.279715003482021,0.7129842584751775,-21.742778237128416,-0.6183594770264289,-2.29973575812333,-0.005519741244496988,0.30103573133419287,-0.061446162153098775,0.48675265906042753,-179.99948850920038,0.0034783586579446623,-11.621640528568681
2024-11-08 11:21:14.656646,-0.20507894068433963,-0.7843223126790777,2.0179064192049623e-05,-2.3558930601266406,7.931383358084076e-06,1.571513287503154,0.7868792165200551,-0.10552084550823507,0.008403458774809447,0.0019503846648470519,0.008530745408002614,0.0013353987857087715,-0.002481543712846816,-0.0011082544986727033,-0.11620798824143841,4.068401638469446,0.5886287504133499,-22.17917364516078,-0.7200322491929354,-2.2024083989497214,0.023034543515285222,0.3008088254250803,-0.06256076471060458,0.48675706386465667,179.9996842393366,0.0032969989611369545,-11.834197814391679
2024-11-08 11:21:14.678547,-0.2087914312431547,-0.7843307457647741,2.497840845272492e-05,-2.3559016047911507,7.458071076271722e-06,1.5715157498910592,0.7868803346399522,-0.11282810350293448,0.0015056195271746376,-0.002378990577040649,-0.005892678285035432,-0.008877112419655582,0.007181152372891094,0.004609320183684554,-0.25340420764010096,4.273902951683595,1.220044512415308,-21.619155244580856,-0.4862444706638268,-2.3160488105500145,-0.013986760437805371,0.30057296717864884,-0.06367525892281364,0.48675583799032557,179.9999164813602,0.003209920538698941,-12.046777254109337
2024-11-08 11:21:14.724595,-0.21249628124767383,-0.7843322676599813,2.037624120010406e-05,-2.3558957181353497,1.4343551221429607e-05,1.5715085652720315,0.7868756992926409,-0.11752967919859508,0.0084134881679736,0.01884409472801228,0.012679151106053237,0.014427003930661144,-0.004054048436889084,-0.002774937274425654,-0.09424238862310123,3.6977923078538373,0.5405182756219861,-22.376457053170224,-0.6243616477722642,-2.1569411628649817,0.00677504509306039,0.30033401785242164,-0.06478823938249842,0.4867584522500209,179.99933958488342,0.0030745691753682014,-12.258970889562386
2024-11-08 11:21:14.772601,-0.21619678756700011,-0.7843406911673441,-1.9575736025068124e-05,-2.3559083860881547,-6.584947298549082e-06,1.5715126134366972,0.7868784802706656,-0.1123222328399248,-0.010634824807862882,-0.003099577403421469,-0.012326624899658165,0.0010642739343199035,0.011777415900128863,0.0013614629255663813,0.1459573842781921,4.066208826023485,0.5970187213909324,-21.677673041672907,-0.5792146546449548,-2.375440523642632,-0.011361140229357036,0.300086454445514,-0.0659157619119576,0.4867554165747902,179.99891764989383,0.0029934405503200283,-12.472773041056938
2024-11-08 11:21:14.816681,-0.21990238100790904,-0.7843300515564513,-1.6506791000736598e-05,-2.3558960392754944,-6.361732591386726e-06,1.5715008509533188,0.7868771228998641,-0.1043904153563563,0.0014528028359538988,-0.001239182953622825,0.010746201839494714,0.005598519939485305,-0.00987042698496798,-0.002260407436185316,0.16070748432328388,4.08947548551151,0.38152115698925954,-21.881479618452516,-0.7022544070703921,-2.36333291288127,-0.007812818852201064,0.2998410922074578,-0.06702644506283227,0.48675694103981426,179.9988896312504,0.0035759662955709387,-12.684885692338685
2024-11-08 11:21:14.816779,-0.22361588212513972,-0.784331515398704,-2.3142031805534202e-05,-2.355906780409457,-1.0159354912886442e-05,1.5715107246565472,0.7868793883723546,-0.1037876729166994,0.0022627014893808334,-0.008310354493388766,0.004168017097579,-0.00663190493851677,-0.008798980313976733,-0.0015710798311219104,0.06174047617752649,3.6801536094312626,0.47640654719159375,-22.546442914872774,-0.706030401332304,-2.2113191538203365,0.008824060350248396,0.2995899291307396,-0.06814243463945953,0.4867531891475343,179.99883424094028,0.0035271968507049477,-12.898052369702606
2024-11-08 11:21:14.860606,-0.2273298211564203,-0.7843338152955788,2.271610057569262e-05,-2.355910962202019,-6.2325252336847825e-06,1.571519504427621,0.7868809529386,-0.1069989976896229,-0.011361070230328806,-0.006101973809611222,-0.017938762568256154,-0.007156597091376064,0.006238644756814135,0.0017581642193276736,0.10188297321615677,4.281350425456739,0.7241980502104737,-21.737902226939717,-0.6162419211236771,-2.298585879797449,-0.005689766629551813,0.29933927607625066,-0.06923946290843416,0.4867526943106065,-179.99950068892898,0.0035053783304501637,-13.109075330582058
2024-11-08 11:21:14.882421,-0.23104093700939465,-0.7843224738713142,2.1631077276040855e-05,-2.3558930072824253,8.15565062239898e-06,1.5715132640459997,0.7868792049988853,-0.10564760715699556,0.008458990465810936,0.0022836504515244133,0.008688858079675591,0.0015470285299720363,-0.0023624007874618724,-0.0011448775030610675,-0.11676332199173603,4.064073913278061,0.5857996543879228,-22.18337216280558,-0.7224254325390908,-2.2037051811200117,0.023562921639923875,0.29908353173904095,-0.07034789037870316,0.4867571362624555,179.99964595674436,0.003287576320485049,-13.321651093328311
2024-11-08 11:21:14.924608,-0.23475327119594525,-0.7843309626355683,2.6634191594432366e-05,-2.3559017096988937,7.564025168882438e-06,1.571515605875505,0.7868803580455745,-0.11284544307403509,0.0013658081216214157,-0.0025094733896623422,-0.006028334975470572,-0.009120945734879447,0.007052498904052917,0.004715053418560669,-0.26432396680535974,4.274240693941449,1.2368981012625413,-21.618767180392336,-0.48205117267288317,-2.315901296832148,-0.01434137587735934,0.29881879180279336,-0.07145578697479844,0.48675584241693076,179.99989202918945,0.003222632134603643,-13.534215305762235
2024-11-08 11:21:14.968600,-0.2384582951132863,-0.784332339681959,2.18705903085592e-05,-2.355895678930339,1.4570984291140121e-05,1.5715085507065147,0.7868756306870912,-0.1178922543551165,0.008426260513393888,0.019394716288519714,0.012691003437264061,0.014837221835900973,-0.004037641302650417,-0.0028448537502360344,-0.08869776807422834,3.6944744159510945,0.530424957988836,-22.379463485060736,-0.6250445288436624,-2.1581695636140297,0.006781633980083761,0.2985510803603137,-0.072562284015434,0.4867584915929321,179.99930741004283,0.0030622158316461626,-13.746420186061856
2024-11-08 11:21:15.012624,-0.24215824952165121,-0.7843407801512834,-2.130491302665405e-05,-2.3559083691539078,-6.715189917017028e-06,1.5715125831855303,0.7868784720777882,-0.112134457804125,-0.010741710125566597,-0.0034135414282964183,-0.012426643329769822,0.001003316206806061,0.01165355486619286,0.0013621181939894728,0.14733943550816994,4.068948789296693,0.5959838168307552,-21.675542513758828,-0.5781258434827534,-2.3747376917782783,-0.011598783454781521,0.298274094897609,-0.07368392729782366,0.48675544923629444,179.99878064957667,0.002945133172223413,-13.96032489752486
2024-11-08 11:21:15.056636,-0.24586374678802514,-0.7843300454117381,-1.8335814157666164e-05,-2.3558959367864745,-6.443169892733636e-06,1.5715009445511532,0.7868770917697097,-0.10435010885640124,0.0015464133533422673,-0.0012573333841472967,0.010811789343023539,0.005713696546505238,-0.00980093159392146,-0.0023082750673180663,0.16632007740498606,4.093749434013997,0.3750034206077189,-21.878739151006055,-0.7028630609620548,-2.3619471066876114,-0.007986894402476016,0.29800003337833214,-0.07478787187136866,0.4867569957579634,179.99873255270685,0.0035184997954146756,-14.172434777378875
2024-11-08 11:21:15.056685,-0.24957750039014748,-0.7843315932061135,-2.51041577232769e-05,-2.3559067287180415,-1.0346096790847525e-05,1.5715107472286292,0.786879412545268,-0.10361817790343175,0.00240435008634535,-0.008470975054490806,0.004260850408656897,-0.0066953673587850995,-0.00866058071766284,-0.0016044104881103305,0.0647485342269495,3.6785195311804535,0.4690567930851085,-22.549056359238243,-0.7097491344249796,-2.212228541591762,0.00923947635272139,0.29771991468161374,-0.07589709534113163,0.48675323942606397,179.99867863875224,0.0034703310731385283,-14.385624483011297
2024-11-08 11:21:15.104616,-0.25329189740519276,-0.7843340255885547,2.4628173902918604e-05,-2.355910991013695,-6.383540685384048e-06,1.5715193929874234,0.7868810361532059,-0.10688726266066483,-0.01141132827400449,-0.0063720749118989645,-0.018025001146281687,-0.007523585875134118,0.006149137696602043,0.0018403734526434151,0.09793558527642782,4.282733023078435,0.7353701394259168,-21.733565854546104,-0.6139919925357439,-2.297350499559447,-0.005884632110107779,0.2974410924234223,-0.0769861378433,0.486752735507689,-179.9995075522254,0.0035348330084688006,-14.596519942320747
2024-11-08 11:21:15.121341,-0.25700294549138647,-0.7843226376489687,2.317772234050608e-05,-2.3558929609088883,8.368247732093437e-06,1.5715132400051495,0.7868791956454855,-0.10577165793182008,0.008507880828342362,0.0026197002787155393,0.008829619782162559,0.0017697501493296873,-0.002238039662860762,-0.001184478291896579,-0.11716366368477546,4.059734873183331,0.5828639143375842,-22.187106947448218,-0.7249032735221682,-2.205070734613759,0.02409719787574668,0.2971566910731119,-0.07808758328311614,0.4867572063475815,179.99961220455862,0.003279779386571875,-14.809101354437132
2024-11-08 11:21:15.168622,-0.26071508750348826,-0.784331177208772,2.8407535434205045e-05,-2.355901805993815,7.661982677653612e-06,1.5715154547373897,0.7868803829339095,-0.1128587635301457,0.0012258577435959395,-0.002646463463473525,-0.006148329797241514,-0.009372959265429116,0.006917340568716375,0.004821916426603026,-0.2751733694786257,4.2746072494540215,1.2537987611417227,-21.618495450610226,-0.4778582510561944,-2.3157511854761075,-0.014703338499691137,0.29686325935309626,-0.07918811575809362,0.48675584957503865,179.99987184927966,0.0032376160612750736,-15.021647319335576
2024-11-08 11:21:15.212629,-0.2644200947307507,-0.7843324152245943,2.3228021873933358e-05,-2.3558956557094417,1.4852979378865427e-05,1.5715085345241446,0.7868755472481368,-0.11825394356309292,0.00844015041394386,0.019928147286096667,0.012698982262735702,0.015248845397815403,-0.004022435932858215,-0.002916524049073471,-0.0828005597102758,3.691289681267395,0.5195753860779917,-22.382261696585356,-0.625777391801086,-2.1594424069340663,0.006795187565712308,0.29656695574381775,-0.08028739633354524,0.4867585243303604,179.99926682289546,0.003048773918447571,-15.233861912559508
2024-11-08 11:21:15.256636,-0.2681197002897555,-0.7843408695774299,-2.3269489694222045e-05,-2.3559083526972326,-6.8407078641641306e-06,1.5715125523862223,0.7868784608597297,-0.11194356850214104,-0.010845431078389242,-0.0037367585788858626,-0.012519103261677468,0.0009320202577393238,0.011526350642114038,0.0013652553519193228,0.14821005702123793,4.071576265098055,0.5951432287322309,-21.67407036298831,-0.5770174707684701,-2.3740067311373925,-0.011830669186551795,0.2962606616669797,-0.08140249410786674,0.4867554817577547,179.99863601110707,0.0028891799103631446,-15.447885486755586
2024-11-08 11:21:15.300653,-0.27182561774782243,-0.7843300231729886,-2.024391750499177e-05,-2.3558958177820823,-6.574661730596176e-06,1.5715010408103112,0.7868770926424826,-0.10432804212224732,0.0016299230290404633,-0.0012244570996777088,0.010855444121123606,0.005823947384091935,-0.009728961225255154,-0.0023536062826677168,0.17153328720578795,4.097979423118501,0.36964945488280143,-21.87556286397089,-0.703526344763751,-2.360519810863903,-0.00815360268688654,0.29595805824963917,-0.08249907487006991,0.4867570535602626,179.99857747807366,0.0034550465472003348,-15.660017845528111
2024-11-08 11:21:15.300690,-0.2755391982317672,-0.7843316641475635,-2.7115263439903003e-05,-2.355906662061078,-1.057402870241475e-05,1.5715107738806466,0.7868794505224175,-0.10343178665686219,0.002550755355012464,-0.00862578414151434,0.004367217847586894,-0.006746662367067461,-0.008516649585255578,-0.0016401908386233371,0.0679705525038663,3.676944553510273,0.46215121332607423,-22.55148926916273,-0.7134707506901394,-2.2131662621409336,0.009658332308838249,0.2956492027806131,-0.08360064338394058,0.48675329501711584,179.99852579964235,0.003407212248256601,-15.873203931016258
2024-11-08 11:21:15.344659,-0.2792536843541047,-0.784334247377096,2.6734065948552654e-05,-2.3559110346329426,-6.511828357425031e-06,1.5715192730034513,0.7868811006573049,-0.10678289664178715,-0.011458616837150236,-0.006648583290130586,-0.018103817546017417,-0.007894652825271745,0.006056878300884977,0.0019239410373408233,0.09405406747144991,4.2838658131325005,0.7465387007773846,-21.729801594026007,-0.6116377047652812,-2.2960800520870888,-0.006092815524916209,0.29534250448810395,-0.08468077718365007,0.4867527724931156,-179.99950956225825,0.003568737902018199,-16.083939046685856
2024-11-08 11:21:15.358376,-0.2829648407080736,-0.7843228143654191,2.4927626053106167e-05,-2.3558929255140866,8.613009222280255e-06,1.5715132121388171,0.7868791744671215,-0.10590074951955233,0.008548055131833113,0.0029536712036963564,0.008951449761474889,0.0019995443697873004,-0.002110058615963965,-0.001226062416693957,-0.1174879478778973,4.055450093260387,0.5797077897977856,-22.190305733244625,-0.7274510792056013,-2.206488531756141,0.024635228115655154,0.29502962432013624,-0.08577454738458322,0.48675727488684,179.99958468415866,0.0032743291269714814,-16.29653620613444
2024-11-08 11:21:15.400637,-0.2866768840703493,-0.7843313929094471,3.0285786394301795e-05,-2.3559018883186846,7.759766735837559e-06,1.5715152990043872,0.7868804046498381,-0.11286935912795405,0.0010881408688406854,-0.002793067235324187,-0.006250495848142754,-0.009631304149871633,0.00677722730983186,0.004929376890628431,-0.2860098436536892,4.274934058564162,1.2705903606905617,-21.618365154382786,-0.4736982992901769,-2.3156189216999543,-0.015069815816103019,0.2947076906575664,-0.08686703922195843,0.48675586326821196,179.99985502837333,0.0032543376538282124,-16.50907376536653
2024-11-08 11:21:15.448600,-0.2903819135265078,-0.7843324915549648,2.4690524792703172e-05,-2.3558956354664184,1.5129381418788057e-05,1.5715085193902993,0.7868754636765622,-0.11861414059813995,0.008452399476098252,0.020455419150444867,0.012702046915837685,0.015656905268289664,-0.004009393686913861,-0.002989080629879709,-0.0767050669344613,3.6882449165392774,0.5084800225536191,-22.38483070299677,-0.6265827885519463,-2.1607348123431858,0.006818709997273987,0.2943829845993625,-0.0879583768485926,0.4867585559950101,179.99923080357965,0.003036656886473533,-16.72130046863656
2024-11-08 11:21:15.492593,-0.29408117875699524,-0.7843409558521168,-2.529013926810819e-05,-2.3559083354536643,-6.965535449765525e-06,1.5715125247298838,0.7868784519282643,-0.11174497120655859,-0.010944290519905713,-0.004066360322970142,-0.012603938117726829,0.00085380791398935,0.011397365151693189,0.0013703108978094791,0.14865517807757594,4.074085133401311,0.594643190913912,-21.673271923794857,-0.5758774063669585,-2.373253124535166,-0.012057958404982222,0.2940475211996822,-0.08906621475331984,0.4867555139576146,179.99849130499302,0.0028270059182845335,-16.93545006793426
2024-11-08 11:21:15.540754,-0.29778730868660297,-0.7843300094311001,-2.223873741069582e-05,-2.355895717463901,-6.680649901724678e-06,1.571501142477417,0.7868770799072422,-0.10431680310268504,0.0017125938686364701,-0.0011976021802573705,0.010876707160906628,0.00594121989851846,-0.009654832651415647,-0.0023988019821654383,0.1770809190879841,4.102433115871748,0.3636458712886004,-21.872008549118785,-0.7040480052749901,-2.359029165208706,-0.008334341063059296,0.2937165870570664,-0.09015463623351928,0.4867571056267701,179.99842005490532,0.0033847368829445106,-17.147593337329404
2024-11-08 11:21:15.540801,-0.3015009021205035,-0.7843317318403225,-2.915893609678477e-05,-2.3559065816430955,-1.079109254487065e-05,1.5715108014364505,0.7868794835304751,-0.10324775228869859,0.002701070641604771,-0.00878316083838214,0.00448570241183921,-0.0067920326694838355,-0.008367191605087447,-0.0016769037915141949,0.07092595102748003,3.675519243986928,0.45507700850992994,-22.553621595935244,-0.7172459938266349,-2.2141176953567165,0.010086042528519672,0.29337919573658305,-0.09124784762397044,0.48675335618415005,179.9983737305698,0.003337314912513111,-17.36078476177084
2024-11-08 11:21:15.584616,-0.3052155718202272,-0.7843344651857498,2.8637967939282305e-05,-2.3559110726941483,-6.648601615033556e-06,1.5715191503980899,0.7868811707240564,-0.10668216221897679,-0.011500651023734881,-0.0069234766242727425,-0.018172436247507872,-0.008269396667568825,0.005963502640849926,0.002008970797995585,0.0899822565786316,4.284690894323605,0.7575628303676827,-21.72666689656905,-0.6092220773355796,-2.2947884010132875,-0.006308908862970973,0.2930448676205836,-0.09231844408096167,0.4867528106490191,-179.99952041325383,0.0036026523722294704,-17.57137242086256
2024-11-08 11:21:15.597224,-0.3089268260861804,-0.7843229913185885,2.628277313565519e-05,-2.3558928964198254,8.8283624624097e-06,1.5715131823238204,0.7868791594286435,-0.10603277805471076,0.008577630007875073,0.0032938233497830094,0.00905206622127073,0.0022364678597711967,-0.001980304476165456,-0.0012693285065365628,-0.11769481991150539,4.051293809016326,0.5762818450972063,-22.192912769506723,-0.7300331944805802,-2.207942933082006,0.025171953949961724,0.2927036936630229,-0.09340386310618526,0.48675734035535106,179.99954339130403,0.003265748813828295,-17.7839925846222
2024-11-08 11:21:15.640663,-0.312638732207299,-0.7843315991832407,3.194649219029344e-05,-2.3559019579017724,7.833979484672682e-06,1.5715151388610273,0.7868804328578776,-0.11287380374131577,0.0009547763827787359,-0.002942528921559981,-0.006332923246747637,-0.009891768047757219,0.006633787702326454,0.0050363600239554385,-0.2967624102118468,4.2751443764243335,1.2870876316303526,-21.618420696338777,-0.46959924182966317,-2.3155269372697345,-0.015439659966637438,0.2923535022329561,-0.09448750973938602,0.48675587969281753,179.99983009533676,0.003270120810312423,-17.996512360191023
2024-11-08 11:21:15.684595,-0.31634375617421995,-0.7843325650841795,2.590706159111278e-05,-2.3558956236460755,1.53824129975888e-05,1.571508502538446,0.7868753849176731,-0.1189707935782462,0.008460265874927887,0.020979383223567502,0.012698882565131965,0.016059416978119943,-0.004000675804556792,-0.0030623149767007585,-0.07033890237726798,3.6853819950287043,0.49720787948328427,-22.38716158582044,-0.6274468293424906,-2.162032392118405,0.006851161842980294,0.29200060282646245,-0.09557017022731189,0.4867585826733743,179.99918647108845,0.003022743554108157,-18.208750641766596
2024-11-08 11:21:15.728612,-0.32004266238098644,-0.7843410369661514,-2.7425621970778025e-05,-2.3559083204882008,-7.090440994339531e-06,1.5715124998515382,0.7868784464747272,-0.11153723544468055,-0.011037012706946691,-0.004399154820212192,-0.012680724887690096,0.0007699445591552356,0.011268038133138961,0.001377075116026777,0.1486930183932906,4.076459076034312,0.5946134891725292,-21.67314281719861,-0.574709755509261,-2.3724826553882923,-0.012280067772605761,0.2916361592694789,-0.0966699345421673,0.48675554373910157,179.99834446333924,0.0027580763080351763,-18.42301980079582
2024-11-08 11:21:15.776658,-0.3237490019833622,-0.784329998436613,-2.4277020692409224e-05,-2.3558956269954825,-6.782508178204694e-06,1.571501247563826,0.7868770675286472,-0.10431921026493728,0.0017907893459184014,-0.0011544299202632113,0.010875935079153649,0.006061023958875178,-0.00957911825597128,-0.0024429499314769787,0.18269992568398066,4.106964780597509,0.35773580709764685,-21.868159890083668,-0.7044852720474464,-2.3574846649595744,-0.008522614379122996,0.2912771199183907,-0.09774944048628763,0.48675715418741905,179.9982634101384,0.0033081695715483066,-18.63517074725055
2024-11-08 11:21:15.776698,-0.32746259082769313,-0.7843317988526106,-3.1199270163817516e-05,-2.3559064885733685,-1.1002658921732689e-05,1.5715108312381503,0.7868795149818775,-0.103061985009897,0.002853751340679396,-0.008937746939645733,0.004613309536165398,-0.006829063748671057,-0.00821238510657629,-0.0017151023482818578,0.07389558517971537,3.6743057988789882,0.44797646704668215,-22.555363993500716,-0.7210462514800376,-2.2150645695638405,0.010519232616653381,0.2909114281815128,-0.09883353681898702,0.48675342331094995,179.99822443185911,0.0032610102357054443,-18.84836449798591
2024-11-08 11:21:15.824624,-0.33117744579978314,-0.7843346848055806,3.0497437126797422e-05,-2.3559111066035214,-6.78479329963011e-06,1.5715190250452675,0.7868812402815522,-0.10658092696939171,-0.011535251545950732,-0.007198809655635449,-0.018227670950755892,-0.008646523901427127,0.005870876887170005,0.002095087670885426,0.08575015989527075,4.285140225927583,0.7687069050930168,-21.72421058419945,-0.606754336447175,-2.293498188409156,-0.006531034666556122,0.29054975055060667,-0.09989390565363399,0.4867528510790262,-179.99953442184628,0.003637623783660872,-19.05880679532138
2024-11-08 11:21:15.835596,-0.33488880067082505,-0.7843231774386039,2.756021262406705e-05,-2.355892876693556,9.042219319965739e-06,1.571513149022576,0.786879142639231,-0.10617088327228442,0.008594563001291904,0.0036399889379637174,0.009129984041598935,0.002478500163501555,-0.0018508970922393475,-0.0013137176328579941,-0.11769754579864179,4.047327276476194,0.5726601745479507,-22.194868423198507,-0.7326184397799591,-2.20941566442218,0.025703780078085835,0.29018049863916934,-0.10097025207158909,0.48675740391150324,179.99949927588906,0.0032564233391914527,-19.27145139595147
2024-11-08 11:21:15.876614,-0.33860056585455567,-0.7843318012512066,3.355821332373665e-05,-2.3559020142251397,7.902058053232963e-06,1.5715149757574478,0.7868804603729398,-0.11287151173583068,0.0008279684736868984,-0.0030977098292538086,-0.006393638070260701,-0.010151968927481382,0.006488831587536126,0.0051422589430830945,-0.30743800957396056,4.275161393052116,1.3033661919876949,-21.61870706191013,-0.465580463936977,-2.315497537988751,-0.015811072080581724,0.28980229956308573,-0.10204431547413453,0.48675590082379755,179.9998027826245,0.003285917788485319,-19.48395207157739
2024-11-08 11:21:15.920655,-0.3423055930552579,-0.7843326404707929,2.709096156294777e-05,-2.355895620719541,1.5628312643123365e-05,1.571508484079617,0.7868753066747409,-0.11932501340187157,0.008461373712646488,0.021496536212300188,0.012687969577492835,0.016453709689591797,-0.0039985172935207425,-0.003135827236121963,-0.06370150135691814,3.682750576133478,0.48576298048402033,-22.389243539766117,-0.6283595541422616,-2.1633182471400336,0.006891251883136272,0.28942143593047837,-0.10311756706407227,0.4867586055825427,179.99914129389632,0.0030087307168913174,-19.69620183740102
2024-11-08 11:21:15.964658,-0.34600414453194084,-0.784341112433439,-2.957790451496578e-05,-2.355908306869728,-7.21268011272258e-06,1.5715124800399307,0.7868784419043013,-0.11132045339905552,-0.011121914557219694,-0.00473727167063924,-0.012749129696768644,0.0006813344374096654,0.01114007860395539,0.0013853285807810534,0.14831609959075737,4.078702483469253,0.5950077929619486,-21.673661111499406,-0.5735314175294789,-2.3717028733817376,-0.01249542623066151,0.28902821079510843,-0.10420849480223852,0.4867555715943918,179.99819941259113,0.002683269153312454,-19.910590180988983
2024-11-08 11:21:16.008710,-0.3497107040202234,-0.7843299892008808,-2.6309244601563364e-05,-2.355895546413267,-6.878995151282652e-06,1.5715013562250464,0.7868770546688912,-0.10433524617423076,0.0018646807851562194,-0.0010972609366489833,0.010853958919115326,0.006181575044604929,-0.009502664494704426,-0.002485696317640229,0.1883133063434894,4.111533030604363,0.3519382014814549,-21.86410572454561,-0.7048362643494118,-2.3558903679491974,-0.008717982680457833,0.2886413053057268,-0.10527835413193232,0.4867571989352313,179.99810957436995,0.003225997592081001,-20.122748384485234
2024-11-08 11:21:16.008799,-0.35342427580774505,-0.7843318630039846,-3.3203128229075674e-05,-2.3559063844256043,-1.1207800160839554e-05,1.571510863958384,0.7868795446197279,-0.10287684762042518,0.0030073731088865853,-0.009089007043154365,0.004747118480406674,-0.006857557409861605,-0.008052744601064584,-0.0017547211632657073,0.07695129665916928,3.6733736825438936,0.4407629636967223,-22.556622584873555,-0.7248615347538031,-2.2159910276007344,0.01095690817298687,0.28824756691237347,-0.10635259092344176,0.48675349504422727,179.99807930183695,0.00317901072251724,-20.33594243730146
2024-11-08 11:21:16.052663,-0.3571393156906275,-0.784334902042759,3.231695609073881e-05,-2.355911135351466,-6.920624394446406e-06,1.5715188980158166,0.7868813095178551,-0.1064763759494926,-0.011560201827643335,-0.007477633509431453,-0.018266428819393988,-0.009025097609858479,0.005780537677998016,0.002182061301581953,0.0812776236606886,4.285155772911658,0.7800148714189623,-21.722493005006914,-0.6042525665009967,-2.2922276377003357,-0.0067563904554872045,0.28785883445249044,-0.10740205840660608,0.4867528930654434,-179.9995514886672,0.0036736483027943476,-20.546242537483618
2024-11-08 11:21:16.075717,-0.3608507751527039,-0.7843233707757626,2.879037910652471e-05,-2.3558928684228455,9.252966888695369e-06,1.5715131117475405,0.7868791247777374,-0.10631730452440133,0.008596954625273575,0.003992673525474624,0.00918323824145485,0.0027236205960934393,-0.001723711865844965,-0.0013586441098636937,-0.11745400067826617,4.043613441008642,0.5688203793502293,-22.19611960724443,-0.735178964634094,-2.2108873518990557,0.026227382155507233,0.28746174028378874,-0.10846860852579016,0.48675746392775676,179.99945352009786,0.0032468336990885607,-20.75891205712603
2024-11-08 11:21:16.120594,-0.3645623914832292,-0.7843319958384543,3.511828888491664e-05,-2.3559020572276443,7.964057419762582e-06,1.571514811162591,0.7868804873503574,-0.11286096854549602,0.0007097163980191065,-0.003259162160913584,-0.0064309037916032395,-0.010409161396499278,0.006344284634274836,0.005246434160180877,-0.3180521439471757,4.274914904984177,1.3194058347138777,-21.61926819898647,-0.4616637924397713,-2.315550953535209,-0.016182088746746853,0.2870558007292453,-0.10953236677692901,0.48675592581316185,179.9997729579092,0.0033016324773590014,-20.971393387111455
2024-11-08 11:21:16.164621,-0.3682674302644511,-0.7843327171009769,2.8249631763621608e-05,-2.355895628021363,1.586527436270302e-05,1.5715084636947356,0.7868752296937309,-0.11967726763179441,0.00845340054577597,0.02200616671481287,0.012667899717276495,0.0168377110698913,-0.0040049000392151,-0.003209205494493647,-0.05679734052224605,3.680392854236021,0.4741842116690247,-22.391067025579293,-0.6293045678695064,-2.164573875886376,0.006937960054168804,0.2866472212492362,-0.11059548054107476,0.4867586238758392,179.99909557373982,0.0029948041336758553,-21.183654147004766
2024-11-08 11:21:16.208671,-0.3719656292027125,-0.7843411799320084,-3.170387326534296e-05,-2.355908294216377,-7.331972883051208e-06,1.5715124671063743,0.7868784384736083,-0.11109474389537796,-0.011197649532364778,-0.005080196119508676,-0.012808870101994878,0.0005896566196355374,0.011015307143815253,0.0013948566139077578,0.14753480369509986,4.080815119221527,0.5958291892597587,-21.674786102877942,-0.5723502215598859,-2.3709196519990994,-0.012703075440086493,0.2862254388151422,-0.11167680221233486,0.4867555971500578,179.9980579718708,0.0026032464018450087,-21.39815970344339
2024-11-08 11:21:16.252690,-0.37567241728821976,-0.7843299813426521,-2.8300473900344514e-05,-2.3558954754193957,-6.970383358506638e-06,1.571501468472853,0.7868770417227005,-0.1043644107237446,0.001934249971849082,-0.001026744756887521,0.010812168956786605,0.006302122667151245,-0.00942598384424943,-0.0025268707455665673,0.19384612287386063,4.11609033778656,0.34632540745589097,-21.85993577031142,-0.7050962780151692,-2.3542524631822017,-0.008921220615648543,0.2858109239663607,-0.11273629216552311,0.4867572398949871,179.9979600550865,0.0031388406446624948,-21.61032499747601
2024-11-08 11:21:16.252737,-0.3793859590950426,-0.784331924478316,-3.514118887171236e-05,-2.3559062702620635,-1.1406413620740352e-05,1.5715108999338678,0.7868795726035431,-0.10269485815482644,0.0031603821288425076,-0.00923500377963861,0.004884136296941842,-0.0068770555260860376,-0.007888853638169253,-0.0017958956391422726,0.08019848204522022,3.672782034024217,0.4333303424862447,-22.557310246705978,-0.7286877590447681,-2.2168820342365647,0.011398121522416392,0.2853894118181841,-0.11379993362175511,0.4867535709690083,179.99793962464736,0.0030919815896847283,-21.823517516225408
2024-11-08 11:21:16.296658,-0.3831011803739557,-0.7843351161178482,3.4072814266927764e-05,-2.3559111570874176,-7.056158266571799e-06,1.5715187699078372,0.7868813786581077,-0.10636513721298661,-0.011573596508251013,-0.007762830585641506,-0.0182859036455428,-0.009404615971672792,0.00569401110290145,0.0022697203863205756,0.0764843004608044,4.284687763117246,0.7915292805990984,-21.721560211192017,-0.6017359520486284,-2.290998492890366,-0.006982395278858172,0.2849739295827763,-0.11483784952198012,0.48675293729519226,-179.99957251045257,0.0037101046857986202,-22.03368055778308
2024-11-08 11:21:16.311954,-0.38681275127853354,-0.7843235728467688,2.9963108401531713e-05,-2.3558928725697,9.459827527535936e-06,1.5715130693116697,0.7868791061497777,-0.10647485392147285,0.00858317282859374,0.004353721215267073,0.009210424868127577,0.0029701596490063877,-0.0016008665036157214,-0.0014036367408421235,-0.11691313858494659,4.040209575992117,0.5647336832181851,-22.196624389155925,-0.7376891096945063,-2.21233851159052,0.026739545840715653,0.28454924768498424,-0.11589388207462525,0.4867575203116797,179.99940576088082,0.003236736639056294,-22.24637509793852
2024-11-08 11:21:16.352596,-0.39052420756003237,-0.7843321829988366,3.660520085446706e-05,-2.355902086553919,8.020154035115468e-06,1.5715146458227016,0.7868805135788417,-0.11284043723042606,0.0006018778642358967,-0.0034275127162235186,-0.0064433999079986665,-0.010660769568987944,0.006202096169294597,0.005348223488201437,-0.3286071539224828,4.274342948975139,1.335167794998962,-21.620144219035637,-0.4578718838038583,-2.3157067391633794,-0.016550919135092382,0.28411585314868226,-0.11694662341345158,0.4867559549111367,179.99973984167474,0.003316708447343077,-22.458837079553373
2024-11-08 11:21:16.396599,-0.39422926798083147,-0.7843327969209302,2.9368028518383937e-05,-2.3558956465711063,1.6091412368801628e-05,1.571508440002253,0.7868751543983343,-0.12002751165053177,0.008434319316953617,0.02250712704955543,0.012637379164149164,0.01720915953457664,-0.004021768518977292,-0.003282115261057178,-0.04961978757164281,3.678344580098359,0.4624960855479432,-22.392629178755325,-0.6302704485076354,-2.1657840888084854,0.006990173900421894,0.28367982495005656,-0.11799887550295912,0.4867586375485363,179.99904879375634,0.0029807387261511936,-22.671108215160817
2024-11-08 11:21:16.444621,-0.39792711664192204,-0.7843412393325213,-3.377057230657954e-05,-2.35590828235679,-7.4479988878550785e-06,1.571512461448851,0.7868784362603591,-0.11085984232551031,-0.01126312727575916,-0.005427856066923656,-0.012859898218155343,0.0004959420594428622,0.010895134602812183,0.001405451312275846,0.14637825776997693,4.082798145901746,0.5970668127406091,-21.67647251969281,-0.5711797833632906,-2.3701406564890677,-0.012901566923502377,0.2832297374643092,-0.11906981309122809,0.4867556204826069,179.99792152400244,0.0025186530137053164,-22.88572705028406
2024-11-08 11:21:16.488751,-0.4016341425362224,-0.7843299754305768,-3.0220955840043473e-05,-2.3558954139026405,-7.056657214121742e-06,1.5715015834186454,0.7868770289430209,-0.10440569494122773,0.001999547105044941,-0.0009438575452028614,0.01075209274644895,0.006421272153482844,-0.009349907251164689,-0.00256617122879349,0.19920477786133034,4.120608547842176,0.3409983449201224,-21.85573922923722,-0.7052602524046974,-2.3525748076877764,-0.0091322013290534,0.28278788806097127,-0.12011821871241679,0.48675727721602013,179.99781608902896,0.003047379796146174,-23.097899436933613
2024-11-08 11:21:16.488790,-0.40534764260851297,-0.7843319833922529,-3.698768086213278e-05,-2.3559061474897725,-1.1597388074768844e-05,1.5715109393846518,0.7868795988611605,-0.10251912654362451,0.00331193327190132,-0.009372879443783871,0.005021448997093164,-0.006887074071537097,-0.007721101413977393,-0.0018386038212614558,0.0837185190025627,3.6725909407062987,0.42560538192498054,-22.55735273136231,-0.7325137986834731,-2.2177189167707225,0.011841980560453533,0.28233889418747266,-0.12117053813472906,0.48675365047667307,179.99780642905725,0.0030006550565695087,-23.311088795416925
2024-11-08 11:21:16.536617,-0.4090630388116594,-0.784335325842604,3.574052735899613e-05,-2.355911170288758,-7.190875139784225e-06,1.5715186416596278,0.7868814475880015,-0.10624449106303706,-0.011573462864114419,-0.008056368132947175,-0.018283721445336742,-0.009783997604217462,0.00561316904240552,0.002357885153243755,0.0712863539340696,4.283698736736978,0.8032978511100703,-21.721436457570793,-0.5992186301859515,-2.2898279674302637,-0.007207012848120007,0.28189697622864224,-0.1221962748427128,0.486752984204754,-179.99959839684885,0.00374627788517287,-23.521121783232573
2024-11-08 11:21:16.550332,-0.41277473077485993,-0.7843237840929653,3.106480608572326e-05,-2.355892889915495,9.662590343850752e-06,1.571513021002513,0.7868790868252429,-0.10664618599033658,0.008552011022485909,0.004724880997124703,0.009210807185719726,0.003216594337665977,-0.0014841297284712142,-0.0014482843237209192,-0.11602146757602527,4.037156828904169,0.5603674596501549,-22.19635592664611,-0.7401240605915838,-2.2137497754539432,0.02723697161233229,0.2814449800249534,-0.12324107233770462,0.4867575727675041,179.9993554872694,0.003225805217857795,-23.733841172665393
2024-11-08 11:21:16.592615,-0.41648601312007116,-0.7843323617432754,3.799790158343086e-05,-2.3559021022583506,8.070911036384132e-06,1.5715144809805492,0.7868805387267575,-0.112808178311853,0.0005057947160724227,-0.003603364086716604,-0.006430307557269565,-0.010904383064666736,0.006064180081914056,0.005446989827927642,-0.33910009897621224,4.273385735030647,1.3506093902643819,-21.6213683743614,-0.4542277249700768,-2.31598429186702,-0.016915730208886672,0.2809844341994847,-0.12428209461715614,0.48675598789780067,179.999702679253,0.003330557796552147,-23.94628392827236
2024-11-08 11:21:16.636618,-0.42019110666194237,-0.7843328800330491,3.043064247965077e-05,-2.3558956771669557,1.6305893885792955e-05,1.5715084125104593,0.786875081089403,-0.12037567621569348,0.008402257612052856,0.02299838440770166,0.012595364017923542,0.017565828297159494,-0.0040510014483199665,-0.0033541896688483036,-0.042173116736597904,3.6766316060115694,0.4507339262551463,-22.3939343668567,-0.6312454852088669,-2.166935889088794,0.007046993211499149,0.2805212433711675,-0.12532276691605088,0.4867586462122311,179.9990003688661,0.0029662641353216837,-24.15856471430231
2024-11-08 11:21:16.680677,-0.42388860712154397,-0.7843412888341739,-3.5747840820832266e-05,-2.3559082710215487,-7.559932219791676e-06,1.5715124645281024,0.7868784351916469,-0.1106159468342177,-0.011317476710653038,-0.005779621648572444,-0.012902372532945043,0.000401407386915709,0.010780905157065179,0.0014169177544665068,0.14488135257082563,4.084654704402277,0.5987043802219714,-21.678667221500653,-0.5700316643739766,-2.3693726912832416,-0.013089545869964386,0.28004313204432973,-0.12638253593136023,0.48675564129484306,179.99779125175846,0.002430232917540935,-24.373291009739727
2024-11-08 11:21:16.724809,-0.4275958796398669,-0.7843299707434195,-3.204362091757673e-05,-2.3558953614110925,-7.137491910391702e-06,1.5715017010801695,0.7868770164677228,-0.1044578549355757,0.00206067876503386,-0.0008498240504865168,0.01067553867180484,0.006537836760934347,-0.009275050411117142,-0.0026033237499829692,0.2042928788697735,4.125058240452829,0.33605906243249645,-21.851597806741708,-0.7053212856844163,-2.350861799177066,-0.009351402107454197,0.2795742406876992,-0.1274191502084159,0.4867573108919515,179.99767873726358,0.002952362847254697,-24.585470605793176
2024-11-08 11:21:16.724862,-0.43130932738599626,-0.7843320394092768,-3.871950783818079e-05,-2.3559060174821385,-1.1779660224142674e-05,1.5715109827665792,0.7868796232576827,-0.10235288106793401,0.0034609913695223156,-0.009499662229544653,0.005156406780946806,-0.006886909828098591,-0.007549938663456284,-0.001882954647863061,0.08760984947484451,3.672837827273913,0.4174954271396098,-22.556692291329664,-0.7363331349707924,-2.218485810734406,0.01228781013429715,0.27909807556939176,-0.1284594304080747,0.4867537328560001,179.99768058348744,0.002905823362285907,-24.798655389951605
2024-11-08 11:21:16.768676,-0.43502488873260603,-0.7843355300787191,3.729803232577211e-05,-2.3559111737456995,-7.324397416574868e-06,1.571518514001946,0.7868815163018459,-0.10611117145538722,-0.011558713684215776,-0.008360903031447806,-0.018258076527419953,-0.010162640641913443,0.005539535512073565,0.0024464327891384474,0.06560639713264883,4.282148994908248,0.8153586125600318,-21.722136899018125,-0.5967181673488741,-2.2887404370996545,-0.0074282934734858875,0.2786300437714162,-0.12947238095566313,0.4867530340800323,-179.99962991081347,0.0037814295005642504,-25.00856697821343
2024-11-08 11:21:17.872633,-0.43353814072690167,-0.7843135809992985,-0.0009988841727999187,-2.355887604372147,-0.0005523059366678851,1.5714915939015421,0.7870591094455968,0.19465336253930218,0.009435707967122117,-0.05166670263972464,0.008890696372727767,-0.0065493421759281745,-0.0009793301776224012,0.0012181708602683194,-2.0377611434222898,4.078405432586818,-1.772060400896038,-22.180856421647018,-0.9947622271044766,-2.2203958796991543,0.0512248560552222,0.27863261702307995,-0.12946886678022285,0.4867548830443519,179.99004156395216,0.0006033756314011198,-24.97555889392765
2024-11-08 11:21:17.916681,-0.42623163965041133,-0.7842710689168211,-0.0021055764826991563,-2.35589274195259,-0.000539632241212118,1.5714960139458087,0.7870885568417032,0.22346292598996367,0.0018743464285435347,-0.01175924145441029,-0.006017524240475079,-0.00702354866841615,0.005823060508075614,0.005397318306765986,-1.2392334996529326,4.35410151089252,-0.23995969060476763,-21.617912989016485,-0.5533257357094739,-2.318965339451098,-0.005776077898886389,0.2794287925090394,-0.12775837936662693,0.48673930111910807,179.94758718308407,-0.0159109301950941,-24.603492160773758
2024-11-08 11:21:17.916720,-0.4183056640386571,-0.7842442723085075,-0.0017809506261015073,-2.35589304808418,-0.00034057159650835445,1.5715021907870197,0.7870576919977443,0.2258741616155404,0.008755599511566731,0.043358870973977365,0.0122071233968358,0.023418959834942847,-0.0037980011847561293,-0.004517318936468423,-0.3300819351494019,3.7470442158996593,-0.04560782973491695,-22.401695117784413,-0.6572563414522683,-2.1654325603867957,0.009922426604222613,0.2804977439868765,-0.12540693206962636,0.48673167224536285,179.948561460205,-0.013698208127487519,-24.134443507758075
2024-11-08 11:21:17.960682,-0.4102174017519422,-0.7842549766634654,-0.0009752039979646909,-2.355919143212536,-0.00015895747033223273,1.571515152720294,0.787010501458103,0.23520720260053,-0.01168489742581362,0.019218103322986263,-0.013237993994354554,0.005560443161616852,0.011038592721461151,-0.00016645983758811767,0.2573395818985763,4.128161578568347,0.7521560682114183,-21.69559445071127,-0.5564451537438486,-2.36721993284279,-0.01424132512375738,0.28162112582768045,-0.1228573543231443,0.4867240967885757,179.96875427008092,-0.004286146196238128,-23.63564941954885
2024-11-08 11:21:17.980818,-0.4022673025225654,-0.7842643420716957,-0.0002290593764424642,-2.3559153110707793,-1.7531813607085667e-05,1.5715089206219375,0.7869569267859289,0.23520452488211627,0.0013525599758351984,0.016897126681220703,0.010766071576486649,0.009558438791875564,-0.009381495700295006,-0.003953049719295221,0.44834013246754173,4.139868381983016,0.7518457194691486,-21.87285570273874,-0.6756908371115175,-2.3507915585442904,-0.012151913707472555,0.2826938825111917,-0.12036248785231994,0.48672835830002936,179.98920726102864,0.004252193688907304,-23.146818870377995
2024-11-08 11:21:18.024686,-0.3945551687451845,-0.7842934046055063,0.000203874427334938,-2.3559260827734647,4.615819480058292e-05,1.571520844076086,0.7869197241794632,0.23006007032793374,0.0024437489337774216,-0.0012969702128426408,0.005085883027050831,-0.005782775828451626,-0.007775373075703806,-0.002769767766669984,0.311513122263858,3.671266592648316,0.7724749176382655,-22.57052172659678,-0.7040518952268593,-2.2150185359229844,0.009152706948156291,0.28367005070751394,-0.11803478028968231,0.48673325261911116,-179.9972868446597,0.008070406288444482,-22.68525836315224
2024-11-08 11:21:18.068665,-0.38704959556199725,-0.7843204951281466,0.00033743617736448073,-2.355923697242507,6.43878894379668e-05,1.571530512693779,0.78689770961262,0.22138075056758671,-0.012223623877485879,-0.007301203840377607,-0.018096427424432827,-0.009682394313776222,0.0057492302666851125,0.0018237059680196732,0.20834742596916148,4.277974787113807,1.0076035075224217,-21.72062098268389,-0.5844496140300437,-2.288825047890187,-0.008806442434576511,0.2845641587253468,-0.11585779470482871,0.4867435428764803,-179.99234105393336,0.0076185453960375005,-22.248543093833533
2024-11-08 11:21:18.112658,-0.3796649127556533,-0.7843245439767301,0.00028644648349107626,-2.355895812153199,5.5015741535768825e-05,1.5715265438209265,0.7868847648948325,0.2188166889242328,0.008297818659475271,0.001302122305056802,0.00948905115326891,0.002279081234873949,-0.0015987961660483205,-0.0015868772167399736,-0.07113935111220493,4.0303787407876825,0.6220676408855461,-22.191951786914064,-0.7316013158332044,-2.2091775310156803,0.025869892357811567,0.28540704435786696,-0.11377129610145537,0.48675760532538326,-179.9931095456537,0.005507868254596757,-21.826757809256126
2024-11-08 11:21:18.156671,-0.3723245240115345,-0.7843395956630514,0.00016207083896979668,-2.355897705817898,2.6573592417200587e-05,1.5715295490040013,0.7868834594774841,0.21213798213507382,0.00060247502251575,-0.007035346578228685,-0.006285034071866197,-0.011201296370290294,0.006330140300286335,0.005242023469378382,-0.3282769048492022,4.267904879296256,1.289046793705285,-21.612317266381275,-0.4617955586271733,-2.3129675240538305,-0.01630170429617676,0.2862157573281118,-0.1117159060336169,0.48676160830530574,-179.99590348010176,0.003356439651068239,-21.411153020590508
2024-11-08 11:21:18.156707,-0.36497053502504784,-0.7843393340783056,5.819172529886174e-05,-2.3558882116045874,1.692550175480534e-05,1.5715238429302794,0.7868787618066548,0.20614794455451313,0.008559180779579987,0.019088584746162818,0.012705565947409554,0.016361289791789406,-0.003989901546189748,-0.003184122331274214,-0.08739967647138522,3.679441914549897,0.43154353932164496,-22.385912752762696,-0.6329018670704736,-2.162178192376595,0.007275519142107687,0.2870168091721261,-0.10964163691001003,0.486765510723949,-179.99921781215681,0.0018343701070914777,-20.993743990025518
2024-11-08 11:21:18.200622,-0.35758351035869573,-0.7843425728764757,-4.529161327671005e-05,-2.3559017863162337,-1.2313397509622348e-05,1.5715275247168474,0.786882931092042,0.21530925145091886,-0.01096852638958283,-0.006171538680152938,-0.012826035156429159,0.00041382246843258644,0.01105361745845736,0.0014200587902849782,0.1137430559182966,4.083417638283894,0.5473986587583712,-21.67336329807376,-0.5750699237363774,-2.3687785063406497,-0.012172817928244305,0.28780356166098975,-0.1075553242923106,0.4867604219767939,179.9983082650264,0.0013061141967741566,-20.574933243647525
2024-11-08 11:21:18.222231,-0.35017902444057913,-0.7843246431446174,-5.1862266273516866e-05,-2.3558921254405742,-1.4173638028580626e-05,1.5715156458981498,0.7868818836678466,0.22287629140210474,0.0020435133546978495,-0.0010574838119037089,0.010730818508670116,0.006199912468809238,-0.009504086571051886,-0.0024791264194567175,0.16279626234157882,4.120849921317069,0.338288305012531,-21.865689631584694,-0.7057224096555851,-2.354160525699457,-0.00839464094472168,0.28859259248846847,-0.10542425135954207,0.4867584282884222,179.99777227361022,0.0023482533995496913,-20.150893884407683
2024-11-08 11:21:18.264672,-0.34276128130969497,-0.7843207294989885,-4.563252622880043e-05,-2.3559067631680044,-1.7137817578394277e-05,1.5715241142748742,0.7868835840414414,0.2244604613099987,0.0030869841818866057,-0.008322714314508928,0.00458834280491597,-0.0067251048253739384,-0.00817144266456465,-0.0017471902570663222,0.06327191407134615,3.6854435203173708,0.41731614450980764,-22.56040347263761,-0.7208591392017307,-2.213910946896017,0.010817282508155843,0.28936760653531085,-0.1032795089823127,0.4867510612520305,179.99799300028673,0.00305064669789438,-19.72573314217298
2024-11-08 11:21:18.308602,-0.33533791423206516,-0.7843199094365225,-3.0301648542341297e-05,-2.3559143717511066,-8.536092480859736e-06,1.5715314470730881,0.7868840493683118,0.22111358147166854,-0.011462730245489987,-0.006735790541561287,-0.018315770593333055,-0.008611297220772918,0.005837531809495944,0.0020678528812005936,0.08880167481970697,4.297323592762543,0.7789684108014272,-21.728552925648625,-0.604639584625162,-2.291424576131311,-0.006668191311045853,0.2901292038782856,-0.10112240002785335,0.48674786302043205,179.9981155753458,0.0031667534782448244,-19.299810800768388
2024-11-08 11:21:18.352620,-0.3279105402626925,-0.7843069471263773,2.962781828674821e-05,-2.3558977839269346,8.741884235163866e-06,1.5715250349163137,0.7868805189371084,0.2213380513704481,0.008609002737146177,0.003862126820392775,0.009078188122757434,0.0025088240482825054,-0.0019001052728315597,-0.0013309491965968756,-0.11344764062842032,4.059667471050066,0.579576113347408,-22.19919436428305,-0.7295235810721208,-2.2072422415509267,0.025441668522618123,0.29088235562039355,-0.09894368301277341,0.48675114651011653,179.99944679816346,0.003794163997637869,-18.87162151280846
2024-11-08 11:21:18.400729,-0.3204891131268983,-0.7843159208805917,3.459969449792766e-05,-2.3559071045854045,8.902092476503753e-06,1.571526744038274,0.7868807241278031,0.21437767796429966,0.0009016893396641562,-0.0029655761088781263,-0.006346719619632886,-0.009850675696552149,0.006606036036784892,0.005023423290560852,-0.29361075751669763,4.2845910843116375,1.2840476101590297,-21.6218993753569,-0.46643991882256275,-2.313639424538534,-0.01578737384804704,0.2916070606687803,-0.09677994738796089,0.48674965418626565,179.9996818372957,0.0037845911222647525,-18.44621518302023
2024-11-08 11:21:18.400780,-0.3130679607377722,-0.7843181751862209,2.6443389357311275e-05,-2.355899968922224,1.6977605175938493e-05,1.571520218788713,0.7868751905574678,0.20821986821306515,0.00841375594499618,0.020826306399251787,0.012732333623793737,0.015997543760645036,-0.0039921462289113935,-0.00306277855673312,-0.0717434492502643,3.6937882188335225,0.4907198038577859,-22.38911886470287,-0.6263136373867099,-2.160032028563281,0.006796087709805974,0.29231618140068394,-0.09461390837065095,0.4867531411408166,179.99900621075497,0.0033865353616479915,-18.021028579892462
2024-11-08 11:21:18.444694,-0.30564409108927126,-0.7843280721425456,-2.672760754585113e-05,-2.355911479877725,-6.863211724272844e-06,1.571524548878032,0.7868781814763652,0.2155239134497596,-0.01102672352673202,-0.004248200094275928,-0.012604765585008094,0.0007899932818976189,0.011349074813953787,0.0013726313665891055,0.14631171945524135,4.0822271445140785,0.5883504553337309,-21.67465900826449,-0.5745109487462645,-2.3709240484054157,-0.012176175801238354,0.2930018050774915,-0.09246189320384136,0.48675112917264146,179.99832862184348,0.003008882794893324,-17.597998962850404
2024-11-08 11:21:18.458514,-0.2982254954516117,-0.7843183214971896,-2.273444933997837e-05,-2.3558979263525437,-6.646445314117955e-06,1.5715135120209283,0.786876760751456,0.22291238420807852,0.0016830422441887097,-0.001202717041239032,0.010899720519842133,0.005933258111715668,-0.009644956362668643,-0.0024012503772310456,0.17537614857451705,4.109192683150251,0.3583026054514541,-21.873086222280403,-0.7029675455282267,-2.357028246754773,-0.008369326952373394,0.29368094370970965,-0.09028468749247384,0.4867535602257864,179.99837181843696,0.0034612199406115424,-17.17270141651191
2024-11-08 11:21:18.504712,-0.29081303662992664,-0.7843207783421375,-2.8627952980642135e-05,-2.35590827473773,-1.0796300005999626e-05,1.5715233883422517,0.7868790745991188,0.2239238341220482,0.0026249292771171146,-0.008703257636818534,0.004449629305408046,-0.00677727890834301,-0.008427243800958193,-0.0016646737742115891,0.06827075021022898,3.6825412560512554,0.4533183977752708,-22.554298195428647,-0.7146289587663013,-2.2117965741901084,0.009885868303916126,0.2943416575616903,-0.08810811357762997,0.48675029904425837,179.99842939729183,0.0033640330038716935,-16.748370215875315
2024-11-08 11:21:18.548679,-0.28340101320796673,-0.7843236296735423,2.6816955730701864e-05,-2.3559125133434486,-6.579951144836116e-06,1.5715319682236712,0.7868806381616249,0.22048652477741,-0.011468630888006964,-0.006668409843233275,-0.018118107752809833,-0.007958703311505224,0.006038541333642901,0.001935719258174734,0.09225244554982688,4.290862368844443,0.7437179032869778,-21.730830879318532,-0.6101259500288971,-2.293808524080763,-0.006169670023516498,0.2949927199755395,-0.08590606602050348,0.4867499292573473,-179.9995078167829,0.0035398266647053075,-16.32153360613774
2024-11-08 11:21:18.592606,-0.2759854071205625,-0.7843120170334101,2.424240680554135e-05,-2.355894475957432,8.486264572837854e-06,1.5715259527233236,0.7868786367115375,0.22139000681501483,0.008544922147857167,0.002892736061065909,0.00891320298916518,0.0019405361329694053,-0.0021389559268884493,-0.0012176113882383377,-0.11838015049460511,4.0639472686020275,0.5763800220017046,-22.191268503198195,-0.7256847199845062,-2.2041503387576524,0.024474166652535972,0.29562500860880736,-0.08371470459099865,0.48675434656767624,179.99959397306205,0.0032499123111160762,-15.896641086782374
2024-11-08 11:21:18.636815,-0.26857079879524814,-0.784320198869878,2.9274081942531893e-05,-2.355903576476692,7.674580957406363e-06,1.5715280882752989,0.7868797915876398,0.21439096008486824,0.0012001707484205544,-0.0026672470041859686,-0.006188476952728559,-0.009455418610190723,0.0068760189001168814,0.004855826207332936,-0.27984811314875896,4.28245111142486,1.2554155899687807,-21.620429622766736,-0.47538026780011516,-2.3136926877707915,-0.014864496409200295,0.2962360739459335,-0.08151853839011881,0.4867527523660275,179.99987777335448,0.003251989033995879,-15.471677388870214
2024-11-08 11:21:18.636936,-0.2611487582846719,-0.7843210285079412,2.324926196095589e-05,-2.3558976397751046,1.4876287569798308e-05,1.5715211605105281,0.786874885498829,0.20903666780033675,0.008459871111585214,0.0198572435670564,0.012694388537523745,0.015258782867193484,-0.004012334964026986,-0.002932394037515218,-0.0808362704178589,3.6994528954990864,0.510407860694351,-22.38394477068013,-0.6250427374626084,-2.157453430742437,0.006773448951015867,0.29683203072854286,-0.07931785898063172,0.4867552001800192,179.99926531306582,0.0030922574236186525,-15.04638936599237
2024-11-08 11:21:18.680607,-0.2537224228352368,-0.7843291846233571,-2.231053534096361e-05,-2.355910529882429,-6.773043439878279e-06,1.5715250962622758,0.7868777922869805,0.21519230890307406,-0.010780297698106246,-0.003552360105709168,-0.012471364797156558,0.0009681466598011781,0.011594401532188561,0.0013642191483426436,0.1465776658371599,4.077852469276192,0.5905996499718944,-21.6767676974706,-0.5766079581842621,-2.3724850990236424,-0.011736826353782454,0.29740599706797394,-0.0771295849926367,0.48675196761700074,179.99869261440975,0.002990402059518567,-14.62290506188828
2024-11-08 11:21:18.695569,-0.2463018822689742,-0.7843182400138522,-1.8526938819540817e-05,-2.3558982036924903,-6.479467273834416e-06,1.5715134253406537,0.7868764205861343,0.22288977966661655,0.0015480237659482223,-0.0012323201707026277,0.010812903131268557,0.005710048810706946,-0.009801493928479312,-0.002307685834723072,0.16497611696620051,4.101470609176075,0.3706350777502548,-21.880616129360384,-0.7017918170410146,-2.360042342383847,-0.008021927738429083,0.29797124577722545,-0.07491950892945112,0.486753396669641,179.99870330042242,0.0036050020952231323,-14.19750739026103
2024-11-08 11:21:18.736618,-0.23888902389085764,-0.7843197122064458,-2.446597008187723e-05,-2.355909072743599,-1.0301247142407988e-05,1.571523196393077,0.786878711414257,0.22355734918419162,0.0023461319255956552,-0.008402344233481213,0.0042238040030637344,-0.006670399040910472,-0.00872171406112519,-0.001591593530439861,0.06252227253014019,3.686655894912718,0.46730822990840976,-22.55025523682094,-0.707108080233346,-2.209990441476423,0.009037609154876081,0.2985181967491178,-0.07271141789240067,0.48674957792245643,179.99871433902433,0.0035886220905415704,-13.773153841093174
2024-11-08 11:21:18.780629,-0.23147675044556326,-0.784322020191266,2.3303728500678744e-05,-2.35591326861615,-6.282101161048104e-06,1.5715319491158155,0.7868802772558325,0.22026768894024085,-0.011373364778846224,-0.006141230446528895,-0.017955647959514716,-0.007219623026960447,0.006219947830633904,0.0017712497907994285,0.10019676759554265,4.289143903248351,0.72145577693071,-21.73924203439393,-0.6147676130553881,-2.2963864581683575,-0.005762835224636856,0.29905363936528173,-0.07048097531811545,0.486749076554358,-179.9995111034543,0.0036059214169195117,-13.346614313715374
2024-11-08 11:21:18.828603,-0.2240611625362563,-0.7843106668866833,2.155880507803687e-05,-2.355895281751896,8.074616903108733e-06,1.5715257472839959,0.7868785065653796,0.22163458284232726,0.00844126153070102,0.0021961489236638487,0.008646968508624842,0.0014909886959223492,-0.002389117696624882,-0.0011360200928440534,-0.11760941503690088,4.0729589834445745,0.581803280917259,-22.184346648301258,-0.7206888218145586,-2.201430592962001,0.02340391289961958,0.2995712924907551,-0.06825961989313499,0.4867535333001656,179.99965023164657,0.003379629064159293,-12.921702381126261
2024-11-08 11:21:18.876919,-0.21664702754968257,-0.7843191222162638,2.5669183868259893e-05,-2.3559038439397133,7.486394395961327e-06,1.571528194862104,0.7868796328808374,0.21440780875182613,0.001468409602718187,-0.002416036348680345,-0.005934172931164792,-0.00895735858848877,0.0071459990393170645,0.004644130782835765,-0.25835247884399215,4.281809242873536,1.220908274743962,-21.621028695319332,-0.48378579934289734,-2.3139943552938202,-0.014141227603293718,0.3000675630112178,-0.06603510929735973,0.4867523047156871,179.99989951667385,0.0032941546321864357,-12.49680154093711
2024-11-08 11:21:18.877042,-0.20922538350441044,-0.7843206201440527,2.0356858478010054e-05,-2.3558978734328324,1.423735229710843e-05,1.5715210866450295,0.7868749986468284,0.20975785235519323,0.008419849453570608,0.01878408555207381,0.012680342407466183,0.014424036542351793,-0.0040426667285055244,-0.0027859111246727186,-0.09314913059634095,3.7058092028797853,0.532504483376656,-22.377971373800083,-0.6235894415726815,-2.1549175068863704,0.006755594861823153,0.30054837927570827,-0.06380642249335124,0.4867549579344042,179.9993395716002,0.003149631857056978,-12.071522893298459
2024-11-08 11:21:18.924599,-0.20179952707737403,-0.7843290467931894,-1.875515422611329e-05,-2.35591053074618,-6.5455246645029774e-06,1.571525147572581,0.7868777916225147,0.21491775418142206,-0.010575697816217988,-0.003070049577362677,-0.012267766261102717,0.0010536215634902178,0.011836636044964714,0.0013642187708436393,0.14763943823631792,4.0722360902968555,0.5891560465813637,-21.680818661221124,-0.5787150210995631,-2.37370867833913,-0.011251954173467072,0.30100845114721275,-0.06158921896307564,0.4867519293970824,179.9989767794935,0.00308535967924514,-11.64779804673521
2024-11-08 11:21:18.935258,-0.19437860929896988,-0.7843184990215484,-1.5030504724400373e-05,-2.3558983031229053,-6.253084005258813e-06,1.5715132714121642,0.786876415810732,0.2228040206626176,0.001361371733394715,-0.0012290167257651141,0.010664131126223195,0.0054937822463307995,-0.009935854412219752,-0.002213122610647128,0.15447181581982855,4.093056972118247,0.38219308416909603,-21.885500866862078,-0.7003518462202498,-2.3627194211345253,-0.00769726454135583,0.3014581313389765,-0.05935266604140153,0.48675341578592746,179.9990183298782,0.0036919538232604928,-11.222380913894549
2024-11-08 11:21:18.976646,-0.186965737474714,-0.7843198289467024,2.0749926587626533e-05,-2.3559089759463356,-9.881605187445075e-06,1.5715232023233536,0.7868786257885922,0.22321425438483716,0.002075103680942624,-0.008087700402174963,0.0040669289841938445,-0.006533749602410089,-0.00898692514991892,-0.0015265034747771467,0.055825909914873434,3.6897783662539685,0.4818658320980764,-22.544701953606264,-0.6998157145539307,-2.2082317192461165,0.008228550304809137,0.3018923530087232,-0.05710576690125998,0.48674966009185777,-179.9993208236825,0.003973834293400349,-10.796329918104743
2024-11-08 11:21:19.020653,-0.17955303854217686,-0.7843218110180725,1.974136393823045e-05,-2.355913044581059,-6.010028259062494e-06,1.5715322233490117,0.7868801306399256,0.22002384349483028,-0.011270942424753098,-0.005559746021406908,-0.01777708241105417,-0.006503003161580128,0.006382517679177536,0.0016177082965633804,0.10742881494197459,4.285972850744015,0.7007174651737142,-21.749179975338155,-0.61886692143894,-2.298744104344627,-0.005385760635493557,0.3023085039718732,-0.05486609509059287,0.48674914218526694,-179.99947885625798,0.003530860251028486,-10.37174085288438
2024-11-08 11:21:19.064621,-0.17213729024591817,-0.7843104960024636,1.872589099161104e-05,-2.3558952961120374,7.611534417861776e-06,1.5715258303058537,0.7868785217216949,0.22188726218449747,0.008327123222676541,0.0015400523101271046,0.008306195130348349,0.0010835764861643789,-0.0026175666317791732,-0.0010673870767202998,-0.11655821083978969,4.081499799219587,0.5874182731576113,-22.175331556988407,-0.716113277126368,-2.1989462422910244,0.022365766074745504,0.30271012560689736,-0.05262072395969607,0.48675348133926816,179.99973828410467,0.003383903689216039,-9.946799383270667
2024-11-08 11:21:19.112680,-0.1647233171897522,-0.7843187543699353,2.256921872323403e-05,-2.355903578573142,7.2495912819547925e-06,1.5715284816627975,0.7868795861700884,0.21446123110803897,0.0017412182252439807,-0.0021893329929668637,-0.00563237484225894,-0.008497867687403739,0.007384470133726347,0.004435618908733313,-0.2361263566788121,4.281226879824457,1.1869772646397427,-21.622068710176098,-0.49215368155786354,-2.314234603175422,-0.013459249057890577,0.3030903744101809,-0.05037356158168357,0.48675234221895614,179.99996196932116,0.0032661644375238763,-9.521915116482049
2024-11-08 11:21:19.112716,-0.15730183172860368,-0.7843204663748118,1.824177566067675e-05,-2.355897966935638,1.3695796157620066e-05,1.571521099863948,0.7868751679462287,0.21048387457824172,0.008395370398184467,0.01771895585893099,0.012643705027864199,0.013558526430569142,-0.004072372339982969,-0.002633767344084187,-0.1066261922205891,3.7123355995773966,0.5571111639652756,-22.371317677821274,-0.6222474545937312,-2.1525893886991048,0.006778793175963858,0.30345477874576837,-0.04812269691955947,0.4867548677279283,179.99944792691437,0.003184358339019563,-9.096617974103832
2024-11-08 11:21:19.156622,-0.14987660219859933,-0.7843288341599637,-1.5844572004652946e-05,-2.355910618271321,-6.26846425966221e-06,1.5715251798088694,0.7868778060983672,0.2144925400871753,-0.010361743006919156,-0.002331245543529731,-0.01204027160217241,0.0011768907409293755,0.012064043328839766,0.0013696922640962783,0.14045526321748608,4.066240903787818,0.5955083875170224,-21.68774915690314,-0.5806891083638902,-2.37516371849082,-0.010786003661730834,0.3037994184329336,-0.04588300634670501,0.4867518256012737,179.99923677866704,0.0031647047065922083,-8.672716383452737
2024-11-08 11:21:19.172412,-0.14245533943576927,-0.784318475786443,-1.2295881136381581e-05,-2.355898608594516,-6.017293246785016e-06,1.5715131043703296,0.786876451825961,0.22278033568587133,0.0011621913391966254,-0.00127642758276017,0.01043312258409363,0.005292440434284102,-0.010047054166269373,-0.002114016356114856,0.14443107743860834,4.085678368814641,0.4163456105341735,-21.88860272815742,-0.6986387127919614,-2.365220690700847,-0.007391687190923628,0.3041323167129755,-0.043626074497785924,0.4867532497629666,179.99930341691285,0.0037798390420771036,-8.247287850028085
2024-11-08 11:21:19.212617,-0.13504226334478275,-0.7843196362344145,-1.773398164317541e-05,-2.3559090451703275,-9.416728603106606e-06,1.5715231457813248,0.7868785433076892,0.22289146166405577,0.0018347669838004533,-0.007784572690273411,0.003976646246037176,-0.006362996129982474,-0.009227245310313971,-0.0014689401356248188,0.04851099348197439,3.6928524642464216,0.49662108455318404,-22.539158540200994,-0.6927858236936999,-2.206697611135553,0.007456127635175433,0.30444761642686397,-0.04137288636096494,0.4867495631867468,179.9993122653887,0.0037380426223798235,-7.822890108282734
2024-11-08 11:21:19.256672,-0.12762929575303072,-0.7843214199338968,1.698981944375788e-05,-2.3559130121385454,-5.756162670955689e-06,1.5715324008164888,0.7868799926533745,0.21978806659992173,-0.011180641922945964,-0.005030881276072735,-0.01759146237441473,-0.005808259871231607,0.006534909060978653,0.0014601447371059562,0.11666310443045104,4.282160864242717,0.67821525333897,-21.760797078022865,-0.6226873944953227,-2.3006958614106146,-0.005147740468213956,0.30474863877689684,-0.039103063500433584,0.48674905296355286,-179.99942251179786,0.0034933263101608585,-7.396833231143744
2024-11-08 11:21:19.304596,-0.12021320962184667,-0.7843101998353239,1.6634947464844174e-05,-2.3558954378534587,7.168097244658611e-06,1.5715258735112059,0.786878534670655,0.22216965281114495,0.008197137201700438,0.0008604700486709027,0.007914339575261279,0.0007379939739033221,-0.0028136243716600966,-0.0010179744262093227,-0.1144900307883496,4.089444045682358,0.5914922898018873,-22.164925757066513,-0.7121021083674224,-2.1968503543663176,0.021371872077936026,0.30503314573255574,-0.03683969512703399,0.48675332724543374,179.99985276063302,0.003408276279579985,-6.971854230304699
2024-11-08 11:21:19.348660,-0.11279958724511197,-0.7843183331372083,2.0248814478485144e-05,-2.3559033093027617,7.004355047079969e-06,1.571528721987681,0.7868795433617111,0.2145031635410233,0.001997204570107177,-0.0019862573610215095,-0.005285590673572067,-0.008101641110477058,0.0075814658488771065,0.004243387755497902,-0.21460251589013069,4.281619717380658,1.154438747279028,-21.623450935764765,-0.5001770627049298,-2.3142826989500693,-0.012812381114904525,0.30529635520439435,-0.034575979309605785,0.4867523610660253,-179.9999472494252,0.003249716858296399,-6.546996175947179
2024-11-08 11:21:19.348697,-0.10537824559776521,-0.7843203044156928,1.6908518191804944e-05,-2.355898033784582,1.3140157228974658e-05,1.5715211483573022,0.7868753259399046,0.21119939387330625,0.00840831670490775,0.016676538417376513,0.012596307162572009,0.012774810796501218,-0.0040740695175686,-0.0025074583878203494,-0.11702389766738165,3.7189681486544894,0.576082856116837,-22.36381664143389,-0.6216476548642276,-2.1506118713561806,0.006872629315488508,0.3055433534287881,-0.032309010815415366,0.4867547906850731,179.9995908511357,0.0032166657705074188,-6.121678728786179
2024-11-08 11:21:19.396622,-0.09795363576210558,-0.7843286889911436,-1.3901176747488364e-05,-2.3559106321693752,-6.027906734651367e-06,1.5715252344573987,0.7868778434550769,0.21422090654201129,-0.010146201855535395,-0.001844881322721037,-0.011786230579556516,0.0011946616431849936,0.012252557210762377,0.001390337267491104,0.13825833826764142,4.0604711632108765,0.5962912790097276,-21.696406420771968,-0.5822249231824429,-2.376104441092496,-0.010306025812730437,0.30577139993582825,-0.030053412053721883,0.48675177925537066,179.99946603068972,0.0032123491516074638,-5.69767287447249
2024-11-08 11:21:19.410388,-0.09053205395734576,-0.7843185472790148,-1.070895185595333e-05,-2.355898893413264,-5.752333203545845e-06,1.5715129497372677,0.7868764547816944,0.22252237252436113,0.0009683246209576727,-0.0010953486561655346,0.01013816577987614,0.005135845977028811,-0.010161361776957385,-0.002023098508609128,0.1352332921160686,4.07932359122334,0.40441524782887556,-21.889729640961715,-0.6965423911333551,-2.3673924178291563,-0.007142208849398089,0.3059865977842782,-0.02778224673440711,0.48675312368010965,179.99954746910032,0.0038363279834933697,-5.272238546004081
2024-11-08 11:21:19.452634,-0.0831188632491795,-0.7843194929346406,-1.5682601109290317e-05,-2.355909025448965,-8.960675465630175e-06,1.5715231028094605,0.7868784677880507,0.22257581849384608,0.001616289171279481,-0.007451336366894323,0.0039459467812071325,-0.006170082433356495,-0.009445402320392914,-0.001415135974392162,0.0399767893721104,3.695223065724189,0.5126749890613014,-22.53382546885601,-0.6862057431303752,-2.2055013274853645,0.00677216633081147,0.3061846419859055,-0.025515513285663427,0.4867495246979896,179.99956310427476,0.0037829315552718357,-4.847810912793424
2024-11-08 11:21:19.500603,-0.07570559812778654,-0.784321071480532,1.5265182365276075e-05,-2.355912967841906,-5.520378464574094e-06,1.5715325688700137,0.7868798640238914,0.21951042314568325,-0.011110973959738044,-0.004478143340524959,-0.017415159592505152,-0.005159947984603036,0.006652415686495467,0.0013210876069555955,0.12547155189009535,4.278414770432429,0.6577672781456754,-21.77366185231382,-0.6257508851063558,-2.302374398740094,-0.00497272024593976,0.3063674381696451,-0.02323431467765262,0.48674898160334423,-179.99932564722945,0.0034601224651385066,-4.421887083394579
2024-11-08 11:21:19.544654,-0.06828914534780406,-0.7843099075330056,1.5249405923789539e-05,-2.3558955745836103,6.766433401139693e-06,1.5715259311257235,0.7868785346185376,0.22243471393562517,0.008069376339505226,0.00023400654084465566,0.007483281655326022,0.000463753489166668,-0.0029822550082270914,-0.000981478298743066,-0.11327603315203383,4.096779270640733,0.5957964724755742,-22.153544536093943,-0.7085947387981761,-2.1952110603325643,0.02046747150175195,0.3065340470091949,-0.020959137585747738,0.48675317796806283,179.9999954133741,0.0034302995947930897,-3.996880661092665
2024-11-08 11:21:19.588652,-0.06087593130248692,-0.7843179262979216,1.888436792629733e-05,-2.3559030113787998,6.715525659117816e-06,1.5715289298236055,0.7868795274986748,0.21457892620315308,0.002223185057249702,-0.0018527151137372744,-0.004905083333575196,-0.007786854362954321,0.007737431226368961,0.004064848661685633,-0.1929035476300289,4.28258081567382,1.1232408391305984,-21.625472112550046,-0.5078846418484152,-2.314025894398784,-0.01223206685382487,0.30667951619458333,-0.01868491294182359,0.4867523949964224,-179.99981691728624,0.003234589369036856,-3.5720442457292454
2024-11-08 11:21:19.588687,-0.05345453946917278,-0.7843201198709222,1.6205546145009464e-05,-2.3558981153689764,1.2605545811616992e-05,1.571521210904237,0.7868754804249267,0.21192296871889985,0.008442454555559776,0.01564600261030827,0.012527303901199003,0.012050669235947524,-0.004040496217446378,-0.0024059946559229772,-0.1250767838996821,3.725002617673469,0.5906447474510077,-22.355447410695735,-0.6219703672061776,-2.149082392320129,0.0070310906676829465,0.30680842527448654,-0.016407994340676326,0.4867547009794406,179.999759902126,0.003245329354992616,-3.1467068448411437
